; generated by Slic3r 0.9.3 on 2012-10-04 at 20:35:34

; layer_height = 0.2
; perimeters = 3
; solid_layers = 3
; fill_density = .5
; perimeter_speed = 30
; infill_speed = 60
; travel_speed = 130
; scale = 1
; nozzle_diameter = 0.35
; filament_diameter = 2.83
; extrusion_multiplier = .684
; single wall width = 0.49mm

M104 S200 ; set temperature
G28 ; home all axes
M104 S200 ; set temperature
M116 ; wait for temperature to be reached
G90 ; use absolute coordinates
G21 ; set units to millimeters
G1 F1800.000 E-1.00000
G1 Z0.200 F7800.000
G1 X39.062 Y62.540
G1 F1800.000 E1.00000
G1 X39.442 Y62.180 F540.000 E0.00524
G1 X40.212 Y61.550 E0.00995
G1 X40.942 Y61.070 E0.00874
G1 X41.202 Y60.920 E0.00300
G1 X42.082 Y60.490 E0.00980
G1 X42.732 Y60.240 E0.00697
G1 X43.462 Y60.020 E0.00763
G1 X44.352 Y59.830 E0.00910
G1 X44.632 Y59.790 E0.00283
G1 X45.552 Y59.730 E0.00922
G1 X94.442 Y59.730 E0.48906
G1 X95.362 Y59.790 E0.00922
G1 X95.642 Y59.830 E0.00283
G1 X96.572 Y60.030 E0.00952
G1 X97.182 Y60.210 E0.00636
G1 X98.182 Y60.610 E0.01077
G1 X99.042 Y61.070 E0.00976
G1 X99.912 Y61.650 E0.01046
G1 X100.312 Y61.970 E0.00512
G1 X100.962 Y62.560 E0.00878
G1 X101.162 Y62.770 E0.00290
G1 X101.652 Y63.350 E0.00760
G1 X102.052 Y63.880 E0.00664
G1 X102.522 Y64.640 E0.00894
G1 X102.902 Y65.390 E0.00841
G1 X103.292 Y66.420 E0.01102
G1 X103.522 Y67.230 E0.00842
G1 X103.692 Y68.210 E0.00995
G1 X103.752 Y68.870 E0.00663
G1 X103.772 Y91.440 E0.22577
G1 X103.692 Y92.280 E0.00844
G1 X103.642 Y92.580 E0.00304
G1 X103.412 Y93.530 E0.00978
G1 X103.172 Y94.270 E0.00778
G1 X102.822 Y95.070 E0.00873
G1 X102.682 Y95.340 E0.00304
G1 X102.222 Y96.100 E0.00889
G1 X101.762 Y96.730 E0.00780
G1 X101.052 Y97.530 E0.01070
G1 X100.492 Y98.050 E0.00764
G1 X100.262 Y98.240 E0.00298
G1 X99.532 Y98.760 E0.00897
G1 X98.692 Y99.250 E0.00973
G1 X97.802 Y99.650 E0.00976
G1 X96.772 Y99.970 E0.01079
G1 X96.112 Y100.120 E0.00677
G1 X95.812 Y100.170 E0.00304
G1 X94.972 Y100.250 E0.00844
G1 X94.672 Y100.260 E0.00300
G1 X45.022 Y100.250 E0.49666
G1 X44.132 Y100.160 E0.00895
G1 X43.222 Y99.970 E0.00930
G1 X42.472 Y99.750 E0.00782
G1 X42.192 Y99.650 E0.00297
G1 X41.392 Y99.300 E0.00873
G1 X41.122 Y99.160 E0.00304
G1 X40.362 Y98.700 E0.00889
G1 X39.732 Y98.240 E0.00780
G1 X39.502 Y98.050 E0.00298
G1 X38.942 Y97.530 E0.00764
G1 X38.232 Y96.730 E0.01070
G1 X37.702 Y96.000 E0.00902
G1 X37.222 Y95.170 E0.00959
G1 X36.892 Y94.460 E0.00783
G1 X36.782 Y94.180 E0.00301
G1 X36.522 Y93.330 E0.00889
G1 X36.352 Y92.580 E0.00769
G1 X36.302 Y92.280 E0.00304
G1 X36.222 Y91.440 E0.00844
G1 X36.232 Y68.960 E0.22487
G1 X36.342 Y67.920 E0.01046
G1 X36.482 Y67.160 E0.00773
G1 X36.712 Y66.340 E0.00852
G1 X37.022 Y65.530 E0.00868
G1 X37.462 Y64.640 E0.00993
G1 X37.882 Y63.970 E0.00791
G1 X38.412 Y63.250 E0.00894
G1 X38.731 Y62.901 E0.00473
G1 F1800.000 E-1.00000
G1 X45.047 Y68.155 F7800.000
G1 F1800.000 E1.00000
G1 X45.190 Y67.993 F540.000 E0.00183
G1 X45.349 Y67.851 E0.00181
G1 X45.531 Y67.724 E0.00188
G1 X45.721 Y67.622 E0.00183
G1 X46.040 Y67.496 E0.00290
G1 X46.271 Y67.728 E0.00277
G1 X46.623 Y67.702 E0.00298
G1 X46.925 Y67.772 E0.00263
G1 X46.925 Y67.717 E0.00047
G1 X47.105 Y67.820 E0.00175
G1 X47.105 Y67.820 E0.00000
G1 X47.495 Y68.044 E0.00381
G1 X47.819 Y68.390 E0.00401
G1 X48.027 Y68.815 E0.00401
G1 X48.102 Y69.283 E0.00401
G1 X48.037 Y69.752 E0.00401
G1 X47.829 Y70.200 E0.00418
G1 X48.426 Y70.200 E0.00505
G1 X48.625 Y70.183 E0.00169
G1 X48.776 Y70.123 E0.00137
G1 X48.902 Y70.022 E0.00137
G1 X48.993 Y69.888 E0.00137
G1 X49.042 Y69.732 E0.00138
G1 X49.054 Y68.888 E0.00715
G1 X49.135 Y68.550 E0.00295
G1 X49.316 Y68.243 E0.00301
G1 X49.578 Y68.003 E0.00301
G1 X49.898 Y67.850 E0.00301
G1 X50.235 Y67.800 E0.00288
G1 X89.782 Y67.801 E0.33480
G1 X89.981 Y67.822 E0.00170
G1 X90.183 Y67.882 E0.00178
G1 X90.220 Y67.895 E0.00033
G1 X90.427 Y68.009 E0.00200
G1 X90.589 Y68.144 E0.00179
G1 X90.613 Y68.166 E0.00028
G1 X90.739 Y68.322 E0.00170
G1 X90.762 Y68.353 E0.00032
G1 X90.877 Y68.584 E0.00218
G1 X90.938 Y68.828 E0.00213
G1 X90.950 Y68.992 E0.00139
G1 X90.950 Y69.646 E0.00554
G1 X90.967 Y69.783 E0.00117
G1 X91.026 Y69.927 E0.00132
G1 X91.107 Y70.033 E0.00112
G1 X91.233 Y70.130 E0.00135
G1 X91.367 Y70.183 E0.00122
G1 X91.504 Y70.200 E0.00117
G1 X92.157 Y70.200 E0.00553
G1 X92.004 Y69.867 E0.00310
G1 X91.937 Y69.645 E0.00197
G1 X91.904 Y69.415 E0.00196
G1 X91.904 Y69.189 E0.00192
G1 X91.934 Y68.969 E0.00188
G1 X91.997 Y68.750 E0.00193
G1 X92.093 Y68.537 E0.00198
G1 X92.215 Y68.347 E0.00191
G1 X92.360 Y68.177 E0.00189
G1 X92.539 Y68.020 E0.00201
G1 X92.728 Y67.898 E0.00190
G1 X92.938 Y67.802 E0.00196
G1 X93.159 Y67.737 E0.00195
G1 X93.391 Y67.703 E0.00199
G1 X93.423 Y67.702 E0.00027
G1 X93.617 Y67.704 E0.00164
G1 X93.739 Y67.718 E0.00104
G1 X93.960 Y67.497 E0.00265
G1 X94.272 Y67.618 E0.00283
G1 X94.428 Y67.702 E0.00151
G1 X94.428 Y67.702 E0.00000
G1 X94.468 Y67.723 E0.00038
G1 X94.645 Y67.847 E0.00183
G1 X94.807 Y67.990 E0.00183
G1 X94.949 Y68.149 E0.00181
G1 X95.076 Y68.331 E0.00188
G1 X95.178 Y68.521 E0.00183
G1 X95.304 Y68.840 E0.00290
G1 X95.078 Y69.065 E0.00270
G1 X95.098 Y69.225 E0.00136
G1 X95.086 Y69.515 E0.00246
G1 X95.019 Y69.805 E0.00252
G1 X94.898 Y70.080 E0.00255
G1 X94.898 Y70.080 E0.00000
G1 X94.867 Y70.150 E0.00065
G1 X94.851 Y70.150 E0.00013
G1 X94.741 Y70.311 E0.00165
G1 X94.525 Y70.529 E0.00260
G1 X94.286 Y70.694 E0.00246
G1 X94.036 Y70.808 E0.00232
G1 X93.757 Y70.880 E0.00244
G1 X93.667 Y70.886 E0.00076
G1 X93.667 Y70.886 E0.00000
G1 X93.450 Y70.900 E0.00184
G1 X93.450 Y72.000 E0.00931
G1 X95.451 Y72.000 E0.01694
G1 X95.627 Y72.073 E0.00161
G1 X95.700 Y72.249 E0.00161
G1 X95.700 Y74.134 E0.01596
G1 X95.668 Y74.252 E0.00103
G1 X95.557 Y74.367 E0.00135
G1 X95.431 Y74.400 E0.00110
G1 X95.431 Y74.400 E0.00000
G1 X95.221 Y74.455 E0.00184
G1 X95.221 Y74.400 E0.00047
G1 X93.450 Y74.400 E0.01499
G1 X93.450 Y75.500 E0.00931
G1 X95.450 Y75.500 E0.01694
G1 X95.631 Y75.579 E0.00167
G1 X95.700 Y75.754 E0.00160
G1 X95.700 Y77.651 E0.01606
G1 X95.627 Y77.827 E0.00161
G1 X95.451 Y77.900 E0.00161
G1 X93.450 Y77.900 E0.01694
G1 X93.450 Y79.000 E0.00931
G1 X95.448 Y79.000 E0.01692
G1 X95.628 Y79.074 E0.00164
G1 X95.700 Y79.249 E0.00160
G1 X95.700 Y81.120 E0.01584
G1 X95.663 Y81.308 E0.00162
G1 X95.522 Y81.366 E0.00129
G1 X95.453 Y81.400 E0.00065
G1 X93.450 Y81.400 E0.01696
G1 X93.450 Y82.500 E0.00931
G1 X95.440 Y82.500 E0.01685
G1 X95.501 Y82.526 E0.00057
G1 X95.625 Y82.567 E0.00110
G1 X95.700 Y82.749 E0.00167
G1 X95.700 Y84.651 E0.01610
G1 X95.627 Y84.827 E0.00161
G1 X95.451 Y84.900 E0.00161
G1 X93.450 Y84.900 E0.01694
G1 X93.450 Y86.000 E0.00931
G1 X95.451 Y86.000 E0.01694
G1 X95.627 Y86.073 E0.00161
G1 X95.700 Y86.249 E0.00161
G1 X95.700 Y88.150 E0.01610
G1 X95.621 Y88.331 E0.00167
G1 X95.446 Y88.400 E0.00159
G1 X95.446 Y88.400 E0.00000
G1 X95.230 Y88.485 E0.00196
G1 X95.230 Y88.400 E0.00072
G1 X93.450 Y88.400 E0.01507
G1 X93.450 Y89.200 E0.00677
G1 X93.753 Y89.220 E0.00257
G1 X94.032 Y89.290 E0.00243
G1 X94.291 Y89.409 E0.00242
G1 X94.531 Y89.576 E0.00248
G1 X94.730 Y89.776 E0.00239
G1 X94.897 Y90.019 E0.00249
G1 X95.017 Y90.290 E0.00251
G1 X95.072 Y90.517 E0.00198
G1 X95.072 Y90.517 E0.00000
G1 X95.083 Y90.565 E0.00042
G1 X95.099 Y90.856 E0.00247
G1 X95.078 Y91.034 E0.00152
G1 X95.303 Y91.260 E0.00270
G1 X95.182 Y91.572 E0.00283
G1 X95.077 Y91.768 E0.00189
G1 X94.953 Y91.945 E0.00183
G1 X94.810 Y92.107 E0.00183
G1 X94.651 Y92.249 E0.00181
G1 X94.469 Y92.376 E0.00188
G1 X94.279 Y92.478 E0.00183
G1 X93.960 Y92.604 E0.00290
G1 X93.738 Y92.382 E0.00266
G1 X93.638 Y92.394 E0.00086
G1 X93.424 Y92.398 E0.00181
G1 X93.214 Y92.374 E0.00179
G1 X93.010 Y92.323 E0.00179
G1 X92.817 Y92.247 E0.00175
G1 X92.627 Y92.141 E0.00184
G1 X92.459 Y92.015 E0.00178
G1 X92.303 Y91.862 E0.00185
G1 X92.172 Y91.693 E0.00181
G1 X92.065 Y91.507 E0.00181
G1 X91.983 Y91.309 E0.00182
G1 X91.931 Y91.115 E0.00170
G1 X91.903 Y90.903 E0.00181
G1 X91.903 Y90.689 E0.00182
G1 X91.943 Y90.400 E0.00247
G1 X91.511 Y90.400 E0.00366
G1 X91.385 Y90.412 E0.00107
G1 X91.264 Y90.454 E0.00109
G1 X91.149 Y90.528 E0.00116
G1 X91.055 Y90.627 E0.00116
G1 X90.991 Y90.744 E0.00113
G1 X90.953 Y90.895 E0.00132
G1 X90.950 Y90.948 E0.00045
G1 X90.950 Y92.175 E0.01039
G1 X49.050 Y92.175 E0.35472
G1 X49.050 Y90.948 E0.01039
G1 X49.047 Y90.894 E0.00045
G1 X49.013 Y90.753 E0.00123
G1 X48.949 Y90.634 E0.00114
G1 X48.858 Y90.534 E0.00114
G1 X48.740 Y90.457 E0.00120
G1 X48.676 Y90.439 E0.00056
G1 X48.588 Y90.409 E0.00079
G1 X48.489 Y90.400 E0.00084
G1 X48.054 Y90.400 E0.00369
G1 X48.096 Y90.688 E0.00246
G1 X48.097 Y90.899 E0.00179
G1 X48.071 Y91.105 E0.00176
G1 X48.018 Y91.305 E0.00175
G1 X47.936 Y91.507 E0.00184
G1 X47.831 Y91.688 E0.00178
G1 X47.697 Y91.862 E0.00185
G1 X47.545 Y92.012 E0.00181
G1 X47.509 Y92.039 E0.00038
G1 X47.509 Y92.039 E0.00000
G1 X47.374 Y92.141 E0.00143
G1 X47.190 Y92.244 E0.00179
G1 X46.994 Y92.322 E0.00179
G1 X46.835 Y92.362 E0.00138
G1 X46.835 Y92.362 E0.00000
G1 X46.793 Y92.373 E0.00037
G1 X46.577 Y92.398 E0.00184
G1 X46.367 Y92.395 E0.00178
G1 X46.261 Y92.382 E0.00090
G1 X46.040 Y92.604 E0.00265
G1 X45.726 Y92.480 E0.00285
G1 X45.532 Y92.377 E0.00187
G1 X45.355 Y92.253 E0.00183
G1 X45.193 Y92.110 E0.00183
G1 X44.822 Y91.694 E0.00472
G1 X44.850 Y91.631 E0.00058
G1 X44.667 Y91.290 E0.00328
G1 X44.922 Y91.035 E0.00305
G1 X44.902 Y90.875 E0.00136
G1 X44.914 Y90.585 E0.00246
G1 X44.981 Y90.295 E0.00252
G1 X45.101 Y90.022 E0.00253
G1 X45.256 Y89.794 E0.00233
G1 X45.455 Y89.588 E0.00243
G1 X45.689 Y89.421 E0.00243
G1 X45.956 Y89.295 E0.00250
G1 X46.233 Y89.222 E0.00243
G1 X46.550 Y89.197 E0.00269
G1 X46.550 Y88.400 E0.00675
G1 X44.570 Y88.400 E0.01676
G1 X44.456 Y88.371 E0.00100
G1 X44.336 Y88.263 E0.00137
G1 X44.300 Y88.135 E0.00113
G1 X44.300 Y86.266 E0.01582
G1 X44.332 Y86.148 E0.00103
G1 X44.443 Y86.033 E0.00135
G1 X44.569 Y86.000 E0.00110
G1 X46.550 Y86.000 E0.01677
G1 X46.550 Y84.900 E0.00931
G1 X44.570 Y84.900 E0.01676
G1 X44.456 Y84.872 E0.00100
G1 X44.336 Y84.763 E0.00137
G1 X44.300 Y84.635 E0.00113
G1 X44.300 Y82.761 E0.01587
G1 X44.344 Y82.622 E0.00123
G1 X44.477 Y82.518 E0.00143
G1 X44.578 Y82.500 E0.00087
G1 X46.550 Y82.500 E0.01670
G1 X46.550 Y81.400 E0.00931
G1 X44.561 Y81.400 E0.01684
G1 X44.347 Y81.330 E0.00190
G1 X44.300 Y81.130 E0.00174
G1 X44.300 Y79.257 E0.01586
G1 X44.352 Y79.106 E0.00135
G1 X44.515 Y79.000 E0.00165
G1 X46.550 Y79.000 E0.01722
G1 X46.550 Y77.900 E0.00931
G1 X44.550 Y77.900 E0.01694
G1 X44.369 Y77.821 E0.00167
G1 X44.300 Y77.646 E0.00159
G1 X44.300 Y75.749 E0.01606
G1 X44.373 Y75.573 E0.00161
G1 X44.549 Y75.500 E0.00161
G1 X46.550 Y75.500 E0.01694
G1 X46.550 Y74.400 E0.00931
G1 X44.547 Y74.400 E0.01696
G1 X44.363 Y74.315 E0.00171
G1 X44.320 Y74.197 E0.00106
G1 X44.320 Y74.197 E0.00000
G1 X44.300 Y74.143 E0.00049
G1 X44.300 Y72.249 E0.01603
G1 X44.373 Y72.073 E0.00161
G1 X44.549 Y72.000 E0.00161
G1 X46.550 Y72.000 E0.01694
G1 X46.550 Y70.903 E0.00929
G1 X46.251 Y70.881 E0.00254
G1 X45.959 Y70.806 E0.00255
G1 X45.689 Y70.680 E0.00252
G1 X45.461 Y70.517 E0.00237
G1 X45.267 Y70.320 E0.00235
G1 X45.103 Y70.081 E0.00245
G1 X44.983 Y69.810 E0.00251
G1 X44.917 Y69.534 E0.00240
G1 X44.901 Y69.244 E0.00247
G1 X44.922 Y69.066 E0.00152
G1 X44.696 Y68.840 E0.00270
G1 X44.799 Y68.576 E0.00240
G1 F1800.000 E-1.00000
G1 X43.624 Y88.691 F7800.000
G1 F1800.000 E1.00000
G1 X44.064 Y89.087 F540.000 E0.00501
G1 X44.676 Y89.240 E0.00534
G1 X44.401 Y89.654 E0.00421
G1 X44.115 Y90.305 E0.00602
G1 X44.147 Y90.305 E0.00027
G1 X44.117 Y90.724 E0.00355
G1 X43.620 Y91.220 E0.00595
G1 X43.460 Y91.149 E0.00148
G1 X43.545 Y89.645 E0.01275
G1 X43.489 Y89.645 E0.00047
G1 X43.489 Y89.095 E0.00465
G1 F1800.000 E-1.00000
G1 X43.489 Y71.585 F7800.000
G1 F1800.000 E1.00000
G1 X43.510 Y68.968 F540.000 E0.02215
G1 X43.653 Y68.913 E0.00130
G1 X44.116 Y69.376 E0.00555
G1 X44.137 Y69.666 E0.00247
G1 X44.228 Y70.047 E0.00331
G1 X44.375 Y70.390 E0.00316
G1 X44.414 Y70.467 E0.00072
G1 X44.607 Y70.756 E0.00295
G1 X44.658 Y70.823 E0.00071
G1 X44.882 Y71.072 E0.00283
G1 X44.820 Y71.211 E0.00129
G1 X44.392 Y71.211 E0.00363
G1 X43.942 Y71.397 E0.00412
G1 F1800.000 E-1.00000
G1 X95.352 Y89.285 F7800.000
G1 F1800.000 E1.00000
G1 X96.511 Y88.830 F540.000 E0.01054
G1 X96.511 Y89.645 E0.00690
G1 X96.455 Y89.645 E0.00047
G1 X96.540 Y91.149 E0.01275
G1 X96.380 Y91.220 E0.00148
G1 X95.884 Y90.724 E0.00594
G1 X95.863 Y90.434 E0.00247
G1 X95.694 Y89.728 E0.00614
G1 X95.645 Y89.728 E0.00041
G1 X95.623 Y89.693 E0.00035
G1 F1800.000 E-1.00000
G1 X96.511 Y71.585 F7800.000
G1 F1800.000 E1.00000
G1 X95.608 Y71.211 F540.000 E0.00827
G1 X95.263 Y71.211 E0.00292
G1 X95.764 Y70.071 E0.01054
G1 X95.853 Y69.705 E0.00319
G1 X95.869 Y69.621 E0.00073
G1 X95.883 Y69.376 E0.00207
G1 X96.347 Y68.913 E0.00555
G1 X96.490 Y68.968 E0.00130
G1 X96.511 Y71.095 E0.01800
G1 F1800.000 E-1.00000
G1 X92.366 Y67.192 F7800.000
G1 F1800.000 E1.00000
G1 X92.075 Y67.381 F540.000 E0.00294
G1 X91.788 Y67.631 E0.00322
G1 X91.482 Y67.989 E0.00399
G1 X91.181 Y67.617 E0.00405
G1 X90.953 Y67.417 E0.00257
G1 X90.632 Y67.171 E0.00343
G1 X90.693 Y66.989 E0.00163
G1 X92.028 Y66.989 E0.01130
G1 F1800.000 E-1.00000
G1 X49.341 Y67.150 F7800.000
G1 F1800.000 E1.00000
G1 X48.696 Y67.741 F540.000 E0.00741
G1 X48.540 Y68.005 E0.00260
G1 X47.991 Y67.419 E0.00680
G1 X47.622 Y67.207 E0.00360
G1 X47.680 Y66.989 E0.00190
G1 X48.961 Y66.989 E0.01085
G1 F1800.000 E-1.00000
G1 X46.531 Y67.217 F7800.000
G1 F1800.000 E1.00000
G1 X46.380 Y67.279 F540.000 E0.00138
G1 X46.136 Y67.034 E0.00293
G1 X45.550 Y67.266 E0.00533
G1 X45.329 Y67.385 E0.00213
G1 X45.099 Y67.545 E0.00237
G1 X44.914 Y67.711 E0.00210
G1 X44.737 Y67.910 E0.00226
G1 X44.584 Y68.130 E0.00226
G1 X44.463 Y68.355 E0.00217
G1 X44.235 Y68.937 E0.00529
G1 X44.506 Y69.207 E0.00324
G1 X44.520 Y69.529 E0.00273
G1 X44.527 Y69.600 E0.00061
G1 X44.606 Y69.929 E0.00286
G1 X44.732 Y70.222 E0.00270
G1 X44.759 Y70.274 E0.00050
G1 X44.928 Y70.525 E0.00257
G1 X44.962 Y70.571 E0.00049
G1 X45.205 Y70.818 E0.00293
G1 X45.497 Y71.025 E0.00303
G1 X45.817 Y71.176 E0.00300
G1 X46.303 Y71.303 E0.00425
G1 X46.265 Y71.605 E0.00258
G1 X44.471 Y71.605 E0.01519
G1 X44.071 Y71.771 E0.00366
G1 X43.905 Y72.171 E0.00366
G1 X43.905 Y74.213 E0.01729
G1 X44.049 Y74.604 E0.00353
G1 X44.645 Y74.880 E0.00556
G1 X44.641 Y75.035 E0.00131
G1 X44.071 Y75.271 E0.00523
G1 X43.905 Y75.671 E0.00366
G1 X43.905 Y77.720 E0.01735
G1 X44.061 Y78.117 E0.00361
G1 X44.592 Y78.349 E0.00491
G1 X44.602 Y78.473 E0.00105
G1 X44.023 Y78.850 E0.00585
G1 X43.905 Y79.191 E0.00306
G1 X43.905 Y81.176 E0.01681
G1 X44.015 Y81.636 E0.00400
G1 X44.676 Y81.853 E0.00589
G1 X44.659 Y82.084 E0.00196
G1 X44.312 Y82.147 E0.00299
G1 X44.004 Y82.386 E0.00330
G1 X43.905 Y82.700 E0.00279
G1 X43.905 Y84.689 E0.01683
G1 X43.987 Y84.984 E0.00259
G1 X44.260 Y85.229 E0.00310
G1 X44.676 Y85.333 E0.00363
G1 X44.677 Y85.563 E0.00195
G1 X44.231 Y85.681 E0.00391
G1 X43.979 Y85.942 E0.00308
G1 X43.905 Y86.214 E0.00238
G1 X43.905 Y88.189 E0.01672
G1 X43.987 Y88.484 E0.00259
G1 X44.260 Y88.729 E0.00310
G1 X44.522 Y88.795 E0.00229
G1 X45.556 Y88.795 E0.00876
G1 X45.617 Y88.985 E0.00169
G1 X45.190 Y89.294 E0.00446
G1 X44.954 Y89.538 E0.00288
G1 X44.751 Y89.838 E0.00307
G1 X44.719 Y89.910 E0.00067
G1 X44.719 Y89.910 E0.00000
G1 X44.609 Y90.162 E0.00233
G1 X44.533 Y90.474 E0.00272
G1 X44.523 Y90.532 E0.00050
G1 X44.504 Y90.894 E0.00307
G1 X44.180 Y91.218 E0.00388
G1 X44.410 Y91.647 E0.00412
G1 X44.357 Y91.766 E0.00110
G1 X44.911 Y92.386 E0.00704
G1 X45.110 Y92.563 E0.00226
G1 X45.330 Y92.716 E0.00227
G1 X45.555 Y92.837 E0.00217
G1 X46.337 Y93.143 E0.00711
G1 X46.288 Y93.405 E0.00226
G1 X45.557 Y93.405 E0.00618
G1 X45.283 Y93.391 E0.00232
G1 X45.028 Y93.350 E0.00219
G1 X44.778 Y93.283 E0.00219
G1 X44.556 Y93.198 E0.00202
G1 X44.556 Y93.198 E0.00000
G1 X44.537 Y93.190 E0.00017
G1 X44.307 Y93.073 E0.00219
G1 X44.090 Y92.932 E0.00219
G1 X43.889 Y92.769 E0.00219
G1 X43.721 Y92.600 E0.00202
G1 X43.721 Y92.600 E0.00000
G1 X43.707 Y92.586 E0.00017
G1 X43.545 Y92.384 E0.00219
G1 X43.415 Y92.184 E0.00202
G1 X43.415 Y92.184 E0.00000
