; generated by Slic3r 0.8.4 on 2012-10-04 at 20:58:00

; layer_height = 0.4
; perimeters = 3
; solid_layers = 3
; fill_density = 0.4
; nozzle_diameter = 0.5
; filament_diameter = 2.83
; extrusion_multiplier = .684
; perimeter_speed = 30
; infill_speed = 60
; travel_speed = 130
; scale = 1
; single wall width = 0.53mm

M104 S200 ; set temperature
G28 ; home all axes
M109 S200 ; wait for temperature to be reached
G90 ; use absolute coordinates
G21 ; set units to millimeters
G1 Z0.400 F7800.000
G1 X68.972 Y82.520
G1 F1800.000 E1.00000
G1 X69.412 Y82.090 F540.000 E0.01391
G1 X70.152 Y81.490 E0.02153
G1 X70.392 Y81.320 E0.00665
G1 X71.072 Y80.900 E0.01806
G1 X71.862 Y80.500 E0.02001
G1 X72.502 Y80.230 E0.01570
G1 X72.782 Y80.130 E0.00672
G1 X73.732 Y79.870 E0.02226
G1 X74.662 Y79.710 E0.02133
G1 X75.552 Y79.640 E0.02018
G1 X124.442 Y79.640 E1.10502
G1 X125.332 Y79.710 E0.02018
G1 X126.262 Y79.870 E0.02133
G1 X127.212 Y80.130 E0.02226
G1 X127.492 Y80.230 E0.00672
G1 X128.402 Y80.630 E0.02247
G1 X129.002 Y80.960 E0.01548
G1 X129.582 Y81.320 E0.01543
G1 X130.162 Y81.750 E0.01632
G1 X130.902 Y82.400 E0.02226
G1 X131.112 Y82.610 E0.00671
G1 X131.712 Y83.300 E0.02067
G1 X132.272 Y84.080 E0.02170
G1 X132.712 Y84.830 E0.01965
G1 X133.082 Y85.610 E0.01951
G1 X133.322 Y86.240 E0.01524
G1 X133.612 Y87.270 E0.02419
G1 X133.772 Y88.200 E0.02133
G1 X133.832 Y88.870 E0.01520
G1 X133.862 Y111.140 E0.50335
G1 X133.792 Y112.090 E0.02153
G1 X133.752 Y112.390 E0.00684
G1 X133.572 Y113.260 E0.02008
G1 X133.302 Y114.130 E0.02059
G1 X133.192 Y114.420 E0.00701
G1 X132.882 Y115.110 E0.01710
G1 X132.452 Y115.890 E0.02013
G1 X132.292 Y116.140 E0.00671
G1 X131.722 Y116.910 E0.02165
G1 X131.112 Y117.580 E0.02048
G1 X130.442 Y118.200 E0.02063
G1 X129.572 Y118.830 E0.02428
G1 X128.632 Y119.360 E0.02439
G1 X127.732 Y119.750 E0.02217
G1 X127.082 Y119.970 E0.01551
G1 X126.132 Y120.200 E0.02209
G1 X125.832 Y120.250 E0.00687
G1 X124.972 Y120.330 E0.01952
G1 X124.452 Y120.350 E0.01176
G1 X75.022 Y120.330 E1.11723
G1 X74.162 Y120.250 E0.01952
G1 X73.862 Y120.200 E0.00687
G1 X72.912 Y119.970 E0.02209
G1 X72.042 Y119.670 E0.02080
G1 X71.352 Y119.360 E0.01710
G1 X70.572 Y118.930 E0.02013
G1 X70.322 Y118.770 E0.00671
G1 X69.662 Y118.290 E0.01845
G1 X68.982 Y117.690 E0.02050
G1 X68.772 Y117.480 E0.00671
G1 X68.082 Y116.670 E0.02405
G1 X67.632 Y116.040 E0.01750
G1 X67.242 Y115.380 E0.01733
G1 X67.102 Y115.110 E0.00687
G1 X66.722 Y114.230 E0.02167
G1 X66.422 Y113.260 E0.02295
G1 X66.262 Y112.540 E0.01667
G1 X66.182 Y112.030 E0.01167
G1 X66.102 Y111.010 E0.02313
G1 X66.162 Y88.870 E0.50042
G1 X66.262 Y87.910 E0.02182
G1 X66.452 Y86.980 E0.02145
G1 X66.672 Y86.240 E0.01745
G1 X66.882 Y85.660 E0.01394
G1 X67.252 Y84.860 E0.01992
G1 X67.392 Y84.600 E0.00667
G1 X67.812 Y83.920 E0.01806
G1 X68.472 Y83.070 E0.02432
G1 X68.918 Y82.577 E0.01502
G1 F1800.000 E-1.00000
G1 X75.186 Y88.052 F7800.000
G1 F1800.000 E1.00000
G1 X75.216 Y88.020 F540.000 E0.00099
G1 X75.373 Y87.880 E0.00475
G1 X75.550 Y87.756 E0.00489
G1 X75.737 Y87.656 E0.00480
G1 X76.030 Y87.540 E0.00712
G1 X76.257 Y87.766 E0.00725
G1 X76.620 Y87.740 E0.00823
G1 X77.071 Y87.843 E0.01045
G1 X77.472 Y88.074 E0.01045
G1 X77.788 Y88.412 E0.01045
G1 X77.991 Y88.827 E0.01045
G1 X78.064 Y89.283 E0.01045
G1 X78.001 Y89.741 E0.01045
G1 X77.771 Y90.238 E0.01236
G1 X78.428 Y90.238 E0.01485
G1 X78.634 Y90.220 E0.00468
G1 X78.795 Y90.156 E0.00392
G1 X78.930 Y90.048 E0.00391
G1 X79.027 Y89.905 E0.00391
G1 X79.079 Y89.738 E0.00393
G1 X79.092 Y88.893 E0.01912
G1 X79.170 Y88.564 E0.00764
G1 X79.345 Y88.267 E0.00778
G1 X79.599 Y88.035 E0.00778
G1 X79.910 Y87.887 E0.00778
G1 X80.238 Y87.838 E0.00750
G1 X119.797 Y87.840 E0.89412
G1 X119.974 Y87.859 E0.00403
G1 X120.154 Y87.911 E0.00424
G1 X120.205 Y87.930 E0.00121
G1 X120.407 Y88.040 E0.00521
G1 X120.551 Y88.159 E0.00424
G1 X120.586 Y88.192 E0.00108
G1 X120.699 Y88.331 E0.00404
G1 X120.729 Y88.373 E0.00117
G1 X120.841 Y88.596 E0.00565
G1 X120.904 Y88.865 E0.00623
G1 X120.913 Y88.998 E0.00302
G1 X120.913 Y89.645 E0.01461
G1 X120.914 Y89.669 E0.00054
G1 X120.929 Y89.789 E0.00273
G1 X120.995 Y89.950 E0.00394
G1 X121.076 Y90.057 E0.00303
G1 X121.170 Y90.128 E0.00267
G1 X121.170 Y90.128 E0.00000
G1 X121.218 Y90.165 E0.00137
G1 X121.356 Y90.221 E0.00336
G1 X121.482 Y90.236 E0.00286
G1 X121.505 Y90.238 E0.00052
G1 X122.200 Y90.238 E0.01572
G1 X122.039 Y89.854 E0.00940
G1 X121.974 Y89.637 E0.00512
G1 X121.941 Y89.412 E0.00515
G1 X121.941 Y89.192 E0.00497
G1 X121.971 Y88.976 E0.00493
G1 X122.032 Y88.764 E0.00499
G1 X122.127 Y88.554 E0.00519
G1 X122.245 Y88.369 E0.00495
G1 X122.387 Y88.203 E0.00496
G1 X122.561 Y88.051 E0.00522
G1 X122.746 Y87.931 E0.00498
G1 X122.951 Y87.837 E0.00508
G1 X123.166 Y87.773 E0.00508
G1 X123.394 Y87.741 E0.00521
G1 X123.441 Y87.739 E0.00106
G1 X123.614 Y87.742 E0.00391
G1 X123.753 Y87.757 E0.00315
G1 X123.973 Y87.537 E0.00704
G1 X124.256 Y87.652 E0.00691
G1 X124.449 Y87.756 E0.00496
G1 X124.622 Y87.877 E0.00477
G1 X124.780 Y88.016 E0.00476
G1 X124.920 Y88.173 E0.00475
G1 X125.044 Y88.350 E0.00489
G1 X125.144 Y88.537 E0.00480
G1 X125.260 Y88.830 E0.00712
G1 X125.039 Y89.051 E0.00707
G1 X125.061 Y89.226 E0.00399
G1 X125.053 Y89.463 E0.00536
G1 X125.049 Y89.510 E0.00106
G1 X124.997 Y89.743 E0.00540
G1 X124.983 Y89.792 E0.00116
G1 X124.865 Y90.061 E0.00663
G1 X124.712 Y90.286 E0.00616
G1 X124.500 Y90.501 E0.00682
G1 X124.306 Y90.637 E0.00537
G1 X124.267 Y90.661 E0.00103
G1 X124.023 Y90.772 E0.00605
G1 X123.800 Y90.832 E0.00522
G1 X123.752 Y90.842 E0.00113
G1 X123.413 Y90.865 E0.00768
G1 X123.413 Y92.038 E0.02649
G1 X125.408 Y92.038 E0.04510
G1 X125.547 Y92.051 E0.00316
G1 X125.655 Y92.212 E0.00437
G1 X125.663 Y92.292 E0.00182
G1 X125.663 Y94.106 E0.04099
G1 X125.656 Y94.207 E0.00230
G1 X125.512 Y94.363 E0.00478
G1 X123.413 Y94.363 E0.04745
G1 X123.413 Y95.538 E0.02656
G1 X125.455 Y95.538 E0.04617
G1 X125.607 Y95.613 E0.00383
G1 X125.663 Y95.755 E0.00343
G1 X125.663 Y97.608 E0.04189
G1 X125.655 Y97.688 E0.00182
G1 X125.547 Y97.849 E0.00437
G1 X125.408 Y97.863 E0.00316
G1 X123.413 Y97.863 E0.04510
G1 X123.413 Y99.038 E0.02656
G1 X125.408 Y99.038 E0.04510
G1 X125.547 Y99.051 E0.00316
G1 X125.655 Y99.212 E0.00437
G1 X125.663 Y99.292 E0.00182
G1 X125.663 Y101.116 E0.04123
G1 X125.631 Y101.273 E0.00363
G1 X125.451 Y101.363 E0.00455
G1 X123.413 Y101.363 E0.04607
G1 X123.413 Y102.538 E0.02656
G1 X125.429 Y102.538 E0.04557
G1 X125.663 Y102.617 E0.00558
G1 X125.663 Y104.608 E0.04501
G1 X125.655 Y104.688 E0.00182
G1 X125.547 Y104.849 E0.00437
G1 X125.408 Y104.863 E0.00316
G1 X123.413 Y104.863 E0.04510
G1 X123.413 Y106.037 E0.02656
G1 X125.408 Y106.037 E0.04510
G1 X125.488 Y106.045 E0.00182
G1 X125.649 Y106.153 E0.00437
G1 X125.663 Y106.292 E0.00316
G1 X125.663 Y108.155 E0.04212
G1 X125.587 Y108.307 E0.00383
G1 X125.446 Y108.363 E0.00343
G1 X123.413 Y108.363 E0.04595
G1 X123.413 Y109.237 E0.01978
G1 X123.694 Y109.251 E0.00637
G1 X123.747 Y109.257 E0.00119
G1 X124.020 Y109.326 E0.00637
G1 X124.232 Y109.421 E0.00526
G1 X124.273 Y109.442 E0.00102
G1 X124.467 Y109.574 E0.00531
G1 X124.507 Y109.605 E0.00113
G1 X124.702 Y109.801 E0.00626
G1 X124.839 Y109.998 E0.00543
G1 X124.864 Y110.037 E0.00105
G1 X124.963 Y110.254 E0.00539
G1 X124.981 Y110.301 E0.00115
G1 X125.046 Y110.572 E0.00629
G1 X125.061 Y110.809 E0.00537
G1 X125.062 Y110.855 E0.00104
G1 X125.039 Y111.049 E0.00440
G1 X125.263 Y111.273 E0.00717
G1 X125.148 Y111.556 E0.00691
G1 X125.044 Y111.749 E0.00496
G1 X124.923 Y111.922 E0.00477
G1 X124.784 Y112.080 E0.00476
G1 X124.627 Y112.220 E0.00475
G1 X124.450 Y112.344 E0.00489
G1 X124.263 Y112.444 E0.00480
G1 X123.970 Y112.560 E0.00712
G1 X123.752 Y112.343 E0.00697
G1 X123.635 Y112.357 E0.00266
G1 X123.425 Y112.361 E0.00475
G1 X123.221 Y112.337 E0.00465
G1 X123.022 Y112.288 E0.00464
G1 X122.832 Y112.213 E0.00460
G1 X122.648 Y112.110 E0.00478
G1 X122.483 Y111.986 E0.00465
G1 X122.331 Y111.837 E0.00482
G1 X122.203 Y111.672 E0.00471
G1 X122.098 Y111.490 E0.00475
G1 X122.019 Y111.298 E0.00471
G1 X121.968 Y111.107 E0.00446
G1 X121.941 Y110.902 E0.00469
G1 X121.941 Y110.691 E0.00475
G1 X121.986 Y110.363 E0.00750
G1 X121.495 Y110.363 E0.01111
G1 X121.417 Y110.369 E0.00178
G1 X121.369 Y110.377 E0.00110
G1 X121.247 Y110.419 E0.00292
G1 X121.124 Y110.498 E0.00329
G1 X121.024 Y110.605 E0.00331
G1 X120.957 Y110.726 E0.00313
G1 X120.915 Y110.892 E0.00387
G1 X120.913 Y112.138 E0.02815
G1 X79.087 Y112.138 E0.94534
G1 X79.087 Y110.927 E0.02737
G1 X79.085 Y110.891 E0.00080
G1 X79.050 Y110.740 E0.00350
G1 X78.981 Y110.611 E0.00331
G1 X78.886 Y110.508 E0.00317
G1 X78.793 Y110.447 E0.00251
G1 X78.793 Y110.447 E0.00000
G1 X78.755 Y110.423 E0.00102
G1 X78.599 Y110.379 E0.00366
G1 X78.567 Y110.368 E0.00076
G1 X78.509 Y110.363 E0.00133
G1 X78.024 Y110.363 E0.01095
G1 X78.059 Y110.691 E0.00746
G1 X78.060 Y110.896 E0.00464
G1 X78.034 Y111.097 E0.00458
G1 X77.983 Y111.294 E0.00460
G1 X77.902 Y111.490 E0.00478
G1 X77.799 Y111.668 E0.00465
G1 X77.669 Y111.837 E0.00482
G1 X77.521 Y111.983 E0.00471
G1 X77.353 Y112.109 E0.00475
G1 X77.174 Y112.210 E0.00465
G1 X76.983 Y112.286 E0.00464
G1 X76.786 Y112.336 E0.00460
G1 X76.576 Y112.361 E0.00478
G1 X76.370 Y112.357 E0.00465
G1 X76.248 Y112.343 E0.00278
G1 X76.030 Y112.560 E0.00696
G1 X75.742 Y112.447 E0.00700
G1 X75.551 Y112.344 E0.00490
G1 X75.378 Y112.223 E0.00477
G1 X75.220 Y112.084 E0.00476
G1 X75.132 Y111.985 E0.00299
G1 X75.132 Y111.985 E0.00000
G1 X75.080 Y111.927 E0.00175
G1 X74.956 Y111.750 E0.00489
G1 X74.856 Y111.563 E0.00480
G1 X74.740 Y111.270 E0.00712
G1 X74.961 Y111.049 E0.00707
G1 X74.939 Y110.874 E0.00399
G1 X74.947 Y110.637 E0.00536
G1 X74.951 Y110.590 E0.00106
G1 X75.003 Y110.357 E0.00540
G1 X75.017 Y110.308 E0.00116
G1 X75.031 Y110.276 E0.00079
G1 X75.031 Y110.276 E0.00000
G1 X75.135 Y110.039 E0.00584
G1 X75.284 Y109.818 E0.00604
G1 X75.480 Y109.616 E0.00636
G1 X75.670 Y109.478 E0.00530
G1 X75.708 Y109.453 E0.00103
G1 X75.921 Y109.350 E0.00535
G1 X75.968 Y109.331 E0.00114
G1 X76.239 Y109.259 E0.00634
G1 X76.587 Y109.232 E0.00790
G1 X76.587 Y108.363 E0.01964
G1 X74.506 Y108.363 E0.04705
G1 X74.345 Y108.224 E0.00479
G1 X74.337 Y108.105 E0.00269
G1 X74.337 Y106.295 E0.04092
G1 X74.344 Y106.193 E0.00230
G1 X74.488 Y106.037 E0.00480
G1 X76.587 Y106.037 E0.04745
G1 X76.587 Y104.863 E0.02656
G1 X74.506 Y104.863 E0.04705
G1 X74.345 Y104.724 E0.00479
G1 X74.337 Y104.605 E0.00269
G1 X74.337 Y102.794 E0.04094
G1 X74.346 Y102.688 E0.00239
G1 X74.470 Y102.557 E0.00410
G1 X74.579 Y102.538 E0.00248
G1 X76.587 Y102.538 E0.04540
G1 X76.587 Y101.363 E0.02656
G1 X74.554 Y101.363 E0.04597
G1 X74.347 Y101.276 E0.00506
G1 X74.337 Y101.105 E0.00388
G1 X74.337 Y99.293 E0.04094
G1 X74.347 Y99.178 E0.00262
G1 X74.500 Y99.038 E0.00468
G1 X76.587 Y99.038 E0.04719
G1 X76.587 Y97.863 E0.02656
G1 X74.545 Y97.863 E0.04617
G1 X74.393 Y97.787 E0.00383
G1 X74.337 Y97.645 E0.00343
G1 X74.337 Y95.792 E0.04189
G1 X74.351 Y95.653 E0.00316
G1 X74.512 Y95.545 E0.00437
G1 X74.592 Y95.538 E0.00182
G1 X76.587 Y95.538 E0.04510
G1 X76.587 Y94.363 E0.02656
G1 X74.542 Y94.363 E0.04624
G1 X74.388 Y94.281 E0.00392
G1 X74.337 Y94.143 E0.00333
G1 X74.337 Y92.292 E0.04183
G1 X74.351 Y92.153 E0.00316
G1 X74.512 Y92.045 E0.00437
G1 X74.592 Y92.038 E0.00182
G1 X76.587 Y92.038 E0.04510
G1 X76.587 Y90.866 E0.02649
G1 X76.301 Y90.849 E0.00649
G1 X76.257 Y90.844 E0.00100
G1 X76.022 Y90.786 E0.00546
G1 X75.973 Y90.771 E0.00117
G1 X75.707 Y90.647 E0.00662
G1 X75.486 Y90.489 E0.00615
G1 X75.296 Y90.296 E0.00611
G1 X75.161 Y90.102 E0.00534
G1 X75.136 Y90.063 E0.00105
G1 X75.037 Y89.846 E0.00539
G1 X75.019 Y89.799 E0.00115
G1 X74.954 Y89.528 E0.00629
G1 X74.939 Y89.291 E0.00537
G1 X74.938 Y89.245 E0.00104
G1 X74.961 Y89.051 E0.00440
G1 X74.740 Y88.830 E0.00707
G1 X74.853 Y88.542 E0.00700
G1 X74.956 Y88.351 E0.00490
G1 X75.077 Y88.178 E0.00477
G1 X75.134 Y88.111 E0.00200
G1 F1800.000 E-1.00000
G1 X125.490 Y91.010 F7800.000
G1 F1800.000 E1.00000
G1 X125.780 Y90.541 F540.000 E0.01246
G1 X125.982 Y90.081 E0.01137
G1 X126.307 Y90.149 E0.00751
G1 X126.307 Y91.091 E0.02128
G1 X125.568 Y91.018 E0.01678
G1 F1800.000 E-1.00000
G1 X74.511 Y91.010 F7800.000
G1 F1800.000 E1.00000
G1 X74.154 Y91.045 F540.000 E0.00811
G1 X73.837 Y91.257 E0.00863
G1 X73.693 Y91.180 E0.00369
G1 X73.693 Y90.164 E0.02297
G1 X73.998 Y90.092 E0.00709
G1 X74.236 Y90.566 E0.01199
G1 X74.470 Y90.943 E0.01003
G1 F1800.000 E-1.00000
G1 X78.336 Y111.818 F7800.000
G1 F1800.000 E1.00000
G1 X78.572 Y111.899 F540.000 E0.00564
G1 X78.572 Y112.653 E0.01704
G1 X121.428 Y112.653 E0.96863
G1 X121.428 Y111.899 E0.01703
G1 X121.663 Y111.819 E0.00563
G1 X121.945 Y112.179 E0.01035
G1 X122.153 Y112.383 E0.00658
G1 X122.360 Y112.538 E0.00583
G1 X122.619 Y112.683 E0.00671
G1 X122.856 Y112.776 E0.00576
G1 X123.443 Y112.925 E0.01368
G1 X123.394 Y113.322 E0.00905
G1 X76.602 Y113.322 E1.05760
G1 X76.553 Y112.927 E0.00900
G1 X77.135 Y112.779 E0.01357
G1 X77.396 Y112.675 E0.00635
G1 X77.642 Y112.537 E0.00637
G1 X77.852 Y112.379 E0.00594
G1 X78.055 Y112.179 E0.00645
G1 X78.288 Y111.881 E0.00855
G1 F1800.000 E-1.00000
G1 X124.295 Y113.012 F7800.000
G1 F1800.000 E1.00000
G1 X124.714 Y112.787 F540.000 E0.01075
G1 X124.953 Y112.619 E0.00661
G1 X125.144 Y112.449 E0.00577
G1 X125.328 Y112.241 E0.00628
G1 X125.488 Y112.013 E0.00629
G1 X125.536 Y111.922 E0.00234
G1 X125.536 Y111.922 E0.00000
G1 X125.617 Y111.772 E0.00384
G1 X125.873 Y111.154 E0.01511
G1 X125.580 Y110.861 E0.00937
G1 X125.555 Y110.486 E0.00850
G1 X125.474 Y110.147 E0.00788
G1 X125.351 Y109.859 E0.00707
G1 X125.314 Y109.785 E0.00186
G1 X125.150 Y109.540 E0.00666
G1 X125.092 Y109.463 E0.00220
G1 X125.009 Y109.379 E0.00266
G1 X125.009 Y109.379 E0.00000
G1 X124.705 Y109.073 E0.00976
G1 X124.786 Y108.878 E0.00478
G1 X125.543 Y108.878 E0.01711
G1 X125.960 Y108.714 E0.01011
G1 X126.178 Y108.277 E0.01105
G1 X126.178 Y106.267 E0.04543
G1 X126.138 Y105.860 E0.00924
G1 X125.691 Y105.561 E0.01215
G1 X126.155 Y104.867 E0.01887
G1 X126.178 Y104.633 E0.00531
G1 X126.178 Y102.247 E0.05393
G1 X125.637 Y102.064 E0.01290
G1 X125.623 Y101.852 E0.00480
G1 X126.087 Y101.623 E0.01170
G1 X126.178 Y101.167 E0.01051
G1 X126.178 Y99.266 E0.04295
G1 X126.155 Y99.033 E0.00531
G1 X125.765 Y98.450 E0.01585
G1 X126.155 Y97.867 E0.01585
G1 X126.178 Y97.633 E0.00531
G1 X126.178 Y95.657 E0.04467
G1 X126.014 Y95.240 E0.01012
G1 X125.595 Y95.031 E0.01060
G1 X126.157 Y94.424 E0.01872
G1 X126.178 Y94.123 E0.00681
G1 X126.178 Y92.266 E0.04196
G1 X126.155 Y92.033 E0.00530
G1 X125.840 Y91.562 E0.01279
G1 X125.433 Y91.522 E0.00924
G1 X124.378 Y91.522 E0.02386
G1 X124.299 Y91.267 E0.00603
G1 X124.841 Y90.889 E0.01494
G1 X125.105 Y90.622 E0.00849
G1 X125.273 Y90.381 E0.00664
G1 X125.322 Y90.301 E0.00213
G1 X125.470 Y89.966 E0.00827
G1 X125.545 Y89.660 E0.00712
G1 X125.560 Y89.579 E0.00186
G1 X125.578 Y89.241 E0.00765
G1 X125.863 Y88.956 E0.00911
G1 X125.609 Y88.314 E0.01561
G1 X125.487 Y88.086 E0.00584
G1 X125.319 Y87.847 E0.00661
G1 X125.149 Y87.656 E0.00577
G1 X124.941 Y87.472 E0.00628
G1 X124.713 Y87.312 E0.00629
G1 X124.114 Y86.992 E0.01535
G1 X124.258 Y86.619 E0.00904
G1 X124.874 Y86.774 E0.01435
G1 X125.109 Y86.856 E0.00564
G1 X125.336 Y86.960 E0.00564
G1 X125.553 Y87.084 E0.00564
G1 X125.757 Y87.228 E0.00564
G1 X125.948 Y87.389 E0.00564
G1 X126.123 Y87.567 E0.00565
G1 X126.281 Y87.760 E0.00564
G1 X126.421 Y87.967 E0.00564
G1 X126.541 Y88.186 E0.00564
G1 X126.641 Y88.415 E0.00564
G1 X126.719 Y88.652 E0.00564
G1 X126.776 Y88.895 E0.00564
G1 X126.801 Y89.074 E0.00409
G1 X126.801 Y89.074 E0.00000
G1 X126.810 Y89.143 E0.00156
G1 X126.818 Y89.323 E0.00409
G1 X126.818 Y89.323 E0.00000
G1 X126.822 Y110.627 E0.48152
G1 X126.839 Y110.931 E0.00688
G1 X126.827 Y111.181 E0.00565
G1 X126.789 Y111.428 E0.00565
G1 X126.725 Y111.669 E0.00565
G1 X126.636 Y111.903 E0.00565
G1 X126.524 Y112.126 E0.00565
G1 X126.388 Y112.336 E0.00565
G1 X126.231 Y112.530 E0.00565
G1 X126.055 Y112.707 E0.00565
G1 X125.861 Y112.865 E0.00565
G1 X125.652 Y113.001 E0.00565
G1 X125.429 Y113.115 E0.00565
G1 X125.259 Y113.180 E0.00413
G1 X125.259 Y113.180 E0.00000
