; generated by Slic3r 0.9.3 on 2012-10-04 at 19:38:47

; layer_height = 0.4
; perimeters = 3
; solid_layers = 3
; fill_density = 0.8
; perimeter_speed = 30
; infill_speed = 60
; travel_speed = 130
; scale = 1
; nozzle_diameter = 0.5
; filament_diameter = 2.83
; extrusion_multiplier = .684
; single wall width = 0.53mm

M104 S200 ; set temperature
G28 ; home all axes
M104 S200 ; set temperature
M116 ; wait for temperature to be reached
G90 ; use absolute coordinates
G21 ; set units to millimeters
G1 F1800.000 E-1.00000
G1 Z0.400 F7800.000
G1 X39.052 Y62.770
G1 F1800.000 E1.00000
G1 X39.832 Y62.050 F540.000 E0.02399
G1 X40.452 Y61.570 E0.01772
G1 X41.182 Y61.100 E0.01962
G1 X41.962 Y60.710 E0.01971
G1 X42.912 Y60.340 E0.02304
G1 X43.632 Y60.130 E0.01695
G1 X44.582 Y59.950 E0.02185
G1 X45.562 Y59.880 E0.02221
G1 X94.132 Y59.830 E1.09779
G1 X95.212 Y59.920 E0.02450
G1 X96.362 Y60.130 E0.02642
G1 X97.342 Y60.430 E0.02316
G1 X98.032 Y60.710 E0.01683
G1 X98.812 Y61.100 E0.01971
G1 X99.542 Y61.570 E0.01962
G1 X100.372 Y62.230 E0.02397
G1 X100.862 Y62.690 E0.01519
G1 X101.452 Y63.350 E0.02001
G1 X101.962 Y64.030 E0.01921
G1 X102.392 Y64.710 E0.01818
G1 X102.862 Y65.680 E0.02436
G1 X103.142 Y66.440 E0.01831
G1 X103.352 Y67.160 E0.01695
G1 X103.532 Y68.150 E0.02274
G1 X103.602 Y68.890 E0.01680
G1 X103.612 Y91.670 E0.51488
G1 X103.492 Y92.660 E0.02254
G1 X103.422 Y92.980 E0.00740
G1 X103.072 Y94.090 E0.02631
G1 X102.642 Y95.080 E0.02440
G1 X102.222 Y95.820 E0.01923
G1 X101.662 Y96.620 E0.02207
G1 X101.482 Y96.840 E0.00642
G1 X100.842 Y97.520 E0.02111
G1 X100.332 Y97.980 E0.01552
G1 X99.512 Y98.590 E0.02310
G1 X98.832 Y99.000 E0.01795
G1 X97.882 Y99.450 E0.02376
G1 X96.862 Y99.790 E0.02430
G1 X95.932 Y100.000 E0.02155
G1 X95.652 Y100.040 E0.00639
G1 X94.662 Y100.110 E0.02243
G1 X45.032 Y100.100 E1.12175
G1 X44.342 Y100.040 E0.01565
G1 X44.062 Y100.000 E0.00639
G1 X43.132 Y99.790 E0.02155
G1 X42.372 Y99.550 E0.01801
G1 X41.602 Y99.230 E0.01885
G1 X40.742 Y98.780 E0.02194
G1 X40.492 Y98.630 E0.00659
G1 X39.682 Y98.000 E0.02319
G1 X39.142 Y97.520 E0.01633
G1 X38.942 Y97.320 E0.00639
G1 X37.842 Y96.000 E0.03884
G1 X37.512 Y95.500 E0.01354
G1 X37.222 Y94.970 E0.01366
G1 X36.992 Y94.420 E0.01347
G1 X36.892 Y94.140 E0.00672
G1 X36.702 Y93.440 E0.01639
G1 X36.692 Y93.390 E0.00115
G1 X36.472 Y92.400 E0.02292
G1 X36.432 Y92.120 E0.00639
G1 X36.362 Y91.170 E0.02153
G1 X36.382 Y68.950 E0.50222
G1 X36.462 Y68.120 E0.01885
G1 X36.632 Y67.200 E0.02115
G1 X36.862 Y66.390 E0.01903
G1 X37.122 Y65.680 E0.01709
G1 X37.232 Y65.430 E0.00617
G1 X37.572 Y64.770 E0.01678
G1 X38.032 Y64.030 E0.01969
G1 X38.422 Y63.490 E0.01506
G1 X38.592 Y63.280 E0.00611
G1 X38.700 Y63.160 E0.00366
G1 F1800.000 E-1.00000
G1 X44.718 Y93.469 F7800.000
G1 F1800.000 E1.00000
G1 X44.457 Y93.368 F540.000 E0.00893
G1 X44.209 Y93.242 E0.00893
G1 X44.114 Y93.180 E0.00361
G1 X44.102 Y93.192 E0.00056
G1 X43.759 Y92.913 E0.01416
G1 X43.562 Y92.716 E0.00893
G1 X43.122 Y92.170 E0.02244
G1 X43.154 Y92.103 E0.00237
G1 X43.109 Y92.015 E0.00314
G1 X43.010 Y91.754 E0.00893
G1 X42.939 Y91.485 E0.00893
G1 X42.896 Y91.209 E0.00893
G1 X42.882 Y90.930 E0.00893
G1 X42.917 Y90.311 E0.01985
G1 X42.917 Y90.311 E0.00000
G1 X42.921 Y90.242 E0.00219
G1 X42.900 Y90.242 E0.00068
G1 X42.913 Y69.117 E0.67594
G1 X42.951 Y68.845 E0.00880
G1 X42.995 Y68.656 E0.00620
G1 X42.995 Y68.656 E0.00000
G1 X43.013 Y68.577 E0.00261
G1 X43.100 Y68.316 E0.00880
G1 X43.209 Y68.064 E0.00880
G1 X43.342 Y67.822 E0.00880
G1 X43.496 Y67.595 E0.00880
G1 X43.670 Y67.382 E0.00880
G1 X43.863 Y67.185 E0.00880
G1 X44.073 Y67.007 E0.00880
G1 X44.298 Y66.850 E0.00880
G1 X44.537 Y66.713 E0.00880
G1 X44.787 Y66.598 E0.00880
G1 X45.046 Y66.507 E0.00880
G1 X45.313 Y66.440 E0.00880
G1 X45.572 Y66.400 E0.00840
G1 X46.833 Y66.400 E0.04034
G1 X46.933 Y66.931 E0.01728
G1 X45.634 Y67.441 E0.04467
G1 X45.428 Y67.552 E0.00748
G1 X45.223 Y67.696 E0.00805
G1 X45.050 Y67.850 E0.00739
G1 X44.890 Y68.031 E0.00773
G1 X44.751 Y68.229 E0.00774
G1 X44.639 Y68.440 E0.00763
G1 X44.462 Y68.888 E0.01544
G1 X44.700 Y69.126 E0.01075
G1 X44.712 Y69.497 E0.01187
G1 X44.719 Y69.568 E0.00228
G1 X44.792 Y69.870 E0.00994
G1 X44.900 Y70.122 E0.00879
G1 X44.929 Y70.179 E0.00202
G1 X45.075 Y70.398 E0.00843
G1 X45.113 Y70.447 E0.00199
G1 X45.288 Y70.629 E0.00806
G1 X45.331 Y70.670 E0.00192
G1 X45.533 Y70.817 E0.00798
G1 X45.592 Y70.855 E0.00224
G1 X45.887 Y70.993 E0.01045
G1 X46.626 Y71.218 E0.02469
G1 X46.539 Y71.800 E0.01883
G1 X44.580 Y71.800 E0.06267
G1 X44.430 Y71.815 E0.00485
G1 X44.126 Y72.018 E0.01169
G1 X44.100 Y72.280 E0.00844
G1 X44.100 Y74.185 E0.06094
G1 X44.197 Y74.448 E0.00898
G1 X45.049 Y74.901 E0.03088
G1 X44.126 Y75.518 E0.03554
G1 X44.100 Y75.780 E0.00844
G1 X44.100 Y77.690 E0.06112
G1 X44.205 Y77.959 E0.00922
G1 X44.930 Y78.320 E0.02592
G1 X44.118 Y79.065 E0.03527
G1 X44.100 Y79.283 E0.00700
G1 X44.100 Y81.111 E0.05849
G1 X44.119 Y81.438 E0.01045
G1 X44.993 Y81.805 E0.03035
G1 X44.946 Y82.231 E0.01371
G1 X44.352 Y82.337 E0.01931
G1 X44.115 Y82.586 E0.01101
G1 X44.100 Y82.785 E0.00637
G1 X44.100 Y84.613 E0.05850
G1 X44.115 Y84.839 E0.00723
G1 X44.759 Y85.395 E0.02724
G1 X44.112 Y86.094 E0.03047
G1 X44.100 Y86.288 E0.00621
G1 X44.100 Y88.113 E0.05841
G1 X44.115 Y88.339 E0.00723
G1 X44.417 Y88.600 E0.01278
G1 X45.826 Y88.600 E0.04506
G1 X45.949 Y88.986 E0.01298
G1 X45.321 Y89.439 E0.02477
G1 X45.103 Y89.664 E0.01004
G1 X44.960 Y89.871 E0.00803
G1 X44.924 Y89.929 E0.00219
G1 X44.792 Y90.228 E0.01045
G1 X44.727 Y90.496 E0.00884
G1 X44.716 Y90.558 E0.00203
G1 X44.695 Y90.979 E0.01348
G1 X44.462 Y91.212 E0.01054
G1 X44.641 Y91.666 E0.01562
G1 X44.752 Y91.872 E0.00748
G1 X44.896 Y92.077 E0.00805
G1 X45.050 Y92.250 E0.00739
G1 X45.231 Y92.410 E0.00773
G1 X45.429 Y92.549 E0.00774
G1 X45.640 Y92.661 E0.00763
G1 X46.680 Y93.068 E0.03574
G1 X46.580 Y93.600 E0.01731
G1 X45.552 Y93.600 E0.03288
G1 X45.263 Y93.585 E0.00926
G1 X45.230 Y93.580 E0.00106
G1 F1800.000 E-1.00000
G1 X94.243 Y93.600 F7800.000
G1 F1800.000 E1.00000
G1 X45.757 Y93.600 F540.000 E1.55137
G1 X45.631 Y93.295 E0.01056
G1 X46.332 Y92.594 E0.03172
G1 X46.583 Y92.599 E0.00804
G1 X46.833 Y92.569 E0.00803
G1 X47.053 Y92.513 E0.00727
G1 X47.276 Y92.424 E0.00769
G1 X47.486 Y92.307 E0.00770
G1 X47.673 Y92.166 E0.00750
G1 X47.847 Y91.994 E0.00780
G1 X47.999 Y91.797 E0.00797
G1 X48.410 Y91.084 E0.02633
G1 X48.850 Y91.202 E0.01457
G1 X48.850 Y92.375 E0.03753
G1 X91.150 Y92.375 E1.35346
G1 X91.150 Y91.203 E0.03751
G1 X91.589 Y91.085 E0.01454
G1 X91.959 Y91.724 E0.02363
G1 X91.959 Y91.724 E0.00000
G1 X92.004 Y91.802 E0.00289
G1 X92.153 Y91.995 E0.00780
G1 X92.331 Y92.169 E0.00797
G1 X92.515 Y92.307 E0.00736
G1 X92.734 Y92.429 E0.00803
G1 X92.815 Y92.461 E0.00280
G1 X92.815 Y92.461 E0.00000
G1 X92.945 Y92.513 E0.00447
G1 X93.178 Y92.571 E0.00769
G1 X93.418 Y92.599 E0.00770
G1 X93.667 Y92.594 E0.00799
G1 X94.231 Y93.157 E0.02550
G1 F1800.000 E-1.00000
G1 X48.422 Y69.166 F7800.000
G1 F1800.000 E1.00000
G1 X47.985 Y68.275 F540.000 E0.03175
G1 X47.621 Y67.886 E0.01707
G1 X47.158 Y67.620 E0.01707
G1 X46.638 Y67.501 E0.01707
G1 X46.348 Y67.522 E0.00931
G1 X45.531 Y66.705 E0.03696
G1 X45.657 Y66.400 E0.01056
G1 X94.342 Y66.400 E1.55776
G1 X94.469 Y66.705 E0.01056
G1 X93.671 Y67.503 E0.03611
G1 X93.438 Y67.502 E0.00746
G1 X93.374 Y67.504 E0.00205
G1 X93.119 Y67.540 E0.00822
G1 X93.049 Y67.558 E0.00233
G1 X92.871 Y67.613 E0.00596
G1 X92.628 Y67.725 E0.00855
G1 X92.421 Y67.858 E0.00788
G1 X92.215 Y68.039 E0.00876
G1 X92.056 Y68.225 E0.00783
G1 X91.916 Y68.445 E0.00835
G1 X91.594 Y69.158 E0.02505
G1 X91.202 Y69.118 E0.01260
G1 X91.067 Y68.516 E0.01974
G1 X90.933 Y68.250 E0.00954
G1 X90.800 Y68.075 E0.00703
G1 X90.757 Y68.027 E0.00206
G1 X90.597 Y67.887 E0.00680
G1 X90.537 Y67.841 E0.00244
G1 X90.303 Y67.712 E0.00854
G1 X90.085 Y67.642 E0.00732
G1 X90.020 Y67.626 E0.00214
G1 X89.814 Y67.603 E0.00664
G1 X50.220 Y67.600 E1.26687
G1 X49.839 Y67.657 E0.01232
G1 X49.465 Y67.836 E0.01328
G1 X49.159 Y68.116 E0.01328
G1 X48.948 Y68.474 E0.01328
G1 X48.827 Y68.977 E0.01654
G1 F1800.000 E-1.00000
G1 X93.215 Y66.400 F7800.000
G1 F1800.000 E1.00000
G1 X94.145 Y66.400 F540.000 E0.02975
G1 X94.145 Y66.356 E0.00141
G1 X94.687 Y66.440 E0.01756
G1 X94.954 Y66.507 E0.00880
G1 X95.213 Y66.598 E0.00880
G1 X95.463 Y66.713 E0.00880
G1 X95.702 Y66.850 E0.00880
G1 X95.927 Y67.007 E0.00880
G1 X96.137 Y67.185 E0.00880
G1 X96.273 Y67.323 E0.00620
G1 X96.273 Y67.323 E0.00000
G1 X96.330 Y67.382 E0.00261
G1 X96.504 Y67.595 E0.00880
G1 X96.658 Y67.822 E0.00880
G1 X96.791 Y68.064 E0.00880
G1 X96.900 Y68.316 E0.00880
G1 X96.987 Y68.577 E0.00880
G1 X97.049 Y68.845 E0.00880
G1 X97.087 Y69.117 E0.00880
G1 X97.100 Y90.311 E0.67813
G1 X97.083 Y90.311 E0.00056
G1 X97.118 Y90.930 E0.01985
G1 X97.095 Y91.392 E0.01481
G1 X97.076 Y91.392 E0.00062
G1 X97.061 Y91.485 E0.00299
G1 X96.990 Y91.754 E0.00893
G1 X96.891 Y92.015 E0.00893
G1 X96.765 Y92.264 E0.00893
G1 X96.613 Y92.498 E0.00893
G1 X96.438 Y92.716 E0.00893
G1 X96.241 Y92.913 E0.00893
G1 X96.025 Y93.089 E0.00893
G1 X95.833 Y93.214 E0.00731
G1 X95.833 Y93.220 E0.00019
G1 X95.543 Y93.368 E0.01045
G1 X95.282 Y93.469 E0.00893
G1 X95.013 Y93.541 E0.00893
G1 X94.737 Y93.585 E0.00893
G1 X94.448 Y93.600 E0.00926
G1 X93.422 Y93.600 E0.03283
G1 X93.322 Y93.069 E0.01728
G1 X94.366 Y92.659 E0.03589
G1 X94.572 Y92.548 E0.00748
G1 X94.777 Y92.404 E0.00805
G1 X94.843 Y92.345 E0.00282
G1 X94.843 Y92.345 E0.00000
G1 X94.950 Y92.250 E0.00457
G1 X95.110 Y92.069 E0.00773
G1 X95.249 Y91.871 E0.00774
G1 X95.364 Y91.655 E0.00782
G1 X95.545 Y91.218 E0.01513
G1 X95.300 Y90.974 E0.01105
G1 X95.288 Y90.603 E0.01187
G1 X95.281 Y90.532 E0.00228
G1 X95.208 Y90.230 E0.00994
G1 X95.100 Y89.978 E0.00879
G1 X95.071 Y89.921 E0.00202
G1 X94.925 Y89.702 E0.00842
G1 X94.882 Y89.645 E0.00230
G1 X94.664 Y89.426 E0.00989
G1 X94.047 Y88.993 E0.02410
G1 X94.170 Y88.600 E0.01318
G1 X95.491 Y88.600 E0.04225
G1 X95.759 Y88.495 E0.00922
G1 X95.900 Y88.211 E0.01013
G1 X95.900 Y86.280 E0.06178
G1 X95.874 Y86.018 E0.00844
G1 X95.080 Y85.487 E0.03057
G1 X95.171 Y85.125 E0.01195
G1 X95.682 Y85.074 E0.01645
G1 X95.885 Y84.771 E0.01168
G1 X95.900 Y84.620 E0.00485
G1 X95.900 Y82.446 E0.06954
G1 X95.058 Y82.161 E0.02843
G1 X95.036 Y81.832 E0.01056
G1 X95.841 Y81.434 E0.02873
G1 X95.900 Y81.139 E0.00963
G1 X95.900 Y79.280 E0.05949
G1 X95.885 Y79.129 E0.00485
G1 X95.431 Y78.450 E0.02615
G1 X95.885 Y77.771 E0.02615
G1 X95.900 Y77.620 E0.00485
G1 X95.900 Y75.710 E0.06112
G1 X95.795 Y75.441 E0.00922
G1 X95.139 Y75.115 E0.02344
G1 X95.887 Y74.307 E0.03522
G1 X95.900 Y74.114 E0.00620
G1 X95.900 Y72.280 E0.05866
G1 X95.885 Y72.129 E0.00485
G1 X95.682 Y71.826 E0.01168
G1 X95.420 Y71.800 E0.00844
G1 X93.446 Y71.800 E0.06315
G1 X93.368 Y71.189 E0.01970
G1 X94.103 Y70.996 E0.02430
G1 X94.331 Y70.895 E0.00798
G1 X94.384 Y70.868 E0.00191
G1 X94.599 Y70.724 E0.00829
G1 X94.657 Y70.680 E0.00233
G1 X95.009 Y70.324 E0.01600
G1 X95.076 Y70.170 E0.00537
G1 X95.076 Y70.170 E0.00000
G1 X95.208 Y69.872 E0.01042
G1 X95.273 Y69.604 E0.00884
G1 X95.284 Y69.542 E0.00203
G1 X95.305 Y69.121 E0.01348
G1 X95.538 Y68.888 E0.01054
G1 X95.476 Y68.730 E0.00543
G1 X95.563 Y68.537 E0.00678
G1 X95.102 Y68.021 E0.02214
G1 X95.102 Y68.021 E0.00000
G1 X94.950 Y67.850 E0.00731
G1 X94.769 Y67.690 E0.00773
G1 X94.571 Y67.551 E0.00774
G1 X94.355 Y67.436 E0.00782
G1 X93.112 Y66.914 E0.04315
G1 F1800.000 E-1.00000
G1 X91.221 Y90.587 F7800.000
G1 F1800.000 E1.00000
G1 X91.861 Y90.391 F540.000 E0.02141
G1 X91.929 Y90.710 E0.01046
G1 X91.221 Y90.587 F7800.000
G1 X90.995 Y90.656 F540.000 E0.00758
G1 F1800.000 E-1.00000
G1 X93.378 Y89.200 F7800.000
G1 F1800.000 E1.00000
G1 X93.407 Y89.237 F540.000 E0.00149
G1 X93.378 Y89.200 F7800.000
G1 X93.433 Y88.836 F540.000 E0.01177
G1 X93.500 Y88.519 E0.01037
G1 F1800.000 E-1.00000
G1 X94.565 Y85.957 F7800.000
G1 F1800.000 E1.00000
G1 X94.956 Y86.040 F540.000 E0.01279
G1 X94.565 Y85.957 F7800.000
G1 X93.967 Y85.537 F540.000 E0.02336
G1 X93.875 Y85.635 E0.00429
G1 X93.871 Y85.643 E0.00029
G1 X93.967 Y85.537 F7800.000
G1 X93.796 Y85.289 F540.000 E0.00966
G1 X93.978 Y85.447 F7800.000
G1 X94.087 Y85.367 F540.000 E0.00430
G1 X94.514 Y84.956 E0.01898
G1 F1800.000 E-1.00000
G1 X94.846 Y82.552 F7800.000
G1 F1800.000 E1.00000
G1 X94.547 Y82.602 F540.000 E0.00969
G1 X94.030 Y82.064 E0.02387
G1 X93.969 Y81.939 E0.00447
G1 X94.171 Y81.678 E0.01054
G1 X94.874 Y81.274 E0.02596
G1 X93.969 Y81.939 F7800.000
G1 X93.795 Y81.789 F540.000 E0.00736
G1 X93.977 Y82.025 F7800.000
G1 X93.872 Y82.135 F540.000 E0.00487
G1 X93.863 Y82.153 E0.00065
G1 F1800.000 E-1.00000
G1 X95.018 Y78.951 F7800.000
G1 F1800.000 E1.00000
G1 X94.229 Y78.501 F540.000 E0.02907
G1 X94.179 Y78.474 E0.00181
G1 X93.796 Y78.289 E0.01362
G1 X94.019 Y78.484 F7800.000
G1 X93.878 Y78.635 F540.000 E0.00661
G1 X93.878 Y78.635 E0.00001
G1 X94.211 Y78.480 F7800.000
G1 X94.996 Y77.967 F540.000 E0.02998
G1 F1800.000 E-1.00000
G1 X94.900 Y75.582 F7800.000
G1 F1800.000 E1.00000
G1 X94.211 Y75.420 F540.000 E0.02265
G1 X93.892 Y75.115 E0.01412
G1 X93.867 Y75.148 F7800.000
G1 X93.822 Y74.802 F540.000 E0.01117
G1 X93.792 Y74.789 E0.00102
G1 X93.933 Y74.905 F7800.000
G1 X94.929 Y74.447 F540.000 E0.03507
G1 F1800.000 E-1.00000
G1 X91.941 Y70.072 F7800.000
G1 F1800.000 E1.00000
G1 X91.846 Y69.994 F540.000 E0.00392
G1 X91.647 Y69.983 F7800.000
G1 X91.846 Y69.994 F540.000 E0.00639
G1 X91.970 Y69.491 E0.01658
G1 X91.647 Y69.983 F7800.000
G1 X91.013 Y69.716 F540.000 E0.02200
G1 X90.933 Y69.694 E0.00266
G1 F1800.000 E-1.00000
G1 X48.995 Y69.717 F7800.000
G1 F1800.000 E1.00000
G1 X48.524 Y69.976 F540.000 E0.01717
G1 X48.313 Y69.997 E0.00680
G1 X48.124 Y69.998 E0.00604
G1 X47.872 Y70.165 F7800.000
G1 X48.124 Y69.998 F540.000 E0.00968
G1 X47.937 Y69.447 E0.01860
G1 F1800.000 E-1.00000
G1 X45.099 Y74.320 F7800.000
G1 F1800.000 E1.00000
G1 X46.231 Y74.649 F540.000 E0.03771
G1 X46.239 Y75.143 E0.01581
G1 X45.869 Y75.264 E0.01243
G1 X45.130 Y75.514 E0.02498
G1 X45.122 Y75.509 E0.00029
G1 F1800.000 E-1.00000
G1 X45.148 Y77.877 F7800.000
G1 F1800.000 E1.00000
G1 X45.789 Y77.957 F540.000 E0.02067
G1 X46.165 Y78.218 E0.01466
G1 X46.116 Y78.603 E0.01242
G1 X45.780 Y78.735 E0.01153
G1 X45.099 Y78.981 E0.02319
G1 X45.085 Y79.006 E0.00092
G1 X46.116 Y78.603 F7800.000
G1 X46.128 Y78.615 F540.000 E0.00055
G1 X46.476 Y78.940 E0.01523
G1 F1800.000 E-1.00000
G1 X45.102 Y81.258 F7800.000
G1 F1800.000 E1.00000
G1 X45.790 Y81.525 F540.000 E0.02361
G1 X46.043 Y81.853 E0.01327
G1 X46.042 Y82.033 E0.00576
G1 X45.553 Y82.426 E0.02009
G1 X46.042 Y82.033 F7800.000
G1 X46.136 Y82.122 F540.000 E0.00412
G1 X46.479 Y82.440 E0.01497
G1 X46.043 Y81.853 F7800.000
G1 X46.134 Y81.751 F540.000 E0.00438
G1 F1800.000 E-1.00000
G1 X45.069 Y84.894 F7800.000
G1 F1800.000 E1.00000
G1 X46.017 Y85.380 F540.000 E0.03409
G1 X45.779 Y85.682 E0.01228
G1 X45.430 Y85.836 E0.01219
G1 X45.115 Y85.938 E0.01061
G1 X45.082 Y85.990 E0.00197
G1 X46.014 Y85.508 F7800.000
G1 X46.127 Y85.614 F540.000 E0.00498
G1 X46.476 Y85.940 E0.01526
G1 X46.017 Y85.380 F7800.000
G1 X46.129 Y85.258 F540.000 E0.00532
G1 F1800.000 E-1.00000
G1 X46.462 Y88.442 F7800.000
G1 F1800.000 E1.00000
G1 X46.631 Y89.132 F540.000 E0.02272
G1 X46.364 Y89.293 E0.00996
G1 X46.359 Y89.290 E0.00019
G1 F1800.000 E-1.00000
G1 X48.033 Y90.680 F7800.000
G1 F1800.000 E1.00000
G1 X48.059 Y90.517 F540.000 E0.00527
G1 X48.429 Y90.435 E0.01212
G1 X48.937 Y90.532 E0.01656
G1 X48.040 Y90.693 F7800.000
G1 X48.033 Y90.680 F540.000 E0.00049
G1 F1800.000 E-1.00000
G1 X43.961 Y70.688 F7800.000
G1 F1800.000 E1.00000
G1 X43.854 Y70.188 F1080.000 E0.01637
G1 X43.961 Y70.688 F7800.000
G1 X43.854 Y70.188 F1080.000 E0.01637
G1 X43.911 Y70.960 F7800.000
G1 X44.001 Y70.773 F1080.000 E0.00664
G1 X43.889 Y70.973 F7800.000
G1 X43.911 Y70.960 F1080.000 E0.00081
G1 X43.854 Y70.188 F7800.000
G1 X43.833 Y69.834 F1080.000 E0.01135
G1 F1800.000 E-1.00000
G1 X95.964 Y70.861 F7800.000
G1 F1800.000 E1.00000
G1 X95.964 Y70.856 F1080.000 E0.00016
G1 X96.039 Y70.562 E0.00969
G1 X96.190 Y69.577 E0.03190
G1 F1800.000 E-1.00000
G1 X96.198 Y90.653 F7800.000
