; generated by Slic3r 0.9.3 on 2012-10-04 at 20:03:45

; layer_height = 0.2
; perimeters = 3
; solid_layers = 3
; fill_density = 0.8
; perimeter_speed = 30
; infill_speed = 60
; travel_speed = 130
; scale = 1
; nozzle_diameter = 0.5
; filament_diameter = 2.83
; extrusion_multiplier = .684
; single wall width = 0.70mm

M104 S200 ; set temperature
G28 ; home all axes
M104 S200 ; set temperature
M116 ; wait for temperature to be reached
G90 ; use absolute coordinates
G21 ; set units to millimeters
G1 F1800.000 E-1.00000
G1 Z0.200 F7800.000
G1 X38.922 Y62.390
G1 F1800.000 E1.00000
G1 X39.302 Y62.030 F540.000 E0.00748
G1 X40.102 Y61.380 E0.01473
G1 X41.102 Y60.750 E0.01689
G1 X42.002 Y60.310 E0.01432
G1 X42.662 Y60.050 E0.01014
G1 X43.412 Y59.820 E0.01121
G1 X44.332 Y59.630 E0.01342
G1 X44.612 Y59.590 E0.00404
G1 X45.552 Y59.520 E0.01347
G1 X94.442 Y59.520 E0.69865
G1 X95.382 Y59.590 E0.01347
G1 X96.342 Y59.760 E0.01393
G1 X97.252 Y60.020 E0.01352
G1 X98.262 Y60.430 E0.01558
G1 X99.142 Y60.890 E0.01419
G1 X100.042 Y61.490 E0.01546
G1 X100.442 Y61.810 E0.00732
G1 X101.112 Y62.420 E0.01295
G1 X101.812 Y63.220 E0.01519
G1 X102.222 Y63.770 E0.00980
G1 X102.702 Y64.540 E0.01297
G1 X102.842 Y64.800 E0.00422
G1 X103.382 Y66.030 E0.01920
G1 X103.652 Y66.900 E0.01302
G1 X103.862 Y67.890 E0.01446
G1 X103.902 Y68.180 E0.00418
G1 X103.972 Y69.380 E0.01718
G1 X103.972 Y91.440 E0.31524
G1 X103.892 Y92.320 E0.01263
G1 X103.692 Y93.300 E0.01429
G1 X103.362 Y94.340 E0.01559
G1 X103.002 Y95.160 E0.01280
G1 X102.562 Y95.960 E0.01305
G1 X102.402 Y96.210 E0.00424
G1 X101.922 Y96.860 E0.01155
G1 X101.202 Y97.670 E0.01549
G1 X100.622 Y98.210 E0.01132
G1 X100.392 Y98.400 E0.00426
G1 X99.642 Y98.940 E0.01321
G1 X98.792 Y99.430 E0.01402
G1 X97.872 Y99.840 E0.01439
G1 X97.122 Y100.090 E0.01130
G1 X96.152 Y100.320 E0.01425
G1 X95.852 Y100.370 E0.00435
G1 X94.972 Y100.450 E0.01263
G1 X94.452 Y100.470 E0.00744
G1 X45.012 Y100.460 E0.70651
G1 X44.102 Y100.360 E0.01308
G1 X43.162 Y100.170 E0.01370
G1 X42.122 Y99.840 E0.01559
G1 X41.302 Y99.480 E0.01280
G1 X40.502 Y99.040 E0.01305
G1 X40.252 Y98.880 E0.00424
G1 X39.602 Y98.400 E0.01155
G1 X39.372 Y98.210 E0.00426
G1 X38.792 Y97.670 E0.01132
G1 X38.072 Y96.860 E0.01549
G1 X37.532 Y96.120 E0.01309
G1 X37.032 Y95.260 E0.01422
G1 X36.592 Y94.250 E0.01574
G1 X36.322 Y93.380 E0.01302
G1 X36.152 Y92.620 E0.01113
G1 X36.102 Y92.320 E0.00435
G1 X36.022 Y91.440 E0.01263
G1 X36.032 Y68.950 E0.32139
G1 X36.092 Y68.180 E0.01104
G1 X36.282 Y67.120 E0.01539
G1 X36.522 Y66.270 E0.01262
G1 X36.842 Y65.450 E0.01258
G1 X37.142 Y64.800 E0.01023
G1 X37.282 Y64.540 E0.00422
G1 X37.712 Y63.850 E0.01162
G1 X38.252 Y63.120 E0.01298
G1 X38.449 Y62.906 E0.00416
G1 F1800.000 E-1.00000
G1 X45.047 Y68.155 F7800.000
G1 F1800.000 E1.00000
G1 X45.190 Y67.993 F540.000 E0.00198
G1 X45.349 Y67.851 E0.00195
G1 X45.531 Y67.724 E0.00204
G1 X45.721 Y67.622 E0.00198
G1 X46.040 Y67.496 E0.00314
G1 X46.271 Y67.728 E0.00300
G1 X46.623 Y67.702 E0.00323
G1 X46.925 Y67.772 E0.00285
G1 X46.925 Y67.717 E0.00050
G1 X47.105 Y67.820 E0.00190
G1 X47.105 Y67.820 E0.00000
G1 X47.495 Y68.044 E0.00413
G1 X47.819 Y68.390 E0.00434
G1 X48.027 Y68.815 E0.00434
G1 X48.102 Y69.283 E0.00434
G1 X48.037 Y69.752 E0.00434
G1 X47.829 Y70.200 E0.00453
G1 X48.426 Y70.200 E0.00547
G1 X48.625 Y70.183 E0.00183
G1 X48.776 Y70.123 E0.00149
G1 X48.902 Y70.022 E0.00148
G1 X48.993 Y69.888 E0.00148
G1 X49.042 Y69.732 E0.00149
G1 X49.054 Y68.888 E0.00774
G1 X49.135 Y68.550 E0.00319
G1 X49.316 Y68.243 E0.00326
G1 X49.578 Y68.003 E0.00326
G1 X49.898 Y67.850 E0.00326
G1 X50.235 Y67.800 E0.00312
G1 X89.782 Y67.801 E0.36249
G1 X89.981 Y67.822 E0.00184
G1 X90.183 Y67.882 E0.00193
G1 X90.220 Y67.895 E0.00036
G1 X90.427 Y68.009 E0.00216
G1 X90.589 Y68.144 E0.00193
G1 X90.613 Y68.166 E0.00030
G1 X90.739 Y68.322 E0.00184
G1 X90.762 Y68.353 E0.00035
G1 X90.877 Y68.584 E0.00236
G1 X90.938 Y68.828 E0.00231
G1 X90.950 Y68.992 E0.00150
G1 X90.950 Y69.646 E0.00600
G1 X90.967 Y69.783 E0.00126
G1 X91.026 Y69.927 E0.00143
G1 X91.107 Y70.033 E0.00121
G1 X91.233 Y70.130 E0.00146
G1 X91.367 Y70.183 E0.00132
G1 X91.504 Y70.200 E0.00127
G1 X92.157 Y70.200 E0.00599
G1 X92.004 Y69.867 E0.00336
G1 X91.937 Y69.645 E0.00213
G1 X91.904 Y69.415 E0.00213
G1 X91.904 Y69.189 E0.00208
G1 X91.934 Y68.969 E0.00204
G1 X91.997 Y68.750 E0.00209
G1 X92.093 Y68.537 E0.00214
G1 X92.215 Y68.347 E0.00207
G1 X92.360 Y68.177 E0.00205
G1 X92.539 Y68.020 E0.00218
G1 X92.728 Y67.898 E0.00206
G1 X92.938 Y67.802 E0.00212
G1 X93.159 Y67.737 E0.00211
G1 X93.391 Y67.703 E0.00215
G1 X93.423 Y67.702 E0.00029
G1 X93.617 Y67.704 E0.00178
G1 X93.739 Y67.718 E0.00113
G1 X93.960 Y67.497 E0.00286
G1 X94.272 Y67.618 E0.00307
G1 X94.428 Y67.702 E0.00163
G1 X94.428 Y67.702 E0.00000
G1 X94.468 Y67.723 E0.00042
G1 X94.645 Y67.847 E0.00198
G1 X94.807 Y67.990 E0.00198
G1 X94.949 Y68.149 E0.00196
G1 X95.076 Y68.331 E0.00203
G1 X95.178 Y68.521 E0.00198
G1 X95.304 Y68.840 E0.00314
G1 X95.078 Y69.065 E0.00292
G1 X95.098 Y69.225 E0.00147
G1 X95.086 Y69.515 E0.00266
G1 X95.019 Y69.805 E0.00273
G1 X94.898 Y70.080 E0.00276
G1 X94.898 Y70.080 E0.00000
G1 X94.867 Y70.150 E0.00070
G1 X94.851 Y70.150 E0.00014
G1 X94.741 Y70.311 E0.00178
G1 X94.525 Y70.529 E0.00282
G1 X94.286 Y70.694 E0.00267
G1 X94.036 Y70.808 E0.00252
G1 X93.757 Y70.880 E0.00264
G1 X93.667 Y70.886 E0.00083
G1 X93.667 Y70.886 E0.00000
G1 X93.450 Y70.900 E0.00199
G1 X93.450 Y72.000 E0.01008
G1 X95.451 Y72.000 E0.01834
G1 X95.627 Y72.073 E0.00175
G1 X95.700 Y72.249 E0.00175
G1 X95.700 Y74.134 E0.01728
G1 X95.668 Y74.252 E0.00112
G1 X95.557 Y74.367 E0.00146
G1 X95.431 Y74.400 E0.00119
G1 X95.431 Y74.400 E0.00000
G1 X95.221 Y74.455 E0.00199
G1 X95.221 Y74.400 E0.00051
G1 X93.450 Y74.400 E0.01623
G1 X93.450 Y75.500 E0.01008
G1 X95.450 Y75.500 E0.01834
G1 X95.631 Y75.579 E0.00181
G1 X95.700 Y75.754 E0.00173
G1 X95.700 Y77.651 E0.01739
G1 X95.627 Y77.827 E0.00175
G1 X95.451 Y77.900 E0.00175
G1 X93.450 Y77.900 E0.01834
G1 X93.450 Y79.000 E0.01008
G1 X95.448 Y79.000 E0.01831
G1 X95.628 Y79.074 E0.00178
G1 X95.700 Y79.249 E0.00173
G1 X95.700 Y81.120 E0.01715
G1 X95.663 Y81.308 E0.00176
G1 X95.522 Y81.366 E0.00139
G1 X95.453 Y81.400 E0.00071
G1 X93.450 Y81.400 E0.01836
G1 X93.450 Y82.500 E0.01008
G1 X95.440 Y82.500 E0.01824
G1 X95.501 Y82.526 E0.00061
G1 X95.625 Y82.567 E0.00119
G1 X95.700 Y82.749 E0.00180
G1 X95.700 Y84.651 E0.01743
G1 X95.627 Y84.827 E0.00175
G1 X95.451 Y84.900 E0.00175
G1 X93.450 Y84.900 E0.01834
G1 X93.450 Y86.000 E0.01008
G1 X95.451 Y86.000 E0.01834
G1 X95.627 Y86.073 E0.00175
G1 X95.700 Y86.249 E0.00175
G1 X95.700 Y88.150 E0.01743
G1 X95.621 Y88.331 E0.00181
G1 X95.446 Y88.400 E0.00173
G1 X95.446 Y88.400 E0.00000
G1 X95.230 Y88.485 E0.00213
G1 X95.230 Y88.400 E0.00078
G1 X93.450 Y88.400 E0.01631
G1 X93.450 Y89.200 E0.00733
G1 X93.753 Y89.220 E0.00279
G1 X94.032 Y89.290 E0.00263
G1 X94.291 Y89.409 E0.00262
G1 X94.531 Y89.576 E0.00268
G1 X94.730 Y89.776 E0.00258
G1 X94.897 Y90.019 E0.00270
G1 X95.017 Y90.290 E0.00272
G1 X95.072 Y90.517 E0.00214
G1 X95.072 Y90.517 E0.00000
G1 X95.083 Y90.565 E0.00045
G1 X95.099 Y90.856 E0.00267
G1 X95.078 Y91.034 E0.00164
G1 X95.303 Y91.260 E0.00292
G1 X95.182 Y91.572 E0.00307
G1 X95.077 Y91.768 E0.00205
G1 X94.953 Y91.945 E0.00198
G1 X94.810 Y92.107 E0.00198
G1 X94.651 Y92.249 E0.00195
G1 X94.469 Y92.376 E0.00204
G1 X94.279 Y92.478 E0.00198
G1 X93.960 Y92.604 E0.00314
G1 X93.738 Y92.382 E0.00288
G1 X93.638 Y92.394 E0.00093
G1 X93.424 Y92.398 E0.00196
G1 X93.214 Y92.374 E0.00194
G1 X93.010 Y92.323 E0.00193
G1 X92.817 Y92.247 E0.00190
G1 X92.627 Y92.141 E0.00200
G1 X92.459 Y92.015 E0.00192
G1 X92.303 Y91.862 E0.00201
G1 X92.172 Y91.693 E0.00196
G1 X92.065 Y91.507 E0.00196
G1 X91.983 Y91.309 E0.00197
G1 X91.931 Y91.115 E0.00184
G1 X91.903 Y90.903 E0.00196
G1 X91.903 Y90.689 E0.00197
G1 X91.943 Y90.400 E0.00267
G1 X91.511 Y90.400 E0.00396
G1 X91.385 Y90.412 E0.00116
G1 X91.264 Y90.454 E0.00118
G1 X91.149 Y90.528 E0.00126
G1 X91.055 Y90.627 E0.00125
G1 X90.991 Y90.744 E0.00122
G1 X90.953 Y90.895 E0.00143
G1 X90.950 Y90.948 E0.00048
G1 X90.950 Y92.175 E0.01125
G1 X49.050 Y92.175 E0.38406
G1 X49.050 Y90.948 E0.01125
G1 X49.047 Y90.894 E0.00049
G1 X49.013 Y90.753 E0.00134
G1 X48.949 Y90.634 E0.00124
G1 X48.858 Y90.534 E0.00124
G1 X48.740 Y90.457 E0.00130
G1 X48.676 Y90.439 E0.00061
G1 X48.588 Y90.409 E0.00085
G1 X48.489 Y90.400 E0.00091
G1 X48.054 Y90.400 E0.00399
G1 X48.096 Y90.688 E0.00267
G1 X48.097 Y90.899 E0.00193
G1 X48.071 Y91.105 E0.00190
G1 X48.018 Y91.305 E0.00190
G1 X47.936 Y91.507 E0.00200
G1 X47.831 Y91.688 E0.00192
G1 X47.697 Y91.862 E0.00201
G1 X47.545 Y92.012 E0.00196
G1 X47.509 Y92.039 E0.00041
G1 X47.509 Y92.039 E0.00000
G1 X47.374 Y92.141 E0.00155
G1 X47.190 Y92.244 E0.00194
G1 X46.994 Y92.322 E0.00193
G1 X46.835 Y92.362 E0.00150
G1 X46.835 Y92.362 E0.00000
G1 X46.793 Y92.373 E0.00040
G1 X46.577 Y92.398 E0.00199
G1 X46.367 Y92.395 E0.00192
G1 X46.261 Y92.382 E0.00098
G1 X46.040 Y92.604 E0.00287
G1 X45.726 Y92.480 E0.00309
G1 X45.532 Y92.377 E0.00202
G1 X45.355 Y92.253 E0.00198
G1 X45.193 Y92.110 E0.00198
G1 X44.822 Y91.694 E0.00511
G1 X44.850 Y91.631 E0.00063
G1 X44.667 Y91.290 E0.00355
G1 X44.922 Y91.035 E0.00331
G1 X44.902 Y90.875 E0.00147
G1 X44.914 Y90.585 E0.00266
G1 X44.981 Y90.295 E0.00273
G1 X45.101 Y90.022 E0.00273
G1 X45.256 Y89.794 E0.00253
G1 X45.455 Y89.588 E0.00263
G1 X45.689 Y89.421 E0.00263
G1 X45.956 Y89.295 E0.00270
G1 X46.233 Y89.222 E0.00263
G1 X46.550 Y89.197 E0.00292
G1 X46.550 Y88.400 E0.00730
G1 X44.570 Y88.400 E0.01815
G1 X44.456 Y88.371 E0.00108
G1 X44.336 Y88.263 E0.00148
G1 X44.300 Y88.135 E0.00122
G1 X44.300 Y86.266 E0.01713
G1 X44.332 Y86.148 E0.00112
G1 X44.443 Y86.033 E0.00146
G1 X44.569 Y86.000 E0.00119
G1 X46.550 Y86.000 E0.01816
G1 X46.550 Y84.900 E0.01008
G1 X44.570 Y84.900 E0.01815
G1 X44.456 Y84.872 E0.00108
G1 X44.336 Y84.763 E0.00148
G1 X44.300 Y84.635 E0.00122
G1 X44.300 Y82.761 E0.01718
G1 X44.344 Y82.622 E0.00134
G1 X44.477 Y82.518 E0.00155
G1 X44.578 Y82.500 E0.00094
G1 X46.550 Y82.500 E0.01808
G1 X46.550 Y81.400 E0.01008
G1 X44.561 Y81.400 E0.01823
G1 X44.347 Y81.330 E0.00206
G1 X44.300 Y81.130 E0.00188
G1 X44.300 Y79.257 E0.01717
G1 X44.352 Y79.106 E0.00146
G1 X44.515 Y79.000 E0.00179
G1 X46.550 Y79.000 E0.01865
G1 X46.550 Y77.900 E0.01008
G1 X44.550 Y77.900 E0.01834
G1 X44.369 Y77.821 E0.00181
G1 X44.300 Y77.646 E0.00173
G1 X44.300 Y75.749 E0.01738
G1 X44.373 Y75.573 E0.00175
G1 X44.549 Y75.500 E0.00175
G1 X46.550 Y75.500 E0.01834
G1 X46.550 Y74.400 E0.01008
G1 X44.547 Y74.400 E0.01836
G1 X44.363 Y74.315 E0.00186
G1 X44.320 Y74.197 E0.00115
G1 X44.320 Y74.197 E0.00000
G1 X44.300 Y74.143 E0.00053
G1 X44.300 Y72.249 E0.01736
G1 X44.373 Y72.073 E0.00175
G1 X44.549 Y72.000 E0.00175
G1 X46.550 Y72.000 E0.01834
G1 X46.550 Y70.903 E0.01006
G1 X46.251 Y70.881 E0.00275
G1 X45.959 Y70.806 E0.00276
G1 X45.689 Y70.680 E0.00273
G1 X45.461 Y70.517 E0.00256
G1 X45.267 Y70.320 E0.00254
G1 X45.103 Y70.081 E0.00265
G1 X44.983 Y69.810 E0.00272
G1 X44.917 Y69.534 E0.00260
G1 X44.901 Y69.244 E0.00267
G1 X44.922 Y69.066 E0.00164
G1 X44.696 Y68.840 E0.00293
G1 X44.723 Y68.771 E0.00067
G1 F1800.000 E-1.00000
G1 X43.672 Y88.760 F7800.000
G1 F1800.000 E1.00000
G1 X44.048 Y89.116 F540.000 E0.00475
G1 X44.623 Y89.260 E0.00544
G1 X44.372 Y89.639 E0.00417
G1 X44.206 Y90.018 E0.00379
G1 X44.115 Y90.388 E0.00349
G1 X44.099 Y90.475 E0.00081
G1 X44.085 Y90.710 E0.00216
G1 X43.664 Y91.131 E0.00546
G1 X43.498 Y91.056 E0.00167
G1 X43.579 Y89.612 E0.01326
G1 X43.521 Y89.612 E0.00053
G1 X43.521 Y89.362 E0.00230
G1 F1800.000 E-1.00000
G1 X43.521 Y71.537 F7800.000
G1 F1800.000 E1.00000
G1 X43.538 Y69.050 F540.000 E0.02279
G1 X43.687 Y68.992 E0.00146
G1 X44.085 Y69.390 E0.00515
G1 X44.105 Y69.672 E0.00259
G1 X44.197 Y70.057 E0.00363
G1 X44.346 Y70.404 E0.00346
G1 X44.386 Y70.482 E0.00080
G1 X44.581 Y70.775 E0.00322
G1 X44.791 Y71.053 E0.00319
G1 X44.728 Y71.179 E0.00129
G1 X44.386 Y71.179 E0.00314
G1 X44.168 Y71.269 E0.00216
G1 F1800.000 E-1.00000
G1 X95.411 Y89.296 F7800.000
G1 F1800.000 E1.00000
G1 X95.746 Y89.165 F540.000 E0.00330
G1 X95.746 Y89.165 E0.00000
G1 X96.479 Y88.877 E0.00721
G1 X96.479 Y89.612 E0.00674
G1 X96.421 Y89.612 E0.00053
G1 X96.502 Y91.056 E0.01326
G1 X96.336 Y91.131 E0.00167
G1 X95.915 Y90.710 E0.00545
G1 X95.895 Y90.428 E0.00259
G1 X95.722 Y89.708 E0.00679
G1 F1800.000 E-1.00000
G1 X96.479 Y71.536 F7800.000
G1 F1800.000 E1.00000
G1 X95.614 Y71.179 F540.000 E0.00857
G1 X95.312 Y71.179 E0.00277
G1 X95.531 Y70.679 E0.00500
G1 X95.531 Y70.679 E0.00000
G1 X95.633 Y70.450 E0.00230
G1 X95.633 Y70.450 E0.00000
G1 X95.794 Y70.082 E0.00368
G1 X95.885 Y69.712 E0.00349
G1 X95.901 Y69.625 E0.00081
G1 X95.915 Y69.390 E0.00216
G1 X96.313 Y68.992 E0.00516
G1 X96.462 Y69.050 E0.00146
G1 X96.478 Y70.836 E0.01637
G1 F1800.000 E-1.00000
G1 X92.242 Y67.203 F7800.000
G1 F1800.000 E1.00000
G1 X91.832 Y67.546 F540.000 E0.00490
G1 X91.765 Y67.609 E0.00084
G1 X91.483 Y67.938 E0.00397
G1 X91.204 Y67.594 E0.00406
G1 X90.973 Y67.392 E0.00282
G1 X90.736 Y67.211 E0.00273
G1 X90.801 Y67.021 E0.00183
G1 X91.670 Y67.021 E0.00797
G1 F1800.000 E-1.00000
G1 X49.251 Y67.188 F7800.000
G1 F1800.000 E1.00000
G1 X48.670 Y67.721 F540.000 E0.00722
G1 X48.534 Y67.952 E0.00246
G1 X48.011 Y67.393 E0.00702
G1 X47.758 Y67.248 E0.00268
G1 X47.818 Y67.021 E0.00215
G1 X48.665 Y67.021 E0.00777
G1 F1800.000 E-1.00000
G1 X46.478 Y66.883 F7800.000
G1 F1800.000 E1.00000
G1 X45.543 Y67.251 F540.000 E0.00921
G1 X45.320 Y67.371 E0.00231
G1 X45.089 Y67.533 E0.00259
G1 X44.903 Y67.699 E0.00229
G1 X44.724 Y67.900 E0.00247
G1 X44.570 Y68.122 E0.00247
G1 X44.449 Y68.349 E0.00236
G1 X44.216 Y68.941 E0.00583
G1 X44.486 Y69.211 E0.00350
G1 X44.511 Y69.603 E0.00360
G1 X44.590 Y69.933 E0.00311
G1 X44.718 Y70.228 E0.00295
G1 X44.745 Y70.282 E0.00055
G1 X44.915 Y70.535 E0.00280
G1 X44.950 Y70.582 E0.00054
G1 X45.194 Y70.830 E0.00319
G1 X45.489 Y71.040 E0.00331
G1 X45.811 Y71.191 E0.00327
G1 X46.140 Y71.290 E0.00314
G1 X46.095 Y71.589 E0.00277
G1 X44.467 Y71.589 E0.01492
G1 X44.059 Y71.759 E0.00406
G1 X43.889 Y72.167 E0.00406
G1 X43.889 Y74.216 E0.01878
G1 X44.036 Y74.616 E0.00391
G1 X44.597 Y74.876 E0.00567
G1 X44.594 Y75.037 E0.00147
G1 X44.059 Y75.259 E0.00531
G1 X43.889 Y75.667 E0.00406
G1 X43.889 Y77.723 E0.01885
G1 X44.049 Y78.130 E0.00400
G1 X44.553 Y78.350 E0.00505
G1 X44.564 Y78.478 E0.00118
G1 X44.009 Y78.839 E0.00606
G1 X43.889 Y79.189 E0.00339
G1 X43.889 Y81.178 E0.01824
G1 X44.001 Y81.648 E0.00443
G1 X44.592 Y81.843 E0.00570
G1 X44.575 Y82.083 E0.00221
G1 X44.305 Y82.132 E0.00251
G1 X43.990 Y82.376 E0.00366
G1 X43.889 Y82.698 E0.00309
G1 X43.889 Y84.691 E0.01827
G1 X43.973 Y84.993 E0.00287
G1 X44.252 Y85.244 E0.00344
G1 X44.593 Y85.329 E0.00322
G1 X44.594 Y85.569 E0.00220
G1 X44.223 Y85.666 E0.00352
G1 X43.964 Y85.934 E0.00341
G1 X43.889 Y86.212 E0.00264
G1 X43.889 Y88.191 E0.01814
G1 X43.973 Y88.493 E0.00287
G1 X44.252 Y88.744 E0.00344
G1 X44.520 Y88.811 E0.00253
G1 X45.493 Y88.811 E0.00891
G1 X45.556 Y89.009 E0.00191
G1 X45.180 Y89.282 E0.00426
G1 X44.942 Y89.528 E0.00314
G1 X44.737 Y89.831 E0.00335
G1 X44.594 Y90.156 E0.00326
G1 X44.518 Y90.471 E0.00297
G1 X44.507 Y90.530 E0.00055
G1 X44.489 Y90.887 E0.00328
G1 X44.160 Y91.215 E0.00426
G1 X44.392 Y91.647 E0.00450
G1 X44.338 Y91.769 E0.00122
G1 X44.899 Y92.397 E0.00772
G1 X45.100 Y92.576 E0.00247
G1 X45.322 Y92.730 E0.00247
G1 X45.486 Y92.818 E0.00171
G1 X45.486 Y92.818 E0.00000
G1 X45.549 Y92.851 E0.00065
G1 X46.224 Y93.116 E0.00665
G1 X46.172 Y93.389 E0.00255
G1 X45.557 Y93.389 E0.00564
G1 X45.285 Y93.375 E0.00250
G1 X45.031 Y93.335 E0.00235
G1 X44.783 Y93.268 E0.00235
G1 X44.543 Y93.176 E0.00235
G1 X44.315 Y93.059 E0.00235
G1 X44.100 Y92.919 E0.00235
G1 X43.900 Y92.757 E0.00235
G1 X43.719 Y92.575 E0.00235
G1 X43.558 Y92.375 E0.00235
G1 X43.418 Y92.159 E0.00235
G1 X43.302 Y91.930 E0.00235
G1 X43.218 Y91.708 E0.00218
G1 X43.218 Y91.708 E0.00000
G1 X43.211 Y91.690 E0.00018
G1 X43.145 Y91.442 E0.00235
G1 X43.106 Y91.188 E0.00235
G1 X43.094 Y90.950 E0.00218
G1 X43.094 Y90.950 E0.00000
