; generated by Slic3r 0.9.3 on 2012-10-04 at 19:21:28

; layer_height = 0.4
; perimeters = 3
; solid_layers = 3
; fill_density = 0.8
; perimeter_speed = 30
; infill_speed = 60
; travel_speed = 130
; scale = 1
; nozzle_diameter = 0.5
; filament_diameter = 2.83
; extrusion_multiplier = .684
; single wall width = 0.53mm

M104 S200 ; set temperature
G28 ; home all axes
M104 S200 ; set temperature
M116 ; wait for temperature to be reached
G90 ; use absolute coordinates
G21 ; set units to millimeters
G1 F1800.000 E-1.00000
G1 Z0.400 F7800.000
G1 X39.032 Y62.790
G1 F1800.000 E1.00000
G1 X39.702 Y62.160 F540.000 E0.02079
G1 X40.832 Y61.290 E0.03223
G1 X41.052 Y61.140 E0.00602
G1 X41.762 Y60.760 E0.01820
G1 X42.582 Y60.390 E0.02033
G1 X43.162 Y60.180 E0.01394
G1 X43.452 Y60.100 E0.00680
G1 X44.052 Y59.980 E0.01383
G1 X44.362 Y59.940 E0.00706
G1 X45.562 Y59.880 E0.02716
G1 X94.902 Y59.890 E1.11520
G1 X95.992 Y60.060 E0.02493
G1 X96.722 Y60.230 E0.01694
G1 X97.712 Y60.570 E0.02366
G1 X98.862 Y61.130 E0.02891
G1 X99.522 Y61.540 E0.01756
G1 X100.052 Y61.950 E0.01515
G1 X100.642 Y62.480 E0.01793
G1 X101.272 Y63.140 E0.02062
G1 X101.452 Y63.350 E0.00625
G1 X102.022 Y64.120 E0.02165
G1 X102.552 Y65.020 E0.02361
G1 X102.672 Y65.260 E0.00606
G1 X102.982 Y65.980 E0.01772
G1 X103.122 Y66.370 E0.00937
G1 X103.352 Y67.160 E0.01860
G1 X103.412 Y67.430 E0.00625
G1 X103.562 Y68.460 E0.02353
G1 X103.612 Y69.230 E0.01744
G1 X103.682 Y90.900 E0.48979
G1 X103.612 Y91.890 E0.02243
G1 X103.422 Y92.890 E0.02301
G1 X103.072 Y94.090 E0.02825
G1 X102.582 Y95.230 E0.02805
G1 X102.432 Y95.530 E0.00758
G1 X102.262 Y95.820 E0.00760
G1 X101.872 Y96.370 E0.01524
G1 X101.272 Y97.080 E0.02101
G1 X100.552 Y97.790 E0.02286
G1 X100.232 Y98.060 E0.00946
G1 X99.422 Y98.650 E0.02265
G1 X99.062 Y98.870 E0.00954
G1 X98.192 Y99.310 E0.02204
G1 X97.812 Y99.470 E0.00932
G1 X96.312 Y99.960 E0.03567
G1 X95.992 Y100.030 E0.00740
G1 X95.362 Y100.120 E0.01438
G1 X45.542 Y100.160 E1.12604
G1 X44.192 Y100.090 E0.03055
G1 X43.612 Y100.000 E0.01327
G1 X43.332 Y99.940 E0.00647
G1 X42.762 Y99.770 E0.01344
G1 X42.222 Y99.560 E0.01310
G1 X40.912 Y98.860 E0.03357
G1 X40.142 Y98.360 E0.02075
G1 X39.812 Y98.110 E0.00936
G1 X39.142 Y97.520 E0.02018
G1 X38.942 Y97.320 E0.00639
G1 X38.392 Y96.700 E0.01873
G1 X37.882 Y95.990 E0.01976
G1 X37.362 Y95.160 E0.02214
G1 X37.202 Y94.870 E0.00749
G1 X37.062 Y94.580 E0.00728
G1 X36.832 Y93.970 E0.01473
G1 X36.592 Y93.010 E0.02237
G1 X36.462 Y92.270 E0.01698
G1 X36.372 Y91.360 E0.02067
G1 X36.352 Y68.710 E0.51194
G1 X36.442 Y67.820 E0.02022
G1 X36.492 Y67.500 E0.00732
G1 X36.642 Y66.880 E0.01442
G1 X36.852 Y66.270 E0.01458
G1 X37.462 Y64.950 E0.03287
G1 X37.592 Y64.710 E0.00617
G1 X38.242 Y63.720 E0.02677
G1 X38.684 Y63.182 E0.01573
G1 F1800.000 E-1.00000
G1 X43.670 Y67.381 F7800.000
G1 F1800.000 E1.00000
G1 X43.863 Y67.185 F540.000 E0.00880
G1 X44.073 Y67.007 E0.00880
G1 X44.507 Y66.688 E0.01724
G1 X44.546 Y66.708 E0.00140
G1 X45.048 Y66.435 E0.01828
G1 X45.048 Y66.507 E0.00229
G1 X45.092 Y66.495 E0.00146
G1 X45.092 Y66.495 E0.00000
G1 X45.225 Y66.460 E0.00440
G1 X45.225 Y66.460 E0.00000
G1 X45.449 Y66.416 E0.00730
G1 X45.568 Y66.400 E0.00385
G1 X46.857 Y66.400 E0.04125
G1 X46.955 Y66.940 E0.01756
G1 X45.680 Y67.421 E0.04361
G1 X45.533 Y67.493 E0.00524
G1 X45.423 Y67.555 E0.00403
G1 X45.286 Y67.648 E0.00530
G1 X45.136 Y67.769 E0.00616
G1 X45.046 Y67.855 E0.00398
G1 X44.917 Y67.998 E0.00619
G1 X44.817 Y68.129 E0.00527
G1 X44.712 Y68.298 E0.00636
G1 X44.635 Y68.448 E0.00540
G1 X44.604 Y68.522 E0.00256
G1 X44.604 Y68.522 E0.00000
G1 X44.465 Y68.891 E0.01263
G1 X44.700 Y69.126 E0.01064
G1 X44.703 Y69.401 E0.00879
G1 X44.708 Y69.473 E0.00230
G1 X44.734 Y69.650 E0.00573
G1 X44.773 Y69.807 E0.00517
G1 X44.833 Y69.979 E0.00582
G1 X44.900 Y70.125 E0.00514
G1 X44.987 Y70.275 E0.00554
G1 X45.072 Y70.396 E0.00475
G1 X45.149 Y70.490 E0.00388
G1 X45.277 Y70.621 E0.00585
G1 X45.398 Y70.723 E0.00508
G1 X45.545 Y70.825 E0.00571
G1 X45.682 Y70.903 E0.00504
G1 X45.786 Y70.953 E0.00371
G1 X46.201 Y71.100 E0.01408
G1 X46.201 Y71.800 E0.02239
G1 X44.578 Y71.800 E0.05192
G1 X44.503 Y71.807 E0.00243
G1 X44.199 Y71.900 E0.01015
G1 X44.107 Y72.203 E0.01013
G1 X44.100 Y72.278 E0.00243
G1 X44.100 Y74.119 E0.05888
G1 X44.106 Y74.184 E0.00210
G1 X44.149 Y74.351 E0.00553
G1 X44.328 Y74.538 E0.00828
G1 X44.873 Y74.709 E0.01830
G1 X44.914 Y74.996 E0.00927
G1 X44.151 Y75.497 E0.02919
G1 X44.103 Y75.735 E0.00776
G1 X44.100 Y75.786 E0.00163
G1 X44.100 Y77.683 E0.06070
G1 X44.168 Y77.882 E0.00674
G1 X44.355 Y78.053 E0.00810
G1 X44.996 Y78.216 E0.02116
G1 X44.991 Y78.696 E0.01535
G1 X44.335 Y78.849 E0.02155
G1 X44.105 Y79.102 E0.01096
G1 X44.100 Y81.113 E0.06433
G1 X44.104 Y81.188 E0.00240
G1 X44.165 Y81.389 E0.00674
G1 X44.864 Y81.965 E0.02896
G1 X44.814 Y82.213 E0.00808
G1 X44.200 Y82.400 E0.02056
G1 X44.107 Y82.703 E0.01014
G1 X44.100 Y82.778 E0.00243
G1 X44.100 Y84.622 E0.05898
G1 X44.107 Y84.697 E0.00243
G1 X44.200 Y85.001 E0.01015
G1 X44.998 Y85.243 E0.02668
G1 X44.983 Y85.696 E0.01451
G1 X44.193 Y85.883 E0.02599
G1 X44.103 Y86.223 E0.01126
G1 X44.105 Y88.256 E0.06505
G1 X44.297 Y88.549 E0.01120
G1 X44.535 Y88.597 E0.00777
G1 X44.585 Y88.600 E0.00163
G1 X45.815 Y88.600 E0.03934
G1 X45.939 Y88.979 E0.01277
G1 X45.355 Y89.411 E0.02323
G1 X45.221 Y89.534 E0.00583
G1 X45.101 Y89.668 E0.00577
G1 X45.007 Y89.794 E0.00502
G1 X44.911 Y89.954 E0.00595
G1 X44.844 Y90.095 E0.00500
G1 X44.801 Y90.204 E0.00377
G1 X44.751 Y90.375 E0.00569
G1 X44.721 Y90.525 E0.00489
G1 X44.703 Y90.693 E0.00543
G1 X44.702 Y90.972 E0.00890
G1 X44.464 Y91.209 E0.01076
G1 X44.621 Y91.620 E0.01407
G1 X44.693 Y91.767 E0.00524
G1 X44.755 Y91.877 E0.00403
G1 X44.866 Y92.038 E0.00626
G1 X44.969 Y92.164 E0.00520
G1 X45.055 Y92.254 E0.00398
G1 X45.198 Y92.384 E0.00619
G1 X45.329 Y92.483 E0.00527
G1 X45.498 Y92.588 E0.00636
G1 X45.648 Y92.665 E0.00540
G1 X46.692 Y93.058 E0.03568
G1 X46.594 Y93.600 E0.01761
G1 X45.668 Y93.600 E0.02963
G1 X45.668 Y93.639 E0.00124
G1 X45.551 Y93.623 E0.00378
G1 X45.551 Y93.646 E0.00073
G1 X44.987 Y93.541 E0.01835
G1 X44.881 Y93.516 E0.00349
G1 X44.881 Y93.608 E0.00294
G1 X44.209 Y93.242 E0.02449
G1 X44.090 Y93.169 E0.00447
G1 X43.975 Y93.090 E0.00447
G1 X43.864 Y93.004 E0.00447
G1 X43.758 Y92.914 E0.00447
G1 X43.657 Y92.817 E0.00447
G1 X43.562 Y92.716 E0.00447
G1 X43.471 Y92.610 E0.00447
G1 X43.386 Y92.499 E0.00447
G1 X43.308 Y92.383 E0.00447
G1 X43.039 Y91.943 E0.01650
G1 X43.062 Y91.902 E0.00151
G1 X43.056 Y91.886 E0.00055
G1 X43.010 Y91.755 E0.00447
G1 X42.970 Y91.621 E0.00447
G1 X42.938 Y91.485 E0.00447
G1 X42.913 Y91.347 E0.00446
G1 X42.907 Y91.301 E0.00151
G1 X42.907 Y91.301 E0.00000
G1 X42.896 Y91.209 E0.00295
G1 X42.885 Y91.070 E0.00447
G1 X42.882 Y90.930 E0.00447
G1 X42.886 Y90.791 E0.00447
G1 X42.926 Y90.311 E0.01542
G1 X42.926 Y90.311 E0.00000
G1 X42.933 Y90.225 E0.00274
G1 X42.900 Y90.225 E0.00106
G1 X42.900 Y69.635 E0.65882
G1 X42.877 Y69.635 E0.00073
G1 X42.902 Y69.280 E0.01138
G1 X42.860 Y69.280 E0.00134
G1 X42.978 Y68.714 E0.01852
G1 X42.908 Y68.714 E0.00224
G1 X43.273 Y67.941 E0.02734
G1 X43.296 Y67.901 E0.00150
G1 X43.296 Y67.901 E0.00000
G1 X43.355 Y67.801 E0.00371
G1 F1800.000 E-1.00000
G1 X45.757 Y93.600 F7800.000
G1 F1800.000 E1.00000
G1 X45.631 Y93.295 F540.000 E0.01056
G1 X46.328 Y92.599 E0.03151
G1 X46.508 Y92.600 E0.00576
G1 X46.635 Y92.595 E0.00408
G1 X46.768 Y92.580 E0.00429
G1 X46.923 Y92.550 E0.00505
G1 X46.978 Y92.535 E0.00183
G1 X46.978 Y92.535 E0.00000
G1 X47.057 Y92.511 E0.00264
G1 X47.150 Y92.479 E0.00315
G1 X47.194 Y92.460 E0.00154
G1 X47.194 Y92.460 E0.00000
G1 X47.269 Y92.427 E0.00262
G1 X47.390 Y92.365 E0.00436
G1 X47.428 Y92.341 E0.00144
G1 X47.428 Y92.341 E0.00000
G1 X47.499 Y92.297 E0.00266
G1 X47.609 Y92.218 E0.00434
G1 X47.708 Y92.134 E0.00416
G1 X47.823 Y92.020 E0.00517
G1 X47.882 Y91.953 E0.00287
G1 X47.882 Y91.953 E0.00000
G1 X47.988 Y91.813 E0.00561
G1 X48.060 Y91.697 E0.00438
G1 X48.400 Y91.082 E0.02247
G1 X48.850 Y91.198 E0.01488
G1 X48.850 Y92.375 E0.03765
G1 X91.150 Y92.375 E1.35346
G1 X91.150 Y91.193 E0.03781
G1 X91.610 Y91.079 E0.01515
G1 X91.962 Y91.735 E0.02383
G1 X92.031 Y91.841 E0.00406
G1 X92.114 Y91.949 E0.00434
G1 X92.199 Y92.044 E0.00410
G1 X92.316 Y92.156 E0.00518
G1 X92.425 Y92.243 E0.00445
G1 X92.543 Y92.324 E0.00459
G1 X92.673 Y92.399 E0.00478
G1 X92.764 Y92.443 E0.00325
G1 X92.895 Y92.495 E0.00450
G1 X93.041 Y92.541 E0.00490
G1 X93.142 Y92.564 E0.00331
G1 X93.327 Y92.591 E0.00597
G1 X93.502 Y92.600 E0.00563
G1 X93.668 Y92.594 E0.00529
G1 X94.369 Y93.295 E0.03172
G1 X94.243 Y93.600 E0.01056
G1 X46.282 Y93.600 E1.53457
G1 F1800.000 E-1.00000
G1 X96.136 Y93.004 F7800.000
G1 F1800.000 E1.00000
G1 X96.025 Y93.090 F540.000 E0.00447
G1 X95.910 Y93.169 E0.00447
G1 X95.791 Y93.242 E0.00447
G1 X95.669 Y93.309 E0.00447
G1 X95.543 Y93.369 E0.00447
G1 X95.414 Y93.422 E0.00446
G1 X95.282 Y93.469 E0.00447
G1 X94.723 Y93.635 E0.01866
G1 X94.723 Y93.586 E0.00156
G1 X94.259 Y93.623 E0.01491
G1 X94.259 Y93.600 E0.00074
G1 X93.409 Y93.600 E0.02717
G1 X93.311 Y93.060 E0.01755
G1 X94.320 Y92.679 E0.03451
G1 X94.467 Y92.607 E0.00524
G1 X94.577 Y92.545 E0.00403
G1 X94.738 Y92.434 E0.00626
G1 X94.836 Y92.354 E0.00404
G1 X94.836 Y92.354 E0.00000
G1 X94.954 Y92.245 E0.00514
G1 X95.083 Y92.102 E0.00619
G1 X95.183 Y91.971 E0.00527
G1 X95.288 Y91.802 E0.00636
G1 X95.365 Y91.652 E0.00539
G1 X95.535 Y91.209 E0.01519
G1 X95.300 Y90.974 E0.01064
G1 X95.296 Y90.675 E0.00955
G1 X95.278 Y90.521 E0.00497
G1 X95.240 Y90.339 E0.00593
G1 X95.194 Y90.190 E0.00499
G1 X95.129 Y89.991 E0.00671
G1 X95.122 Y89.991 E0.00021
G1 X94.928 Y89.704 E0.01109
G1 X94.851 Y89.610 E0.00388
G1 X94.723 Y89.479 E0.00585
G1 X94.602 Y89.377 E0.00508
G1 X94.059 Y88.982 E0.02148
G1 X94.183 Y88.600 E0.01284
G1 X95.415 Y88.600 E0.03942
G1 X95.467 Y88.596 E0.00166
G1 X95.711 Y88.546 E0.00799
G1 X95.895 Y88.249 E0.01118
G1 X95.897 Y86.229 E0.06465
G1 X95.815 Y85.892 E0.01110
G1 X95.014 Y85.683 E0.02649
G1 X95.006 Y85.242 E0.01411
G1 X95.801 Y85.000 E0.02659
G1 X95.893 Y84.697 E0.01015
G1 X95.900 Y84.622 E0.00241
G1 X95.900 Y82.778 E0.05898
G1 X95.893 Y82.703 E0.00241
G1 X95.801 Y82.399 E0.01016
G1 X95.003 Y82.158 E0.02668
G1 X95.016 Y81.705 E0.01449
G1 X95.808 Y81.517 E0.02604
G1 X95.897 Y81.177 E0.01125
G1 X95.896 Y79.103 E0.06635
G1 X95.666 Y78.849 E0.01097
G1 X95.010 Y78.697 E0.02153
G1 X95.004 Y78.219 E0.01528
G1 X95.651 Y78.051 E0.02139
G1 X95.839 Y77.872 E0.00830
G1 X95.900 Y77.675 E0.00660
G1 X95.900 Y75.785 E0.06049
G1 X95.896 Y75.733 E0.00166
G1 X95.846 Y75.488 E0.00800
G1 X95.080 Y75.015 E0.02881
G1 X95.113 Y74.727 E0.00928
G1 X95.681 Y74.532 E0.01922
G1 X95.853 Y74.346 E0.00811
G1 X95.895 Y74.182 E0.00543
G1 X95.900 Y74.118 E0.00204
G1 X95.900 Y72.278 E0.05887
G1 X95.893 Y72.203 E0.00243
G1 X95.800 Y71.899 E0.01015
G1 X95.497 Y71.807 E0.01015
G1 X95.422 Y71.800 E0.00242
G1 X93.763 Y71.800 E0.05307
G1 X93.763 Y71.109 E0.02213
G1 X94.164 Y70.973 E0.01355
G1 X94.329 Y70.898 E0.00579
G1 X94.483 Y70.808 E0.00572
G1 X94.608 Y70.719 E0.00490
G1 X94.745 Y70.599 E0.00582
G1 X94.853 Y70.487 E0.00496
G1 X94.929 Y70.394 E0.00387
G1 X95.032 Y70.244 E0.00581
G1 X95.109 Y70.107 E0.00504
G1 X95.182 Y69.941 E0.00580
G1 X95.231 Y69.793 E0.00501
G1 X95.272 Y69.618 E0.00573
G1 X95.292 Y69.470 E0.00476
G1 X95.300 Y69.296 E0.00558
G1 X95.298 Y69.128 E0.00537
G1 X95.536 Y68.891 E0.01076
G1 X95.379 Y68.480 E0.01407
G1 X95.307 Y68.333 E0.00524
G1 X95.245 Y68.223 E0.00403
G1 X95.134 Y68.062 E0.00626
G1 X95.031 Y67.936 E0.00520
G1 X94.945 Y67.846 E0.00398
G1 X94.802 Y67.717 E0.00619
G1 X94.701 Y67.639 E0.00407
G1 X94.701 Y67.639 E0.00000
G1 X94.568 Y67.550 E0.00510
G1 X94.394 Y67.456 E0.00634
G1 X94.245 Y67.390 E0.00523
G1 X93.909 Y67.265 E0.01147
G1 X93.673 Y67.501 E0.01068
G1 X93.496 Y67.500 E0.00567
G1 X93.496 Y67.500 E0.00000
G1 X93.489 Y67.500 E0.00022
G1 X93.332 Y67.508 E0.00502
G1 X93.171 Y67.530 E0.00519
G1 X93.015 Y67.566 E0.00512
G1 X92.862 Y67.617 E0.00517
G1 X92.715 Y67.680 E0.00511
G1 X92.573 Y67.757 E0.00516
G1 X92.433 Y67.850 E0.00539
G1 X92.312 Y67.948 E0.00498
G1 X92.166 Y68.079 E0.00626
G1 X92.164 Y68.079 E0.00005
G1 X91.994 Y68.314 E0.00931
G1 X91.912 Y68.453 E0.00515
G1 X91.671 Y68.980 E0.01853
G1 X91.427 Y69.000 E0.00786
G1 X91.016 Y68.377 E0.02388
G1 X90.976 Y68.262 E0.00388
G1 X90.949 Y68.262 E0.00088
G1 X90.800 Y68.074 E0.00769
G1 X90.708 Y67.979 E0.00421
G1 X90.642 Y67.921 E0.00280
G1 X90.537 Y67.842 E0.00423
G1 X90.426 Y67.774 E0.00414
G1 X90.304 Y67.714 E0.00438
G1 X90.182 Y67.668 E0.00415
G1 X90.097 Y67.644 E0.00283
G1 X89.966 Y67.617 E0.00429
G1 X89.889 Y67.607 E0.00247
G1 X89.889 Y67.607 E0.00000
G1 X50.608 Y67.600 E1.25687
G1 X50.608 Y67.586 E0.00045
G1 X50.274 Y67.598 E0.01070
G1 X50.274 Y67.483 E0.00369
G1 X49.651 Y67.734 E0.02148
G1 X49.530 Y67.799 E0.00440
G1 X49.416 Y67.876 E0.00440
G1 X49.310 Y67.963 E0.00439
G1 X49.214 Y68.058 E0.00432
G1 X49.126 Y68.166 E0.00447
G1 X49.049 Y68.280 E0.00440
G1 X48.916 Y68.520 E0.00876
G1 X48.886 Y68.520 E0.00096
G1 X48.841 Y69.043 E0.01682
G1 X48.348 Y69.111 E0.01592
G1 X48.134 Y68.541 E0.01950
G1 X48.001 Y68.305 E0.00868
G1 X47.835 Y68.091 E0.00867
G1 X47.638 Y67.904 E0.00867
G1 X47.416 Y67.749 E0.00867
G1 X47.172 Y67.629 E0.00867
G1 X47.071 Y67.597 E0.00339
G1 X47.071 Y67.597 E0.00000
G1 X46.914 Y67.547 E0.00528
G1 X46.646 Y67.505 E0.00867
G1 X46.329 Y67.503 E0.01014
G1 X45.531 Y66.705 E0.03611
G1 X45.657 Y66.400 E0.01056
G1 X94.432 Y66.400 E1.56063
G1 X94.687 Y66.440 E0.00825
G1 X94.733 Y66.451 E0.00150
G1 X94.733 Y66.451 E0.00000
G1 X94.954 Y66.507 E0.00730
G1 X95.213 Y66.598 E0.00880
G1 X95.464 Y66.713 E0.00880
G1 X95.714 Y66.848 E0.00912
G1 X95.714 Y66.857 E0.00028
G1 X95.927 Y67.007 E0.00835
G1 X96.137 Y67.185 E0.00880
G1 X96.330 Y67.381 E0.00880
G1 X96.504 Y67.594 E0.00880
G1 X96.658 Y67.822 E0.00880
G1 X96.791 Y68.063 E0.00880
G1 X96.901 Y68.316 E0.00880
G1 X96.987 Y68.577 E0.00880
G1 X97.050 Y68.845 E0.00880
G1 X97.087 Y69.117 E0.00880
G1 X97.100 Y90.625 E0.68817
G1 X97.102 Y90.654 E0.00094
G1 X97.102 Y90.654 E0.00000
G1 X97.125 Y90.922 E0.00862
G1 X97.164 Y90.922 E0.00126
G1 X97.137 Y91.071 E0.00483
G1 X97.141 Y91.125 E0.00175
G1 X97.127 Y91.125 E0.00046
G1 X97.062 Y91.485 E0.01169
G1 X97.030 Y91.621 E0.00447
G1 X97.016 Y91.666 E0.00151
G1 X97.016 Y91.666 E0.00000
G1 X96.990 Y91.755 E0.00295
G1 X96.944 Y91.886 E0.00447
G1 X96.891 Y92.015 E0.00447
G1 X96.831 Y92.141 E0.00447
G1 X96.765 Y92.264 E0.00447
G1 X96.717 Y92.344 E0.00298
G1 X96.737 Y92.365 E0.00094
G1 X96.507 Y92.635 E0.01136
G1 F1800.000 E-1.00000
G1 X91.240 Y90.567 F7800.000
G1 F1800.000 E1.00000
G1 X91.884 Y90.413 F540.000 E0.02121
G1 X92.002 Y90.743 E0.01120
G1 X91.240 Y90.567 F7800.000
G1 X91.093 Y90.583 F540.000 E0.00472
G1 F1800.000 E-1.00000
G1 X93.417 Y89.231 F7800.000
G1 F1800.000 E1.00000
G1 X93.585 Y88.961 F540.000 E0.01017
G1 X93.536 Y88.503 E0.01471
G1 X93.417 Y89.231 F7800.000
G1 X93.660 Y89.282 F540.000 E0.00793
G1 F1800.000 E-1.00000
G1 X94.555 Y86.158 F7800.000
G1 F1800.000 E1.00000
G1 X94.265 Y85.826 F540.000 E0.01409
G1 X93.960 Y85.544 E0.01331
G1 X93.873 Y85.635 E0.00403
G1 X93.866 Y85.649 E0.00049
G1 X93.960 Y85.544 F7800.000
G1 X93.796 Y85.289 F540.000 E0.00970
G1 X93.958 Y85.429 F7800.000
G1 X94.507 Y84.787 F540.000 E0.02704
G1 F1800.000 E-1.00000
G1 X94.557 Y82.633 F7800.000
G1 F1800.000 E1.00000
G1 X93.952 Y82.052 F540.000 E0.02683
G1 X93.874 Y82.135 F7800.000
G1 X93.961 Y81.931 F540.000 E0.00709
G1 X93.812 Y81.796 F7800.000
G1 X93.961 Y81.931 F540.000 E0.00644
G1 X94.367 Y81.557 E0.01766
G1 X93.812 Y81.796 F7800.000
G1 X93.796 Y81.789 F540.000 E0.00056
G1 X93.874 Y82.135 F7800.000
G1 X93.868 Y82.148 F540.000 E0.00045
G1 F1800.000 E-1.00000
G1 X94.554 Y79.178 F7800.000
G1 F1800.000 E1.00000
G1 X94.281 Y78.836 F540.000 E0.01401
G1 X93.958 Y78.546 E0.01391
G1 X93.873 Y78.635 E0.00393
G1 X93.866 Y78.649 E0.00050
G1 X93.958 Y78.546 F7800.000
G1 X93.796 Y78.289 F540.000 E0.00973
G1 X93.959 Y78.429 F7800.000
G1 X94.506 Y77.757 F540.000 E0.02773
G1 F1800.000 E-1.00000
G1 X94.990 Y75.545 F7800.000
G1 F1800.000 E1.00000
