; generated by Slic3r 0.9.3 on 2012-11-09 at 13:38:14

; layer_height = 0.4
; perimeters = 3
; solid_layers = 3
; fill_density = 0.6
; perimeter_speed = 30
; infill_speed = 60
; travel_speed = 130
; scale = 1
; nozzle_diameter = 0.5
; filament_diameter = 2.83
; extrusion_multiplier = .684
; single wall width = 0.53mm

M104 S200 ; set temperature
G28 ; home all axes
M104 S200 ; set temperature
M116 ; wait for temperature to be reached
G90 ; use absolute coordinates
G21 ; set units to millimeters
G1 F1800.000 E-1.00000
G1 Z0.400 F7800.000
G1 X40.300 Y53.655
G1 F1800.000 E1.00000
G1 X40.670 Y53.295 F540.000 E0.01167
G1 X40.870 Y53.125 E0.00593
G1 X41.290 Y52.805 E0.01193
G1 X41.970 Y52.395 E0.01795
G1 X42.440 Y52.175 E0.01173
G1 X42.930 Y51.985 E0.01188
G1 X43.700 Y51.785 E0.01798
G1 X43.950 Y51.735 E0.00576
G1 X44.740 Y51.655 E0.01795
G1 X95.260 Y51.655 E1.14187
G1 X96.050 Y51.735 E0.01795
G1 X96.560 Y51.845 E0.01179
G1 X97.070 Y51.985 E0.01195
G1 X97.560 Y52.175 E0.01188
G1 X98.030 Y52.395 E0.01173
G1 X98.710 Y52.805 E0.01795
G1 X99.130 Y53.125 E0.01193
G1 X99.330 Y53.295 E0.00593
G1 X99.880 Y53.845 E0.01758
G1 X100.050 Y54.045 E0.00593
G1 X100.370 Y54.465 E0.01193
G1 X100.780 Y55.145 E0.01795
G1 X101.000 Y55.615 E0.01173
G1 X101.190 Y56.105 E0.01188
G1 X101.390 Y56.875 E0.01798
G1 X101.440 Y57.125 E0.00576
G1 X101.520 Y57.915 E0.01795
G1 X101.520 Y102.085 E0.99834
G1 X101.440 Y102.875 E0.01795
G1 X101.330 Y103.385 E0.01179
G1 X101.190 Y103.895 E0.01195
G1 X101.000 Y104.385 E0.01188
G1 X100.780 Y104.855 E0.01173
G1 X100.370 Y105.535 E0.01795
G1 X100.050 Y105.955 E0.01193
G1 X99.880 Y106.155 E0.00593
G1 X99.330 Y106.705 E0.01758
G1 X99.130 Y106.875 E0.00593
G1 X98.710 Y107.195 E0.01193
G1 X98.030 Y107.605 E0.01795
G1 X97.560 Y107.825 E0.01173
G1 X97.070 Y108.015 E0.01188
G1 X96.300 Y108.215 E0.01798
G1 X96.050 Y108.265 E0.00576
G1 X95.260 Y108.345 E0.01795
G1 X44.740 Y108.345 E1.14187
G1 X43.950 Y108.265 E0.01795
G1 X43.440 Y108.155 E0.01179
G1 X42.930 Y108.015 E0.01195
G1 X42.440 Y107.825 E0.01188
G1 X41.970 Y107.605 E0.01173
G1 X41.290 Y107.195 E0.01795
G1 X40.870 Y106.875 E0.01193
G1 X40.670 Y106.705 E0.00593
G1 X40.120 Y106.155 E0.01758
G1 X39.950 Y105.955 E0.00593
G1 X39.630 Y105.535 E0.01193
G1 X39.220 Y104.855 E0.01795
G1 X39.000 Y104.385 E0.01173
G1 X38.810 Y103.895 E0.01188
G1 X38.610 Y103.125 E0.01798
G1 X38.560 Y102.875 E0.00576
G1 X38.480 Y102.085 E0.01795
G1 X38.480 Y57.915 E0.99834
G1 X38.560 Y57.125 E0.01795
G1 X38.670 Y56.615 E0.01179
G1 X38.810 Y56.105 E0.01195
G1 X39.000 Y55.615 E0.01188
G1 X39.220 Y55.145 E0.01173
G1 X39.630 Y54.465 E0.01795
G1 X39.950 Y54.046 E0.01192
G1 F1800.000 E-1.00000
G1 X46.536 Y100.289 F7800.000
G1 F1800.000 E1.00000
G1 X46.536 Y59.711 F540.000 E1.29839
G1 X93.464 Y59.711 E1.50157
G1 X93.464 Y100.289 E1.29839
G1 X47.061 Y100.289 E1.48477
G1 X45.768 Y101.057 F7800.000
G1 X45.768 Y58.943 F540.000 E1.34753
G1 X94.232 Y58.943 E1.55071
G1 X94.232 Y101.057 E1.34753
G1 X46.293 Y101.057 E1.53391
G1 X45.000 Y101.825 F7800.000
G1 X45.000 Y58.175 F540.000 E1.39666
G1 X95.000 Y58.175 E1.59984
G1 X95.000 Y101.825 E1.39666
G1 X45.525 Y101.825 E1.58304
G1 F1800.000 E-1.00000
G1 X47.675 Y99.893 F7800.000
G1 F1800.000 E1.00000
G1 X46.932 Y99.150 F1080.000 E0.03391
G1 X46.932 Y98.054 E0.03541
G1 X48.771 Y99.893 E0.08398
G1 X49.868 Y99.893 E0.03541
G1 X46.932 Y96.957 E0.13405
G1 X46.932 Y95.861 E0.03541
G1 X50.964 Y99.893 E0.18412
G1 X52.061 Y99.893 E0.03541
G1 X46.932 Y94.764 E0.23419
G1 X46.932 Y93.667 E0.03541
G1 X53.158 Y99.893 E0.28427
G1 X54.254 Y99.893 E0.03541
G1 X46.932 Y92.571 E0.33434
G1 X46.932 Y91.474 E0.03541
G1 X55.351 Y99.893 E0.38441
G1 X56.447 Y99.893 E0.03541
G1 X46.932 Y90.378 E0.43448
G1 X46.932 Y89.281 E0.03541
G1 X57.544 Y99.893 E0.48455
G1 X58.641 Y99.893 E0.03541
G1 X46.932 Y88.184 E0.53462
G1 X46.932 Y87.088 E0.03541
G1 X59.737 Y99.893 E0.58469
G1 X60.834 Y99.893 E0.03540
G1 X46.932 Y85.991 E0.63476
G1 X46.932 Y84.895 E0.03541
G1 X61.930 Y99.893 E0.68483
G1 X63.027 Y99.893 E0.03541
G1 X46.932 Y83.798 E0.73490
G1 X46.932 Y82.702 E0.03541
G1 X64.123 Y99.893 E0.78497
G1 X65.220 Y99.893 E0.03541
G1 X46.932 Y81.605 E0.83504
G1 X46.932 Y80.508 E0.03541
G1 X66.317 Y99.893 E0.88511
G1 X67.413 Y99.893 E0.03541
G1 X46.932 Y79.412 E0.93518
G1 X46.932 Y78.315 E0.03541
G1 X68.510 Y99.893 E0.98525
G1 X69.606 Y99.893 E0.03541
G1 X46.932 Y77.219 E1.03532
G1 X46.932 Y76.122 E0.03540
G1 X70.703 Y99.893 E1.08539
G1 X71.799 Y99.893 E0.03541
G1 X46.932 Y75.026 E1.13546
G1 X46.932 Y73.929 E0.03541
G1 X72.896 Y99.893 E1.18554
G1 X73.993 Y99.893 E0.03541
G1 X46.932 Y72.832 E1.23561
G1 X46.932 Y71.736 E0.03541
G1 X75.089 Y99.893 E1.28568
G1 X76.186 Y99.893 E0.03541
G1 X46.932 Y70.639 E1.33575
G1 X46.932 Y69.543 E0.03541
G1 X77.282 Y99.893 E1.38582
G1 X78.379 Y99.893 E0.03541
G1 X46.932 Y68.446 E1.43589
G1 X46.932 Y67.350 E0.03541
G1 X79.475 Y99.893 E1.48596
G1 X80.572 Y99.893 E0.03541
G1 X46.932 Y66.253 E1.53603
G1 X46.932 Y65.156 E0.03541
G1 X81.669 Y99.893 E1.58610
G1 X82.765 Y99.893 E0.03541
G1 X46.932 Y64.060 E1.63617
G1 X46.932 Y62.963 E0.03541
G1 X83.862 Y99.893 E1.68624
G1 X84.959 Y99.893 E0.03541
G1 X46.932 Y61.866 E1.73632
G1 X46.932 Y60.770 E0.03540
G1 X86.055 Y99.893 E1.78639
G1 X87.152 Y99.893 E0.03542
G1 X47.366 Y60.107 E1.81666
G1 X48.462 Y60.107 E0.03540
G1 X88.248 Y99.893 E1.81666
G1 X89.344 Y99.893 E0.03540
G1 X49.559 Y60.107 E1.81666
G1 X50.656 Y60.107 E0.03542
G1 X90.441 Y99.893 E1.81666
G1 X91.538 Y99.893 E0.03540
G1 X51.752 Y60.107 E1.81666
G1 X52.849 Y60.107 E0.03542
G1 X92.635 Y99.893 E1.81666
G1 X93.068 Y99.230 E0.02557
G1 X53.945 Y60.107 E1.78638
G1 X55.041 Y60.107 E0.03540
G1 X93.068 Y98.134 E1.73631
G1 X93.068 Y97.037 E0.03542
G1 X56.138 Y60.107 E1.68624
G1 X57.235 Y60.107 E0.03540
G1 X93.068 Y95.940 E1.63617
G1 X93.068 Y94.843 E0.03542
G1 X58.332 Y60.107 E1.58610
G1 X59.428 Y60.107 E0.03540
G1 X93.068 Y93.747 E1.53603
G1 X93.068 Y92.651 E0.03540
G1 X60.524 Y60.107 E1.48596
G1 X61.621 Y60.107 E0.03542
G1 X93.068 Y91.554 E1.43589
G1 X93.068 Y90.457 E0.03540
G1 X62.718 Y60.107 E1.38582
G1 X63.815 Y60.107 E0.03542
G1 X93.068 Y89.360 E1.33574
G1 X93.068 Y88.264 E0.03540
G1 X64.911 Y60.107 E1.28567
G1 X66.007 Y60.107 E0.03540
G1 X93.068 Y87.168 E1.23560
G1 X93.068 Y86.071 E0.03542
G1 X67.104 Y60.107 E1.18553
G1 X68.201 Y60.107 E0.03540
G1 X93.068 Y84.974 E1.13546
G1 X93.068 Y83.877 E0.03542
G1 X69.298 Y60.107 E1.08539
G1 X70.394 Y60.107 E0.03540
G1 X93.068 Y82.781 E1.03532
G1 X93.068 Y81.685 E0.03540
G1 X71.490 Y60.107 E0.98525
G1 X72.587 Y60.107 E0.03542
G1 X93.068 Y80.588 E0.93518
G1 X93.068 Y79.492 E0.03540
G1 X73.683 Y60.107 E0.88511
G1 X74.780 Y60.107 E0.03542
G1 X93.068 Y78.395 E0.83504
G1 X93.068 Y77.298 E0.03540
G1 X75.877 Y60.107 E0.78497
G1 X76.973 Y60.107 E0.03540
G1 X93.068 Y76.202 E0.73490
G1 X93.068 Y75.105 E0.03542
G1 X78.070 Y60.107 E0.68483
G1 X79.166 Y60.107 E0.03540
G1 X93.068 Y74.009 E0.63476
G1 X93.068 Y72.912 E0.03542
G1 X80.263 Y60.107 E0.58468
G1 X81.360 Y60.107 E0.03540
G1 X93.068 Y71.815 E0.53461
G1 X93.068 Y70.719 E0.03540
G1 X82.456 Y60.107 E0.48454
G1 X83.553 Y60.107 E0.03542
G1 X93.068 Y69.622 E0.43447
G1 X93.068 Y68.526 E0.03540
G1 X84.649 Y60.107 E0.38440
G1 X85.746 Y60.107 E0.03540
G1 X93.068 Y67.429 E0.33433
G1 X93.068 Y66.332 E0.03542
G1 X86.843 Y60.107 E0.28426
G1 X87.939 Y60.107 E0.03540
G1 X93.068 Y65.236 E0.23419
G1 X93.068 Y64.139 E0.03542
G1 X89.036 Y60.107 E0.18412
G1 X90.132 Y60.107 E0.03540
G1 X93.068 Y63.043 E0.13405
G1 X93.068 Y61.947 E0.03540
G1 X91.228 Y60.107 E0.08398
G1 X92.325 Y60.107 E0.03542
G1 X93.068 Y60.850 E0.03391
M104 S189 ; set temperature
G1 F1800.000 E-1.00000
G1 Z0.800 F7800.000
G1 X94.093 Y59.082
G1 F1800.000 E1.00000
G1 X94.093 Y100.918 F1800.000 E0.94558
G1 X45.907 Y100.918 E1.08911
G1 X45.907 Y59.082 E0.94558
G1 X93.568 Y59.082 E1.07724
G1 X94.615 Y58.560 F7800.000
G1 X94.615 Y101.440 F1800.000 E0.96919
G1 X45.385 Y101.440 E1.11272
G1 X45.385 Y58.560 E0.96919
G1 X94.090 Y58.560 E1.10085
G1 X95.138 Y58.037 F7800.000
G1 X95.138 Y101.962 F1800.000 E0.99280
G1 X44.863 Y101.962 E1.13633
G1 X44.863 Y58.037 E0.99280
G1 X94.613 Y58.037 E1.12446
G1 X93.942 Y59.383 F7800.000
G1 X52.558 Y100.767 F3600.000 E1.32322
G1 X51.820 Y100.767 F7800.000
G1 X93.354 Y59.233 F3600.000 E1.32802
G1 X92.614 Y59.233 F7800.000
G1 X51.080 Y100.767 F3600.000 E1.32801
G1 X50.342 Y100.767 F7800.000
G1 X91.876 Y59.233 F3600.000 E1.32802
G1 X91.136 Y59.233 F7800.000
G1 X49.602 Y100.767 F3600.000 E1.32801
G1 X48.864 Y100.767 F7800.000
G1 X90.398 Y59.233 F3600.000 E1.32802
G1 X89.658 Y59.233 F7800.000
G1 X48.125 Y100.767 F3600.000 E1.32801
G1 X47.386 Y100.767 F7800.000
G1 X88.920 Y59.233 F3600.000 E1.32802
G1 X88.180 Y59.233 F7800.000
G1 X46.647 Y100.767 F3600.000 E1.32801
G1 X46.058 Y100.617 F7800.000
G1 X87.442 Y59.233 F3600.000 E1.32322
G1 X86.703 Y59.233 F7800.000
G1 X46.058 Y99.878 F3600.000 E1.29958
G1 X46.058 Y99.139 F7800.000
G1 X85.964 Y59.233 F3600.000 E1.27597
G1 X85.225 Y59.233 F7800.000
G1 X46.058 Y98.400 F3600.000 E1.25233
G1 X46.058 Y97.661 F7800.000
G1 X84.487 Y59.233 F3600.000 E1.22871
G1 X83.747 Y59.233 F7800.000
G1 X46.058 Y96.922 F3600.000 E1.20508
G1 X46.058 Y96.183 F7800.000
G1 X83.009 Y59.233 F3600.000 E1.18146
G1 X82.269 Y59.233 F7800.000
G1 X46.058 Y95.444 F3600.000 E1.15782
G1 X46.058 Y94.706 F7800.000
G1 X81.531 Y59.233 F3600.000 E1.13421
G1 X80.791 Y59.233 F7800.000
G1 X46.058 Y93.966 F3600.000 E1.11057
G1 X46.058 Y93.228 F7800.000
G1 X80.053 Y59.233 F3600.000 E1.08695
G1 X79.313 Y59.233 F7800.000
G1 X46.058 Y92.488 F3600.000 E1.06332
G1 X46.058 Y91.750 F7800.000
G1 X78.575 Y59.233 F3600.000 E1.03970
G1 X77.835 Y59.233 F7800.000
G1 X46.058 Y91.011 F3600.000 E1.01606
G1 X46.058 Y90.272 F7800.000
G1 X77.097 Y59.233 F3600.000 E0.99245
G1 X76.358 Y59.233 F7800.000
G1 X46.058 Y89.533 F3600.000 E0.96881
G1 X46.058 Y88.794 F7800.000
G1 X75.619 Y59.233 F3600.000 E0.94519
G1 X74.880 Y59.233 F7800.000
G1 X46.058 Y88.055 F3600.000 E0.92156
G1 X46.058 Y87.316 F7800.000
G1 X74.142 Y59.233 F3600.000 E0.89794
G1 X73.402 Y59.233 F7800.000
G1 X46.058 Y86.577 F3600.000 E0.87430
G1 X46.058 Y85.838 F7800.000
G1 X72.664 Y59.233 F3600.000 E0.85069
G1 X71.924 Y59.233 F7800.000
G1 X46.058 Y85.099 F3600.000 E0.82705
G1 X46.058 Y84.361 F7800.000
G1 X71.186 Y59.233 F3600.000 E0.80343
G1 X70.446 Y59.233 F7800.000
G1 X46.058 Y83.621 F3600.000 E0.77980
G1 X46.058 Y82.883 F7800.000
G1 X69.708 Y59.233 F3600.000 E0.75618
G1 X68.968 Y59.233 F7800.000
G1 X46.058 Y82.143 F3600.000 E0.73254
G1 X46.058 Y81.405 F7800.000
G1 X68.230 Y59.233 F3600.000 E0.70893
G1 X67.490 Y59.233 F7800.000
G1 X46.058 Y80.666 F3600.000 E0.68529
G1 X46.058 Y79.927 F7800.000
G1 X66.752 Y59.233 F3600.000 E0.66167
G1 X66.013 Y59.233 F7800.000
G1 X46.058 Y79.188 F3600.000 E0.63804
G1 X46.058 Y78.449 F7800.000
G1 X65.274 Y59.233 F3600.000 E0.61442
G1 X64.535 Y59.233 F7800.000
G1 X46.058 Y77.710 F3600.000 E0.59078
G1 X46.058 Y76.971 F7800.000
G1 X63.797 Y59.233 F3600.000 E0.56717
G1 X63.057 Y59.233 F7800.000
G1 X46.058 Y76.232 F3600.000 E0.54353
G1 X46.058 Y75.493 F7800.000
G1 X62.319 Y59.233 F3600.000 E0.51991
G1 X61.579 Y59.233 F7800.000
G1 X46.058 Y74.754 F3600.000 E0.49628
G1 X46.058 Y74.016 F7800.000
G1 X60.841 Y59.233 F3600.000 E0.47266
G1 X60.101 Y59.233 F7800.000
G1 X46.058 Y73.276 F3600.000 E0.44902
G1 X46.058 Y72.538 F7800.000
G1 X59.363 Y59.233 F3600.000 E0.42541
G1 X58.623 Y59.233 F7800.000
G1 X46.058 Y71.798 F3600.000 E0.40177
G1 X46.058 Y71.060 F7800.000
G1 X57.885 Y59.233 F3600.000 E0.37815
G1 X57.146 Y59.233 F7800.000
G1 X46.058 Y70.321 F3600.000 E0.35452
G1 X46.058 Y69.582 F7800.000
G1 X56.407 Y59.233 F3600.000 E0.33090
G1 X55.668 Y59.233 F7800.000
G1 X46.058 Y68.843 F3600.000 E0.30726
G1 X46.058 Y68.104 F7800.000
G1 X54.929 Y59.233 F3600.000 E0.28365
G1 X54.190 Y59.233 F7800.000
G1 X46.058 Y67.365 F3600.000 E0.26001
G1 X46.058 Y66.626 F7800.000
G1 X53.452 Y59.233 F3600.000 E0.23639
G1 X52.712 Y59.233 F7800.000
G1 X46.058 Y65.887 F3600.000 E0.21276
G1 X46.058 Y65.148 F7800.000
G1 X51.974 Y59.233 F3600.000 E0.18914
G1 X51.234 Y59.233 F7800.000
G1 X46.058 Y64.409 F3600.000 E0.16550
G1 X46.058 Y63.671 F7800.000
G1 X50.496 Y59.233 F3600.000 E0.14189
G1 X49.756 Y59.233 F7800.000
G1 X46.058 Y62.931 F3600.000 E0.11825
G1 X46.058 Y62.193 F7800.000
G1 X49.018 Y59.233 F3600.000 E0.09464
G1 X48.278 Y59.233 F7800.000
G1 X46.058 Y61.453 F3600.000 E0.07099
G1 X46.058 Y60.715 F7800.000
G1 X47.540 Y59.233 F3600.000 E0.04739
G1 X46.801 Y59.233 F7800.000
G1 X46.058 Y59.976 F3600.000 E0.02374
G1 F1800.000 E-1.00000
G1 X53.297 Y100.767 F7800.000
G1 F1800.000 E1.00000
G1 X93.942 Y60.123 F3600.000 E1.29958
G1 X93.942 Y60.861 F7800.000
G1 X54.036 Y100.767 F3600.000 E1.27596
G1 X54.775 Y100.767 F7800.000
G1 X93.942 Y61.600 F3600.000 E1.25233
G1 X93.942 Y62.339 F7800.000
G1 X55.514 Y100.767 F3600.000 E1.22871
G1 X56.253 Y100.767 F7800.000
G1 X93.942 Y63.078 F3600.000 E1.20507
G1 X93.942 Y63.817 F7800.000
G1 X56.992 Y100.767 F3600.000 E1.18146
G1 X57.731 Y100.767 F7800.000
G1 X93.942 Y64.556 F3600.000 E1.15782
G1 X93.942 Y65.294 F7800.000
G1 X58.470 Y100.767 F3600.000 E1.13420
G1 X59.209 Y100.767 F7800.000
G1 X93.942 Y66.034 F3600.000 E1.11057
G1 X93.942 Y66.772 F7800.000
G1 X59.947 Y100.767 F3600.000 E1.08695
G1 X60.687 Y100.767 F7800.000
G1 X93.942 Y67.512 F3600.000 E1.06331
G1 X93.942 Y68.250 F7800.000
G1 X61.425 Y100.767 F3600.000 E1.03970
G1 X62.165 Y100.767 F7800.000
G1 X93.942 Y68.990 F3600.000 E1.01606
G1 X93.942 Y69.728 F7800.000
G1 X62.903 Y100.767 F3600.000 E0.99244
G1 X63.642 Y100.767 F7800.000
G1 X93.942 Y70.468 F3600.000 E0.96881
G1 X93.942 Y71.206 F7800.000
G1 X64.381 Y100.767 F3600.000 E0.94519
G1 X65.120 Y100.767 F7800.000
G1 X93.942 Y71.945 F3600.000 E0.92155
G1 X93.942 Y72.684 F7800.000
G1 X65.859 Y100.767 F3600.000 E0.89794
G1 X66.598 Y100.767 F7800.000
G1 X93.942 Y73.423 F3600.000 E0.87430
G1 X93.942 Y74.162 F7800.000
G1 X67.337 Y100.767 F3600.000 E0.85068
G1 X68.076 Y100.767 F7800.000
G1 X93.942 Y74.901 F3600.000 E0.82705
G1 X93.942 Y75.639 F7800.000
G1 X68.815 Y100.767 F3600.000 E0.80343
G1 X69.554 Y100.767 F7800.000
G1 X93.942 Y76.379 F3600.000 E0.77979
G1 X93.942 Y77.117 F7800.000
G1 X70.292 Y100.767 F3600.000 E0.75618
G1 X71.032 Y100.767 F7800.000
G1 X93.942 Y77.857 F3600.000 E0.73254
G1 X93.942 Y78.595 F7800.000
G1 X71.770 Y100.767 F3600.000 E0.70892
G1 X72.510 Y100.767 F7800.000
G1 X93.942 Y79.335 F3600.000 E0.68529
G1 X93.942 Y80.073 F7800.000
G1 X73.248 Y100.767 F3600.000 E0.66167
G1 X73.987 Y100.767 F7800.000
G1 X93.942 Y80.813 F3600.000 E0.63803
G1 X93.942 Y81.551 F7800.000
G1 X74.726 Y100.767 F3600.000 E0.61442
G1 X75.465 Y100.767 F7800.000
G1 X93.942 Y82.290 F3600.000 E0.59078
G1 X93.942 Y83.029 F7800.000
G1 X76.204 Y100.767 F3600.000 E0.56716
G1 X76.943 Y100.767 F7800.000
G1 X93.942 Y83.768 F3600.000 E0.54353
G1 X93.942 Y84.506 F7800.000
G1 X77.682 Y100.767 F3600.000 E0.51991
G1 X78.421 Y100.767 F7800.000
G1 X93.942 Y85.246 F3600.000 E0.49627
G1 X93.942 Y85.984 F7800.000
G1 X79.160 Y100.767 F3600.000 E0.47266
G1 X79.899 Y100.767 F7800.000
G1 X93.942 Y86.724 F3600.000 E0.44902
G1 X93.942 Y87.462 F7800.000
G1 X80.637 Y100.767 F3600.000 E0.42540
G1 X81.377 Y100.767 F7800.000
G1 X93.942 Y88.202 F3600.000 E0.40177
G1 X93.942 Y88.940 F7800.000
G1 X82.115 Y100.767 F3600.000 E0.37815
G1 X82.855 Y100.767 F7800.000
G1 X93.942 Y89.680 F3600.000 E0.35451
G1 X93.942 Y90.418 F7800.000
G1 X83.593 Y100.767 F3600.000 E0.33090
G1 X84.332 Y100.767 F7800.000
G1 X93.942 Y91.158 F3600.000 E0.30726
G1 X93.942 Y91.896 F7800.000
G1 X85.071 Y100.767 F3600.000 E0.28366
G1 X85.810 Y100.767 F7800.000
G1 X93.942 Y92.635 F3600.000 E0.26001
G1 X93.942 Y93.374 F7800.000
G1 X86.548 Y100.767 F3600.000 E0.23640
G1 X87.288 Y100.767 F7800.000
G1 X93.942 Y94.113 F3600.000 E0.21275
G1 X93.942 Y94.851 F7800.000
G1 X88.026 Y100.767 F3600.000 E0.18915
G1 X88.766 Y100.767 F7800.000
G1 X93.942 Y95.591 F3600.000 E0.16550
G1 X93.942 Y96.329 F7800.000
G1 X89.504 Y100.767 F3600.000 E0.14190
G1 X90.244 Y100.767 F7800.000
G1 X93.942 Y97.069 F3600.000 E0.11825
