; generated by Slic3r 0.9.3 on 2012-11-09 at 12:02:36

; layer_height = 0.4
; perimeters = 3
; solid_layers = 3
; fill_density = 0.6
; perimeter_speed = 30
; infill_speed = 60
; travel_speed = 130
; scale = 1
; nozzle_diameter = 0.5
; filament_diameter = 2.83
; extrusion_multiplier = .684
; single wall width = 0.53mm

M104 S200 ; set temperature
G28 ; home all axes
M104 S200 ; set temperature
M116 ; wait for temperature to be reached
G90 ; use absolute coordinates
G21 ; set units to millimeters
G1 F1800.000 E-1.00000
G1 Z0.400 F7800.000
G1 X43.475 Y50.480
G1 F1800.000 E1.00000
G1 X43.845 Y50.120 F540.000 E0.01167
G1 X44.045 Y49.950 E0.00593
G1 X44.465 Y49.630 E0.01193
G1 X45.145 Y49.220 E0.01795
G1 X45.615 Y49.000 E0.01173
G1 X46.105 Y48.810 E0.01188
G1 X46.875 Y48.610 E0.01798
G1 X47.125 Y48.560 E0.00576
G1 X47.915 Y48.480 E0.01795
G1 X92.085 Y48.480 E0.99834
G1 X92.875 Y48.560 E0.01795
G1 X93.385 Y48.670 E0.01179
G1 X93.895 Y48.810 E0.01195
G1 X94.385 Y49.000 E0.01188
G1 X94.855 Y49.220 E0.01173
G1 X95.535 Y49.630 E0.01795
G1 X95.955 Y49.950 E0.01193
G1 X96.155 Y50.120 E0.00593
G1 X96.705 Y50.670 E0.01758
G1 X96.875 Y50.870 E0.00593
G1 X97.195 Y51.290 E0.01193
G1 X97.605 Y51.970 E0.01795
G1 X97.825 Y52.440 E0.01173
G1 X98.015 Y52.930 E0.01188
G1 X98.215 Y53.700 E0.01798
G1 X98.265 Y53.950 E0.00576
G1 X98.345 Y54.740 E0.01795
G1 X98.345 Y105.260 E1.14187
G1 X98.265 Y106.050 E0.01795
G1 X98.155 Y106.560 E0.01179
G1 X98.015 Y107.070 E0.01195
G1 X97.825 Y107.560 E0.01188
G1 X97.605 Y108.030 E0.01173
G1 X97.195 Y108.710 E0.01795
G1 X96.875 Y109.130 E0.01193
G1 X96.705 Y109.330 E0.00593
G1 X96.155 Y109.880 E0.01758
G1 X95.955 Y110.050 E0.00593
G1 X95.535 Y110.370 E0.01193
G1 X94.855 Y110.780 E0.01795
G1 X94.385 Y111.000 E0.01173
G1 X93.895 Y111.190 E0.01188
G1 X93.125 Y111.390 E0.01798
G1 X92.875 Y111.440 E0.00576
G1 X92.085 Y111.520 E0.01795
G1 X47.915 Y111.520 E0.99834
G1 X47.125 Y111.440 E0.01795
G1 X46.615 Y111.330 E0.01179
G1 X46.105 Y111.190 E0.01195
G1 X45.615 Y111.000 E0.01188
G1 X45.145 Y110.780 E0.01173
G1 X44.465 Y110.370 E0.01795
G1 X44.045 Y110.050 E0.01193
G1 X43.845 Y109.880 E0.00593
G1 X43.295 Y109.330 E0.01758
G1 X43.125 Y109.130 E0.00593
G1 X42.805 Y108.710 E0.01193
G1 X42.395 Y108.030 E0.01795
G1 X42.175 Y107.560 E0.01173
G1 X41.985 Y107.070 E0.01188
G1 X41.785 Y106.300 E0.01798
G1 X41.735 Y106.050 E0.00576
G1 X41.655 Y105.260 E0.01795
G1 X41.655 Y54.740 E1.14187
G1 X41.735 Y53.950 E0.01795
G1 X41.845 Y53.440 E0.01179
G1 X41.985 Y52.930 E0.01195
G1 X42.175 Y52.440 E0.01188
G1 X42.395 Y51.970 E0.01173
G1 X42.805 Y51.290 E0.01795
G1 X43.125 Y50.871 E0.01192
G1 F1800.000 E-1.00000
G1 X49.711 Y56.536 F7800.000
G1 F1800.000 E1.00000
G1 X90.289 Y56.536 F540.000 E1.29839
G1 X90.289 Y103.464 E1.50157
G1 X49.711 Y103.464 E1.29839
G1 X49.711 Y57.061 E1.48477
G1 X48.943 Y55.768 F7800.000
G1 X91.057 Y55.768 F540.000 E1.34753
G1 X91.057 Y104.232 E1.55071
G1 X48.943 Y104.232 E1.34753
G1 X48.943 Y56.293 E1.53391
G1 X48.175 Y55.000 F7800.000
G1 X91.825 Y55.000 F540.000 E1.39666
G1 X91.825 Y105.000 E1.59984
G1 X48.175 Y105.000 E1.39666
G1 X48.175 Y55.525 E1.58304
G1 F1800.000 E-1.00000
G1 X89.893 Y57.674 F7800.000
G1 F1800.000 E1.00000
G1 X89.151 Y56.932 F1080.000 E0.03390
G1 X88.054 Y56.932 E0.03542
G1 X89.893 Y58.771 E0.08398
G1 X89.893 Y59.868 E0.03540
G1 X86.957 Y56.932 E0.13405
G1 X85.861 Y56.932 E0.03540
G1 X89.893 Y60.964 E0.18412
G1 X89.893 Y62.061 E0.03542
G1 X84.764 Y56.932 E0.23419
G1 X83.668 Y56.932 E0.03540
G1 X89.893 Y63.157 E0.28426
G1 X89.893 Y64.254 E0.03542
G1 X82.571 Y56.932 E0.33433
G1 X81.474 Y56.932 E0.03540
G1 X89.893 Y65.351 E0.38440
G1 X89.893 Y66.447 E0.03540
G1 X80.378 Y56.932 E0.43447
G1 X79.281 Y56.932 E0.03542
G1 X89.893 Y67.544 E0.48454
G1 X89.893 Y68.640 E0.03540
G1 X78.185 Y56.932 E0.53461
G1 X77.088 Y56.932 E0.03542
G1 X89.893 Y69.737 E0.58468
G1 X89.893 Y70.834 E0.03540
G1 X75.991 Y56.932 E0.63476
G1 X74.895 Y56.932 E0.03540
G1 X89.893 Y71.930 E0.68483
G1 X89.893 Y73.027 E0.03542
G1 X73.798 Y56.932 E0.73490
G1 X72.702 Y56.932 E0.03540
G1 X89.893 Y74.123 E0.78497
G1 X89.893 Y75.220 E0.03542
G1 X71.605 Y56.932 E0.83504
G1 X70.509 Y56.932 E0.03540
G1 X89.893 Y76.316 E0.88511
G1 X89.893 Y77.413 E0.03540
G1 X69.412 Y56.932 E0.93518
G1 X68.315 Y56.932 E0.03542
G1 X89.893 Y78.510 E0.98525
G1 X89.893 Y79.606 E0.03540
G1 X67.219 Y56.932 E1.03532
G1 X66.122 Y56.932 E0.03542
G1 X89.893 Y80.703 E1.08539
G1 X89.893 Y81.799 E0.03540
G1 X65.026 Y56.932 E1.13546
G1 X63.929 Y56.932 E0.03540
G1 X89.893 Y82.896 E1.18554
G1 X89.893 Y83.993 E0.03542
G1 X62.832 Y56.932 E1.23561
G1 X61.736 Y56.932 E0.03540
G1 X89.893 Y85.089 E1.28567
G1 X89.893 Y86.186 E0.03542
G1 X60.639 Y56.932 E1.33574
G1 X59.543 Y56.932 E0.03540
G1 X89.893 Y87.282 E1.38582
G1 X89.893 Y88.379 E0.03540
G1 X58.446 Y56.932 E1.43588
G1 X57.349 Y56.932 E0.03542
G1 X89.893 Y89.476 E1.48595
G1 X89.893 Y90.572 E0.03540
G1 X56.253 Y56.932 E1.53603
G1 X55.156 Y56.932 E0.03542
G1 X89.893 Y91.669 E1.58610
G1 X89.893 Y92.765 E0.03540
G1 X54.060 Y56.932 E1.63617
G1 X52.964 Y56.932 E0.03540
G1 X89.893 Y93.861 E1.68624
G1 X89.893 Y94.958 E0.03542
G1 X51.867 Y56.932 E1.73631
G1 X50.770 Y56.932 E0.03540
G1 X89.893 Y96.055 E1.78638
G1 X89.893 Y97.152 E0.03542
G1 X50.107 Y57.366 E1.81666
G1 X50.107 Y58.462 E0.03540
G1 X89.893 Y98.248 E1.81666
G1 X89.893 Y99.345 E0.03540
G1 X50.107 Y59.559 E1.81666
G1 X50.107 Y60.655 E0.03541
G1 X89.893 Y100.441 E1.81666
G1 X89.893 Y101.538 E0.03541
G1 X50.107 Y61.752 E1.81666
G1 X50.107 Y62.848 E0.03540
G1 X89.893 Y102.634 E1.81666
G1 X89.230 Y103.068 E0.02558
G1 X50.107 Y63.945 E1.78639
G1 X50.107 Y65.042 E0.03541
G1 X88.133 Y103.068 E1.73632
G1 X87.037 Y103.068 E0.03541
G1 X50.107 Y66.138 E1.68624
G1 X50.107 Y67.235 E0.03541
G1 X85.940 Y103.068 E1.63617
G1 X84.844 Y103.068 E0.03541
G1 X50.107 Y68.331 E1.58610
G1 X50.107 Y69.428 E0.03541
G1 X83.747 Y103.068 E1.53603
G1 X82.650 Y103.068 E0.03541
G1 X50.107 Y70.525 E1.48596
G1 X50.107 Y71.621 E0.03541
G1 X81.554 Y103.068 E1.43589
G1 X80.457 Y103.068 E0.03541
G1 X50.107 Y72.718 E1.38582
G1 X50.107 Y73.814 E0.03541
G1 X79.361 Y103.068 E1.33575
G1 X78.264 Y103.068 E0.03541
G1 X50.107 Y74.911 E1.28568
G1 X50.107 Y76.007 E0.03541
G1 X77.168 Y103.068 E1.23561
G1 X76.071 Y103.068 E0.03541
G1 X50.107 Y77.104 E1.18554
G1 X50.107 Y78.201 E0.03541
G1 X74.974 Y103.068 E1.13546
G1 X73.878 Y103.068 E0.03541
G1 X50.107 Y79.297 E1.08539
G1 X50.107 Y80.394 E0.03541
G1 X72.781 Y103.068 E1.03533
G1 X71.685 Y103.068 E0.03541
G1 X50.107 Y81.490 E0.98526
G1 X50.107 Y82.587 E0.03541
G1 X70.588 Y103.068 E0.93518
G1 X69.492 Y103.068 E0.03541
G1 X50.107 Y83.683 E0.88511
G1 X50.107 Y84.780 E0.03541
G1 X68.395 Y103.068 E0.83504
G1 X67.298 Y103.068 E0.03541
G1 X50.107 Y85.877 E0.78497
G1 X50.107 Y86.973 E0.03541
G1 X66.202 Y103.068 E0.73490
G1 X65.105 Y103.068 E0.03541
G1 X50.107 Y88.070 E0.68483
G1 X50.107 Y89.166 E0.03541
G1 X64.009 Y103.068 E0.63476
G1 X62.912 Y103.068 E0.03540
G1 X50.107 Y90.263 E0.58469
G1 X50.107 Y91.359 E0.03541
G1 X61.816 Y103.068 E0.53462
G1 X60.719 Y103.068 E0.03541
G1 X50.107 Y92.456 E0.48455
G1 X50.107 Y93.553 E0.03541
G1 X59.622 Y103.068 E0.43448
G1 X58.526 Y103.068 E0.03541
G1 X50.107 Y94.649 E0.38440
G1 X50.107 Y95.746 E0.03541
G1 X57.429 Y103.068 E0.33433
G1 X56.333 Y103.068 E0.03541
G1 X50.107 Y96.842 E0.28427
G1 X50.107 Y97.939 E0.03541
G1 X55.236 Y103.068 E0.23419
G1 X54.139 Y103.068 E0.03541
G1 X50.107 Y99.035 E0.18412
G1 X50.107 Y100.132 E0.03541
G1 X53.043 Y103.068 E0.13405
G1 X51.946 Y103.068 E0.03541
G1 X50.107 Y101.229 E0.08398
G1 X50.107 Y102.325 E0.03541
G1 X50.850 Y103.068 E0.03391
M104 S189 ; set temperature
G1 F1800.000 E-1.00000
G1 Z0.800 F7800.000
G1 X90.918 Y55.907
G1 F1800.000 E1.00000
G1 X90.918 Y104.093 F1800.000 E1.08911
G1 X49.082 Y104.093 E0.94558
G1 X49.082 Y55.907 E1.08911
G1 X90.393 Y55.907 E0.93372
G1 X91.440 Y55.385 F7800.000
G1 X91.440 Y104.615 F1800.000 E1.11272
G1 X48.560 Y104.615 E0.96919
G1 X48.560 Y55.385 E1.11272
G1 X90.915 Y55.385 E0.95733
G1 X91.962 Y54.863 F7800.000
G1 X91.962 Y105.138 F1800.000 E1.13633
G1 X48.037 Y105.138 E0.99280
G1 X48.037 Y54.863 E1.13633
G1 X91.437 Y54.863 E0.98094
G1 X90.617 Y56.058 F7800.000
G1 X49.233 Y97.442 F3600.000 E1.32322
G1 X49.233 Y98.181 F7800.000
G1 X90.767 Y56.646 F3600.000 E1.32802
G1 X90.767 Y57.386 F7800.000
G1 X49.233 Y98.920 F3600.000 E1.32801
G1 X49.233 Y99.658 F7800.000
G1 X90.767 Y58.124 F3600.000 E1.32802
G1 X90.767 Y58.864 F7800.000
G1 X49.233 Y100.398 F3600.000 E1.32801
G1 X49.233 Y101.136 F7800.000
G1 X90.767 Y59.602 F3600.000 E1.32802
G1 X90.767 Y60.342 F7800.000
G1 X49.233 Y101.875 F3600.000 E1.32801
G1 X49.233 Y102.614 F7800.000
G1 X90.767 Y61.080 F3600.000 E1.32802
G1 X90.767 Y61.820 F7800.000
G1 X49.233 Y103.353 F3600.000 E1.32801
G1 X49.383 Y103.942 F7800.000
G1 X90.767 Y62.558 F3600.000 E1.32322
G1 X90.767 Y63.297 F7800.000
G1 X50.122 Y103.942 F3600.000 E1.29959
G1 X50.861 Y103.942 F7800.000
G1 X90.767 Y64.036 F3600.000 E1.27597
G1 X90.767 Y64.775 F7800.000
G1 X51.600 Y103.942 F3600.000 E1.25233
G1 X52.339 Y103.942 F7800.000
G1 X90.767 Y65.514 F3600.000 E1.22872
G1 X90.767 Y66.253 F7800.000
G1 X53.078 Y103.942 F3600.000 E1.20508
G1 X53.817 Y103.942 F7800.000
G1 X90.767 Y66.991 F3600.000 E1.18146
G1 X90.767 Y67.731 F7800.000
G1 X54.556 Y103.942 F3600.000 E1.15783
G1 X55.295 Y103.942 F7800.000
G1 X90.767 Y68.469 F3600.000 E1.13421
G1 X90.767 Y69.209 F7800.000
G1 X56.034 Y103.942 F3600.000 E1.11057
G1 X56.772 Y103.942 F7800.000
G1 X90.767 Y69.947 F3600.000 E1.08696
G1 X90.767 Y70.687 F7800.000
G1 X57.512 Y103.942 F3600.000 E1.06332
G1 X58.250 Y103.942 F7800.000
G1 X90.767 Y71.425 F3600.000 E1.03970
G1 X90.767 Y72.165 F7800.000
G1 X58.990 Y103.942 F3600.000 E1.01607
G1 X59.728 Y103.942 F7800.000
G1 X90.767 Y72.903 F3600.000 E0.99245
G1 X90.767 Y73.642 F7800.000
G1 X60.467 Y103.942 F3600.000 E0.96881
G1 X61.206 Y103.942 F7800.000
G1 X90.767 Y74.381 F3600.000 E0.94520
G1 X90.767 Y75.120 F7800.000
G1 X61.945 Y103.942 F3600.000 E0.92156
G1 X62.684 Y103.942 F7800.000
G1 X90.767 Y75.858 F3600.000 E0.89794
G1 X90.767 Y76.598 F7800.000
G1 X63.423 Y103.942 F3600.000 E0.87431
G1 X64.162 Y103.942 F7800.000
G1 X90.767 Y77.336 F3600.000 E0.85069
G1 X90.767 Y78.076 F7800.000
G1 X64.901 Y103.942 F3600.000 E0.82705
G1 X65.640 Y103.942 F7800.000
G1 X90.767 Y78.814 F3600.000 E0.80344
G1 X90.767 Y79.554 F7800.000
G1 X66.379 Y103.942 F3600.000 E0.77980
G1 X67.117 Y103.942 F7800.000
G1 X90.767 Y80.292 F3600.000 E0.75618
G1 X90.767 Y81.032 F7800.000
G1 X67.857 Y103.942 F3600.000 E0.73255
G1 X68.595 Y103.942 F7800.000
G1 X90.767 Y81.770 F3600.000 E0.70893
G1 X90.767 Y82.510 F7800.000
G1 X69.335 Y103.942 F3600.000 E0.68529
G1 X70.073 Y103.942 F7800.000
G1 X90.767 Y83.248 F3600.000 E0.66168
G1 X90.767 Y83.987 F7800.000
G1 X70.812 Y103.942 F3600.000 E0.63804
G1 X71.551 Y103.942 F7800.000
G1 X90.767 Y84.726 F3600.000 E0.61442
G1 X90.767 Y85.465 F7800.000
G1 X72.290 Y103.942 F3600.000 E0.59079
G1 X73.029 Y103.942 F7800.000
G1 X90.767 Y86.203 F3600.000 E0.56717
G1 X90.767 Y86.943 F7800.000
G1 X73.768 Y103.942 F3600.000 E0.54353
G1 X74.507 Y103.942 F7800.000
G1 X90.767 Y87.681 F3600.000 E0.51992
G1 X90.767 Y88.421 F7800.000
G1 X75.246 Y103.942 F3600.000 E0.49628
G1 X75.984 Y103.942 F7800.000
G1 X90.767 Y89.159 F3600.000 E0.47266
G1 X90.767 Y89.899 F7800.000
G1 X76.724 Y103.942 F3600.000 E0.44903
G1 X77.462 Y103.942 F7800.000
G1 X90.767 Y90.637 F3600.000 E0.42541
G1 X90.767 Y91.377 F7800.000
G1 X78.202 Y103.942 F3600.000 E0.40177
G1 X78.940 Y103.942 F7800.000
G1 X90.767 Y92.115 F3600.000 E0.37816
G1 X90.767 Y92.855 F7800.000
G1 X79.679 Y103.942 F3600.000 E0.35452
G1 X80.418 Y103.942 F7800.000
G1 X90.767 Y93.593 F3600.000 E0.33090
G1 X90.767 Y94.332 F7800.000
G1 X81.157 Y103.942 F3600.000 E0.30727
G1 X81.896 Y103.942 F7800.000
G1 X90.767 Y95.071 F3600.000 E0.28365
G1 X90.767 Y95.810 F7800.000
G1 X82.635 Y103.942 F3600.000 E0.26001
G1 X83.374 Y103.942 F7800.000
G1 X90.767 Y96.548 F3600.000 E0.23640
G1 X90.767 Y97.288 F7800.000
G1 X84.113 Y103.942 F3600.000 E0.21276
G1 X84.852 Y103.942 F7800.000
G1 X90.767 Y98.026 F3600.000 E0.18914
G1 X90.767 Y98.766 F7800.000
G1 X85.591 Y103.942 F3600.000 E0.16551
G1 X86.329 Y103.942 F7800.000
G1 X90.767 Y99.504 F3600.000 E0.14188
G1 X90.767 Y100.244 F7800.000
G1 X87.069 Y103.942 F3600.000 E0.11825
G1 X87.807 Y103.942 F7800.000
G1 X90.767 Y100.982 F3600.000 E0.09463
G1 X90.767 Y101.722 F7800.000
G1 X88.547 Y103.942 F3600.000 E0.07100
G1 X89.285 Y103.942 F7800.000
G1 X90.767 Y102.460 F3600.000 E0.04737
G1 X90.767 Y103.199 F7800.000
G1 X90.024 Y103.942 F3600.000 E0.02375
G1 F1800.000 E-1.00000
G1 X49.233 Y96.703 F7800.000
G1 F1800.000 E1.00000
G1 X89.878 Y56.058 F3600.000 E1.29958
G1 X89.139 Y56.058 F7800.000
G1 X49.233 Y95.964 F3600.000 E1.27597
G1 X49.233 Y95.225 F7800.000
G1 X88.400 Y56.058 F3600.000 E1.25233
G1 X87.662 Y56.058 F7800.000
G1 X49.233 Y94.486 F3600.000 E1.22871
G1 X49.233 Y93.747 F7800.000
G1 X86.922 Y56.058 F3600.000 E1.20508
G1 X86.184 Y56.058 F7800.000
G1 X49.233 Y93.008 F3600.000 E1.18146
G1 X49.233 Y92.269 F7800.000
G1 X85.444 Y56.058 F3600.000 E1.15782
G1 X84.706 Y56.058 F7800.000
G1 X49.233 Y91.531 F3600.000 E1.13421
G1 X49.233 Y90.791 F7800.000
G1 X83.966 Y56.058 F3600.000 E1.11057
G1 X83.228 Y56.058 F7800.000
G1 X49.233 Y90.053 F3600.000 E1.08695
G1 X49.233 Y89.313 F7800.000
G1 X82.488 Y56.058 F3600.000 E1.06332
G1 X81.750 Y56.058 F7800.000
G1 X49.233 Y88.575 F3600.000 E1.03970
G1 X49.233 Y87.836 F7800.000
G1 X81.010 Y56.058 F3600.000 E1.01606
G1 X80.272 Y56.058 F7800.000
G1 X49.233 Y87.097 F3600.000 E0.99245
G1 X49.233 Y86.358 F7800.000
G1 X79.533 Y56.058 F3600.000 E0.96881
G1 X78.794 Y56.058 F7800.000
G1 X49.233 Y85.619 F3600.000 E0.94519
G1 X49.233 Y84.880 F7800.000
G1 X78.055 Y56.058 F3600.000 E0.92156
G1 X77.317 Y56.058 F7800.000
G1 X49.233 Y84.141 F3600.000 E0.89794
G1 X49.233 Y83.402 F7800.000
G1 X76.577 Y56.058 F3600.000 E0.87430
G1 X75.839 Y56.058 F7800.000
G1 X49.233 Y82.663 F3600.000 E0.85069
G1 X49.233 Y81.924 F7800.000
G1 X75.099 Y56.058 F3600.000 E0.82705
G1 X74.361 Y56.058 F7800.000
G1 X49.233 Y81.186 F3600.000 E0.80343
G1 X49.233 Y80.446 F7800.000
G1 X73.621 Y56.058 F3600.000 E0.77980
G1 X72.883 Y56.058 F7800.000
G1 X49.233 Y79.708 F3600.000 E0.75618
G1 X49.233 Y78.968 F7800.000
G1 X72.143 Y56.058 F3600.000 E0.73254
G1 X71.405 Y56.058 F7800.000
G1 X49.233 Y78.230 F3600.000 E0.70893
G1 X49.233 Y77.491 F7800.000
G1 X70.665 Y56.058 F3600.000 E0.68529
G1 X69.927 Y56.058 F7800.000
G1 X49.233 Y76.752 F3600.000 E0.66167
G1 X49.233 Y76.013 F7800.000
G1 X69.188 Y56.058 F3600.000 E0.63804
G1 X68.449 Y56.058 F7800.000
G1 X49.233 Y75.274 F3600.000 E0.61442
G1 X49.233 Y74.535 F7800.000
G1 X67.710 Y56.058 F3600.000 E0.59078
G1 X66.972 Y56.058 F7800.000
G1 X49.233 Y73.796 F3600.000 E0.56717
G1 X49.233 Y73.057 F7800.000
G1 X66.232 Y56.058 F3600.000 E0.54353
G1 X65.494 Y56.058 F7800.000
G1 X49.233 Y72.318 F3600.000 E0.51991
G1 X49.233 Y71.579 F7800.000
G1 X64.754 Y56.058 F3600.000 E0.49628
G1 X64.016 Y56.058 F7800.000
G1 X49.233 Y70.841 F3600.000 E0.47266
G1 X49.233 Y70.101 F7800.000
G1 X63.276 Y56.058 F3600.000 E0.44902
G1 X62.538 Y56.058 F7800.000
G1 X49.233 Y69.363 F3600.000 E0.42541
G1 X49.233 Y68.623 F7800.000
G1 X61.798 Y56.058 F3600.000 E0.40177
G1 X61.060 Y56.058 F7800.000
G1 X49.233 Y67.885 F3600.000 E0.37815
G1 X49.233 Y67.146 F7800.000
G1 X60.321 Y56.058 F3600.000 E0.35452
G1 X59.582 Y56.058 F7800.000
G1 X49.233 Y66.407 F3600.000 E0.33090
G1 X49.233 Y65.668 F7800.000
G1 X58.843 Y56.058 F3600.000 E0.30726
G1 X58.104 Y56.058 F7800.000
G1 X49.233 Y64.929 F3600.000 E0.28365
G1 X49.233 Y64.190 F7800.000
G1 X57.365 Y56.058 F3600.000 E0.26001
G1 X56.627 Y56.058 F7800.000
G1 X49.233 Y63.451 F3600.000 E0.23639
G1 X49.233 Y62.712 F7800.000
G1 X55.887 Y56.058 F3600.000 E0.21276
G1 X55.149 Y56.058 F7800.000
G1 X49.233 Y61.973 F3600.000 E0.18914
G1 X49.233 Y61.234 F7800.000
G1 X54.409 Y56.058 F3600.000 E0.16550
G1 X53.671 Y56.058 F7800.000
G1 X49.233 Y60.496 F3600.000 E0.14189
G1 X49.233 Y59.756 F7800.000
