; generated by Slic3r 1.0.0RC1 on 2014-01-12 at 13:22:06

; layer_height = 0.3
; perimeters = 3
; top_solid_layers = 3
; bottom_solid_layers = 3
; fill_density = 0.8
; perimeter_speed = 65
; infill_speed = 100
; travel_speed = 150
; nozzle_diameter = 0.5
; filament_diameter = 2.83
; extrusion_multiplier = .631
; perimeters extrusion width = 0.50mm
; infill extrusion width = 0.70mm
; solid infill extrusion width = 0.70mm
; top infill extrusion width = 0.70mm
; first layer extrusion width = 0.70mm

G21 ; set units to millimeters
M106 S0
M104 S200 ; set temperature
G28 ; home all axes
G1 Z5 F5000 ; lift nozzle
M104 S200 ; set temperature
M116 ; wait for temperature to be reached
G90 ; use absolute coordinates
M83 ; use relative distances for extrusion
G1 F1800.000 E-1.00000
G1 Z0.350 F9000.000
G1 X40.540 Y51.695 F9000.000
G1 E1.00000 F1800.000
G1 X41.800 Y51.015 E0.03303 F1170.000
G1 X43.170 Y50.605 E0.03299
G1 X44.600 Y50.465 E0.03315
G1 X95.400 Y50.465 E1.17197
G1 X96.830 Y50.605 E0.03315
G1 X98.200 Y51.015 E0.03299
G1 X99.460 Y51.695 E0.03303
G1 X100.570 Y52.605 E0.03311
G1 X101.480 Y53.715 E0.03311
G1 X102.160 Y54.975 E0.03303
G1 X102.570 Y56.345 E0.03299
G1 X102.710 Y57.775 E0.03315
G1 X102.710 Y102.225 E1.02547
G1 X102.570 Y103.655 E0.03315
G1 X102.160 Y105.025 E0.03299
G1 X101.480 Y106.285 E0.03303
G1 X100.570 Y107.395 E0.03311
G1 X99.460 Y108.305 E0.03311
G1 X98.200 Y108.985 E0.03303
G1 X96.830 Y109.395 E0.03299
G1 X95.400 Y109.535 E0.03315
G1 X44.600 Y109.535 E1.17197
G1 X43.170 Y109.395 E0.03315
G1 X41.800 Y108.985 E0.03299
G1 X40.540 Y108.305 E0.03303
G1 X39.430 Y107.395 E0.03311
G1 X38.520 Y106.285 E0.03311
G1 X37.840 Y105.025 E0.03303
G1 X37.430 Y103.655 E0.03299
G1 X37.290 Y102.225 E0.03315
G1 X37.290 Y57.775 E1.02547
G1 X37.430 Y56.345 E0.03315
G1 X37.840 Y54.975 E0.03299
G1 X38.520 Y53.715 E0.03303
G1 X39.430 Y52.605 E0.03311
G1 X40.464 Y51.757 E0.03084
G1 X40.900 Y52.235 F9000.000
G1 X42.050 Y51.625 E0.03003 F1170.000
G1 X43.300 Y51.245 E0.03014
G1 X44.600 Y51.115 E0.03014
G1 X95.400 Y51.115 E1.17197
G1 X96.700 Y51.245 E0.03014
G1 X97.950 Y51.625 E0.03014
G1 X99.100 Y52.235 E0.03003
G1 X100.110 Y53.065 E0.03016
G1 X100.940 Y54.075 E0.03016
G1 X101.550 Y55.225 E0.03003
G1 X101.930 Y56.475 E0.03014
G1 X102.060 Y57.775 E0.03014
G1 X102.060 Y102.225 E1.02547
G1 X101.930 Y103.525 E0.03014
G1 X101.550 Y104.775 E0.03014
G1 X100.940 Y105.925 E0.03003
G1 X100.110 Y106.935 E0.03016
G1 X99.100 Y107.765 E0.03016
G1 X97.950 Y108.375 E0.03003
G1 X96.700 Y108.755 E0.03014
G1 X95.400 Y108.885 E0.03014
G1 X44.600 Y108.885 E1.17197
G1 X43.300 Y108.755 E0.03014
G1 X42.050 Y108.375 E0.03014
G1 X40.900 Y107.765 E0.03003
G1 X39.890 Y106.935 E0.03016
G1 X39.060 Y105.925 E0.03016
G1 X38.450 Y104.775 E0.03003
G1 X38.070 Y103.525 E0.03014
G1 X37.940 Y102.225 E0.03014
G1 X37.940 Y57.775 E1.02547
G1 X38.070 Y56.475 E0.03014
G1 X38.450 Y55.225 E0.03014
G1 X39.060 Y54.075 E0.03003
G1 X39.890 Y53.065 E0.03016
G1 X40.824 Y52.298 E0.02789
G1 F1800.000 E-1.00000
G1 X46.264 Y59.439 F9000.000
G1 E1.00000 F1800.000
G1 X93.736 Y59.439 E1.09518 F1170.000
G1 X93.736 Y67.356 E0.18264
G1 X58.508 Y67.356 E0.81273
G1 X58.508 Y84.684 E0.39977
G1 X65.262 Y84.684 E0.15582
G1 X65.262 Y74.684 E0.23070
G1 X93.736 Y74.684 E0.65691
G1 X93.736 Y85.895 E0.25865
G1 X81.803 Y85.895 E0.27529
G1 X81.803 Y77.356 E0.19701
G1 X74.475 Y77.356 E0.16907
G1 X74.475 Y83.246 E0.13588
G1 X74.475 Y93.224 E0.23020
G1 X93.736 Y93.224 E0.44436
G1 X93.736 Y100.561 E0.16927
G1 X46.264 Y100.561 E1.09518
G1 X46.264 Y59.538 E0.94641
G1 X45.607 Y58.782 F9000.000
G1 X94.393 Y58.782 E1.12550 F1170.000
G1 X94.393 Y68.013 E0.21296
G1 X59.165 Y68.013 E0.81273
G1 X59.165 Y84.027 E0.36945
G1 X64.604 Y84.027 E0.12550
G1 X64.604 Y74.027 E0.23070
G1 X94.393 Y74.027 E0.68723
G1 X94.393 Y86.553 E0.28897
G1 X81.146 Y86.553 E0.30561
G1 X81.146 Y78.013 E0.19701
G1 X75.132 Y78.013 E0.13875
G1 X75.132 Y83.246 E0.12072
G1 X75.132 Y92.567 E0.21504
G1 X94.393 Y92.567 E0.44436
G1 X94.393 Y101.218 E0.19959
G1 X45.607 Y101.218 E1.12550
G1 X45.607 Y58.881 E0.97673
G1 X44.950 Y58.125 F9000.000
G1 X95.050 Y58.125 E1.15582 F1170.000
G1 X95.050 Y68.670 E0.24328
G1 X59.822 Y68.670 E0.81273
G1 X59.822 Y83.370 E0.33913
G1 X63.947 Y83.370 E0.09518
G1 X63.947 Y73.370 E0.23070
G1 X95.050 Y73.370 E0.71755
G1 X95.050 Y87.210 E0.31928
G1 X80.489 Y87.210 E0.33593
G1 X80.489 Y78.670 E0.19701
G1 X75.789 Y78.670 E0.10843
G1 X75.789 Y83.246 E0.10556
G1 X75.789 Y91.910 E0.19988
G1 X95.050 Y91.910 E0.44436
G1 X95.050 Y101.875 E0.22990
G1 X44.950 Y101.875 E1.15582
G1 X44.950 Y58.224 E1.00705
G1 X45.519 Y58.454 F9000.000
G1 X58.815 Y85.128 F9000.000
G1 X73.805 Y100.117 E0.49058 F1620.000
G1 X74.737 Y100.117 E0.02157
G1 X59.747 Y85.128 E0.49058
G1 X60.680 Y85.128 E0.02157
G1 X75.669 Y100.117 E0.49058
G1 X76.602 Y100.117 E0.02157
G1 X61.612 Y85.128 E0.49058
G1 X62.544 Y85.128 E0.02157
G1 X77.534 Y100.117 E0.49058
G1 X78.466 Y100.117 E0.02157
G1 X63.476 Y85.128 E0.49058
G1 X64.408 Y85.128 E0.02157
G1 X79.398 Y100.117 E0.49058
G1 X80.330 Y100.117 E0.02157
G1 X65.340 Y85.128 E0.49058
G1 X65.705 Y84.560 E0.01561
G1 X74.031 Y92.887 E0.27250
G1 X74.031 Y91.954 E0.02157
G1 X65.705 Y83.628 E0.27250
G1 X65.705 Y82.696 E0.02157
G1 X74.031 Y91.022 E0.27250
G1 X74.031 Y90.090 E0.02157
G1 X65.705 Y81.764 E0.27250
G1 X65.705 Y80.832 E0.02157
G1 X74.031 Y89.158 E0.27250
G1 X74.031 Y88.226 E0.02157
G1 X65.705 Y79.899 E0.27250
G1 X65.705 Y78.967 E0.02157
G1 X74.031 Y87.294 E0.27250
G1 X74.031 Y86.362 E0.02157
G1 X65.705 Y78.035 E0.27250
G1 X65.705 Y77.103 E0.02157
G1 X74.031 Y85.430 E0.27250
G1 X74.031 Y84.497 E0.02157
G1 X65.705 Y76.171 E0.27250
G1 X65.705 Y75.239 E0.02157
G1 X74.031 Y83.565 E0.27250
G1 X74.031 Y82.633 E0.02157
G1 X66.526 Y75.128 E0.24564
G1 X67.458 Y75.128 E0.02157
G1 X74.031 Y81.701 E0.21513
G1 X74.031 Y80.769 E0.02157
G1 X68.390 Y75.128 E0.18463
G1 X69.322 Y75.128 E0.02157
G1 X74.031 Y79.837 E0.15412
G1 X74.031 Y78.905 E0.02157
G1 X70.254 Y75.128 E0.12361
G1 X71.186 Y75.128 E0.02157
G1 X74.031 Y77.973 E0.09311
G1 X74.031 Y77.040 E0.02157
G1 X72.119 Y75.128 E0.06260
G1 X73.051 Y75.128 E0.02157
G1 X74.836 Y76.912 E0.05841
G1 X75.768 Y76.912 E0.02157
G1 X73.983 Y75.128 E0.05841
G1 X74.915 Y75.128 E0.02157
G1 X76.700 Y76.912 E0.05841
G1 X77.632 Y76.912 E0.02157
G1 X75.847 Y75.128 E0.05841
G1 X76.779 Y75.128 E0.02157
G1 X78.564 Y76.912 E0.05841
G1 X79.496 Y76.912 E0.02157
G1 X77.711 Y75.128 E0.05841
G1 X78.643 Y75.128 E0.02157
G1 X80.428 Y76.912 E0.05841
G1 X81.360 Y76.912 E0.02157
G1 X79.576 Y75.128 E0.05841
G1 X80.508 Y75.128 E0.02157
G1 X90.832 Y85.452 E0.33789
G1 X91.764 Y85.452 E0.02157
G1 X81.440 Y75.128 E0.33789
G1 X82.372 Y75.128 E0.02157
G1 X92.696 Y85.452 E0.33789
G1 X93.292 Y85.116 E0.01583
G1 X83.304 Y75.128 E0.32689
G1 X84.236 Y75.128 E0.02157
G1 X93.292 Y84.184 E0.29638
G1 X93.292 Y83.252 E0.02157
G1 X85.168 Y75.128 E0.26588
G1 X86.101 Y75.128 E0.02157
G1 X93.292 Y82.319 E0.23537
G1 X93.292 Y81.387 E0.02157
G1 X87.033 Y75.128 E0.20487
G1 X87.965 Y75.128 E0.02157
G1 X93.292 Y80.455 E0.17436
G1 X93.292 Y79.523 E0.02157
G1 X88.897 Y75.128 E0.14385
G1 X89.829 Y75.128 E0.02157
G1 X93.292 Y78.591 E0.11335
G1 X93.292 Y77.659 E0.02157
G1 X90.761 Y75.128 E0.08284
G1 X91.693 Y75.128 E0.02157
G1 X93.292 Y76.727 E0.05234
G1 X93.292 Y75.795 E0.02157
G1 X92.625 Y75.128 E0.02183
G1 X89.900 Y85.452 F9000.000
G1 X82.247 Y77.799 E0.25048 F1620.000
G1 X82.247 Y78.731 E0.02157
G1 X88.968 Y85.452 E0.21997
G1 X88.036 Y85.452 E0.02157
G1 X82.247 Y79.663 E0.18947
G1 X82.247 Y80.595 E0.02157
G1 X87.104 Y85.452 E0.15896
G1 X86.172 Y85.452 E0.02157
G1 X82.247 Y81.527 E0.12846
G1 X82.247 Y82.459 E0.02157
G1 X85.239 Y85.452 E0.09795
G1 X84.307 Y85.452 E0.02157
G1 X82.247 Y83.391 E0.06744
G1 X82.247 Y84.323 E0.02157
G1 X83.375 Y85.452 E0.03694
G1 X82.443 Y85.452 E0.02157
G1 X82.247 Y85.256 E0.00643
G1 F1800.000 E-1.00000
G1 X98.400 Y103.468 F9000.000
G1 X74.812 Y93.667 F9000.000
G1 E1.00000 F1800.000
G1 X81.262 Y100.117 E0.21110 F1620.000
G1 X82.194 Y100.117 E0.02157
G1 X75.744 Y93.667 E0.21110
G1 X76.676 Y93.667 E0.02157
G1 X83.127 Y100.117 E0.21110
G1 X84.059 Y100.117 E0.02157
G1 X77.608 Y93.667 E0.21110
G1 X78.541 Y93.667 E0.02157
G1 X84.991 Y100.117 E0.21110
G1 X85.923 Y100.117 E0.02157
G1 X79.473 Y93.667 E0.21110
G1 X80.405 Y93.667 E0.02157
G1 X86.855 Y100.117 E0.21110
G1 X87.787 Y100.117 E0.02157
G1 X81.337 Y93.667 E0.21110
G1 X82.269 Y93.667 E0.02157
G1 X88.719 Y100.117 E0.21110
G1 X89.651 Y100.117 E0.02157
G1 X83.201 Y93.667 E0.21110
G1 X84.133 Y93.667 E0.02157
G1 X90.584 Y100.117 E0.21110
G1 X91.516 Y100.117 E0.02157
G1 X85.065 Y93.667 E0.21110
G1 X85.998 Y93.667 E0.02157
G1 X92.448 Y100.117 E0.21110
G1 X93.292 Y100.030 E0.01965
G1 X86.930 Y93.667 E0.20824
G1 X87.862 Y93.667 E0.02157
G1 X93.292 Y99.098 E0.17773
G1 X93.292 Y98.166 E0.02157
G1 X88.794 Y93.667 E0.14722
G1 X89.726 Y93.667 E0.02157
G1 X93.292 Y97.234 E0.11672
G1 X93.292 Y96.301 E0.02157
G1 X90.658 Y93.667 E0.08621
G1 X91.590 Y93.667 E0.02157
G1 X93.292 Y95.369 E0.05571
G1 X93.292 Y94.437 E0.02157
G1 X92.522 Y93.667 E0.02520
G1 F1800.000 E-1.00000
G1 X94.900 Y92.060 F9000.000
G1 X93.292 Y59.948 F9000.000
G1 E1.00000 F1800.000
G1 X93.227 Y59.883 E0.00215 F1620.000
G1 X92.294 Y59.883 E0.02157
G1 X93.292 Y60.881 E0.03266
G1 X93.292 Y61.813 E0.02157
G1 X91.362 Y59.883 E0.06317
G1 X90.430 Y59.883 E0.02157
G1 X93.292 Y62.745 E0.09367
G1 X93.292 Y63.677 E0.02157
G1 X89.498 Y59.883 E0.12418
G1 X88.566 Y59.883 E0.02157
G1 X93.292 Y64.609 E0.15468
G1 X93.292 Y65.541 E0.02157
G1 X87.634 Y59.883 E0.18519
G1 X86.702 Y59.883 E0.02157
G1 X93.292 Y66.473 E0.21570
G1 X92.799 Y66.912 E0.01528
G1 X85.770 Y59.883 E0.23007
G1 X84.837 Y59.883 E0.02157
G1 X91.867 Y66.912 E0.23007
G1 X90.935 Y66.912 E0.02157
G1 X83.905 Y59.883 E0.23007
G1 X82.973 Y59.883 E0.02157
G1 X90.003 Y66.912 E0.23007
G1 X89.071 Y66.912 E0.02157
G1 X82.041 Y59.883 E0.23007
G1 X81.109 Y59.883 E0.02157
G1 X88.139 Y66.912 E0.23007
G1 X87.207 Y66.912 E0.02157
G1 X80.177 Y59.883 E0.23007
G1 X79.245 Y59.883 E0.02157
G1 X86.275 Y66.912 E0.23007
G1 X85.342 Y66.912 E0.02157
G1 X78.313 Y59.883 E0.23007
G1 X77.380 Y59.883 E0.02157
G1 X84.410 Y66.912 E0.23007
G1 X83.478 Y66.912 E0.02157
G1 X76.448 Y59.883 E0.23007
G1 X75.516 Y59.883 E0.02157
G1 X82.546 Y66.912 E0.23007
G1 X81.614 Y66.912 E0.02157
G1 X74.584 Y59.883 E0.23007
G1 X73.652 Y59.883 E0.02157
G1 X80.682 Y66.912 E0.23007
G1 X79.750 Y66.912 E0.02157
G1 X72.720 Y59.883 E0.23007
G1 X71.788 Y59.883 E0.02157
G1 X78.818 Y66.912 E0.23007
G1 X77.885 Y66.912 E0.02157
G1 X70.856 Y59.883 E0.23007
G1 X69.923 Y59.883 E0.02157
G1 X76.953 Y66.912 E0.23007
G1 X76.021 Y66.912 E0.02157
G1 X68.991 Y59.883 E0.23007
G1 X68.059 Y59.883 E0.02157
G1 X75.089 Y66.912 E0.23007
G1 X74.157 Y66.912 E0.02157
G1 X67.127 Y59.883 E0.23007
G1 X66.195 Y59.883 E0.02157
G1 X73.225 Y66.912 E0.23007
G1 X72.293 Y66.912 E0.02157
G1 X65.263 Y59.883 E0.23007
G1 X64.331 Y59.883 E0.02157
G1 X71.360 Y66.912 E0.23007
G1 X70.428 Y66.912 E0.02157
G1 X63.398 Y59.883 E0.23007
G1 X62.466 Y59.883 E0.02157
G1 X69.496 Y66.912 E0.23007
G1 X68.564 Y66.912 E0.02157
G1 X61.534 Y59.883 E0.23007
G1 X60.602 Y59.883 E0.02157
G1 X67.632 Y66.912 E0.23007
G1 X66.700 Y66.912 E0.02157
G1 X59.670 Y59.883 E0.23007
G1 X58.738 Y59.883 E0.02157
G1 X65.768 Y66.912 E0.23007
G1 X64.836 Y66.912 E0.02157
G1 X57.806 Y59.883 E0.23007
G1 X56.874 Y59.883 E0.02157
G1 X63.903 Y66.912 E0.23007
G1 X62.971 Y66.912 E0.02157
G1 X55.941 Y59.883 E0.23007
G1 X55.009 Y59.883 E0.02157
G1 X62.039 Y66.912 E0.23007
G1 X61.107 Y66.912 E0.02157
G1 X54.077 Y59.883 E0.23007
G1 X53.145 Y59.883 E0.02157
G1 X60.175 Y66.912 E0.23007
G1 X59.243 Y66.912 E0.02157
G1 X52.213 Y59.883 E0.23007
G1 X51.281 Y59.883 E0.02157
G1 X58.311 Y66.912 E0.23007
G1 X58.064 Y67.598 E0.01686
G1 X50.349 Y59.883 E0.25251
G1 X49.417 Y59.883 E0.02157
G1 X58.064 Y68.530 E0.28301
G1 X58.064 Y69.462 E0.02157
G1 X48.484 Y59.883 E0.31352
G1 X47.552 Y59.883 E0.02157
G1 X58.064 Y70.394 E0.34403
G1 X58.064 Y71.327 E0.02157
G1 X46.708 Y59.970 E0.37167
G1 X46.708 Y60.902 E0.02157
G1 X58.064 Y72.259 E0.37167
G1 X58.064 Y73.191 E0.02157
G1 X46.708 Y61.834 E0.37167
G1 X46.708 Y62.766 E0.02157
G1 X58.064 Y74.123 E0.37167
G1 X58.064 Y75.055 E0.02157
G1 X46.708 Y63.698 E0.37167
G1 X46.708 Y64.631 E0.02157
G1 X58.064 Y75.987 E0.37167
G1 X58.064 Y76.919 E0.02157
G1 X46.708 Y65.563 E0.37167
G1 X46.708 Y66.495 E0.02157
G1 X58.064 Y77.851 E0.37167
G1 X58.064 Y78.784 E0.02157
G1 X46.708 Y67.427 E0.37167
G1 X46.708 Y68.359 E0.02157
G1 X58.064 Y79.716 E0.37167
G1 X58.064 Y80.648 E0.02157
G1 X46.708 Y69.291 E0.37167
G1 X46.708 Y70.223 E0.02157
G1 X58.064 Y81.580 E0.37167
G1 X58.064 Y82.512 E0.02157
G1 X46.708 Y71.156 E0.37167
G1 X46.708 Y72.088 E0.02157
G1 X58.064 Y83.444 E0.37167
G1 X58.064 Y84.376 E0.02157
G1 X46.708 Y73.020 E0.37167
G1 X46.708 Y73.952 E0.02157
G1 X72.873 Y100.117 E0.85633
G1 X71.941 Y100.117 E0.02157
G1 X46.708 Y74.884 E0.82582
G1 X46.708 Y75.816 E0.02157
G1 X71.009 Y100.117 E0.79532
G1 X70.077 Y100.117 E0.02157
G1 X46.708 Y76.748 E0.76481
G1 X46.708 Y77.680 E0.02157
G1 X69.145 Y100.117 E0.73430
G1 X68.212 Y100.117 E0.02157
G1 X46.708 Y78.613 E0.70380
G1 X46.708 Y79.545 E0.02157
G1 X67.280 Y100.117 E0.67329
G1 X66.348 Y100.117 E0.02157
G1 X46.708 Y80.477 E0.64279
G1 X46.708 Y81.409 E0.02157
G1 X65.416 Y100.117 E0.61228
G1 X64.484 Y100.117 E0.02157
G1 X46.708 Y82.341 E0.58177
G1 X46.708 Y83.273 E0.02157
G1 X63.552 Y100.117 E0.55127
G1 X62.620 Y100.117 E0.02157
G1 X46.708 Y84.205 E0.52076
G1 X46.708 Y85.137 E0.02157
G1 X61.688 Y100.117 E0.49025
G1 X60.755 Y100.117 E0.02157
G1 X46.708 Y86.070 E0.45975
G1 X46.708 Y87.002 E0.02157
G1 X59.823 Y100.117 E0.42924
G1 X58.891 Y100.117 E0.02157
G1 X46.708 Y87.934 E0.39874
G1 X46.708 Y88.866 E0.02157
G1 X57.959 Y100.117 E0.36823
G1 X57.027 Y100.117 E0.02157
G1 X46.708 Y89.798 E0.33772
G1 X46.708 Y90.730 E0.02157
G1 X56.095 Y100.117 E0.30722
G1 X55.163 Y100.117 E0.02157
G1 X46.708 Y91.662 E0.27671
G1 X46.708 Y92.594 E0.02157
G1 X54.231 Y100.117 E0.24621
G1 X53.298 Y100.117 E0.02157
G1 X46.708 Y93.527 E0.21570
G1 X46.708 Y94.459 E0.02157
G1 X52.366 Y100.117 E0.18519
G1 X51.434 Y100.117 E0.02157
G1 X46.708 Y95.391 E0.15469
G1 X46.708 Y96.323 E0.02157
G1 X50.502 Y100.117 E0.12418
G1 X49.570 Y100.117 E0.02157
G1 X46.708 Y97.255 E0.09368
G1 X46.708 Y98.187 E0.02157
G1 X48.638 Y100.117 E0.06317
G1 X47.706 Y100.117 E0.02157
G1 X46.708 Y99.119 E0.03266
G1 X46.708 Y100.052 E0.02157
G1 X46.773 Y100.117 E0.00216
M106 S193
M104 S190 ; set temperature
G1 F1800.000 E-1.00000
G1 Z0.650 F9000.000
G1 X45.850 Y100.975 F9000.000
G1 E1.00000 F1800.000
G1 X45.850 Y59.025 E0.63123 F3900
G1 X94.150 Y59.025 E0.72678
G1 X94.150 Y67.770 E0.13159
G1 X58.922 Y67.770 E0.53009
G1 X58.922 Y84.270 E0.24828
G1 X64.847 Y84.270 E0.08917
G1 X64.847 Y74.270 E0.15047
G1 X94.150 Y74.270 E0.44092
G1 X94.150 Y86.310 E0.18116
G1 X81.389 Y86.310 E0.19202
G1 X81.389 Y77.770 E0.12850
G1 X74.889 Y77.770 E0.09781
G1 X74.889 Y83.164 E0.08116
G1 X74.889 Y92.810 E0.14514
G1 X94.150 Y92.810 E0.28983
G1 X94.150 Y100.975 E0.12287
G1 X45.925 Y100.975 E0.72565
G1 X45.350 Y101.475 F9000.000
G1 X45.350 Y58.525 E0.64628 F3900
G1 X94.650 Y58.525 E0.74183
G1 X94.650 Y68.270 E0.14664
G1 X59.422 Y68.270 E0.53009
G1 X59.422 Y83.770 E0.23323
G1 X64.347 Y83.770 E0.07412
G1 X64.347 Y73.770 E0.15047
G1 X94.650 Y73.770 E0.45597
G1 X94.650 Y86.810 E0.19621
G1 X80.889 Y86.810 E0.20707
G1 X80.889 Y78.270 E0.12850
G1 X75.389 Y78.270 E0.08276
G1 X75.389 Y83.164 E0.07364
G1 X75.389 Y92.310 E0.13762
G1 X94.650 Y92.310 E0.28983
G1 X94.650 Y101.475 E0.13791
G1 X45.425 Y101.475 E0.74070
G1 X44.850 Y101.975 F9000.000
G1 X44.850 Y58.025 E0.66133 F3900
G1 X95.150 Y58.025 E0.75688
G1 X95.150 Y68.770 E0.16168
G1 X59.922 Y68.770 E0.53009
G1 X59.922 Y83.270 E0.21819
G1 X63.847 Y83.270 E0.05907
G1 X63.847 Y73.270 E0.15047
G1 X95.150 Y73.270 E0.47102
G1 X95.150 Y87.310 E0.21126
G1 X80.389 Y87.310 E0.22211
G1 X80.389 Y78.770 E0.12850
G1 X75.889 Y78.770 E0.06771
G1 X75.889 Y83.164 E0.06612
G1 X75.889 Y91.810 E0.13009
