; generated by Slic3r 1.0.0RC1 on 2014-03-03 at 23:37:38

; layer_height = 0.3
; perimeters = 3
; top_solid_layers = 5
; bottom_solid_layers = 3
; fill_density = .3
; perimeter_speed = 75
; infill_speed = 90
; travel_speed = 150
; nozzle_diameter = 0.5
; filament_diameter = 2.83
; extrusion_multiplier = .631
; perimeters extrusion width = 0.50mm
; infill extrusion width = 0.70mm
; solid infill extrusion width = 0.70mm
; top infill extrusion width = 0.70mm
; first layer extrusion width = 0.70mm

G21 ; set units to millimeters
M106 S0
M104 S200 ; set temperature
G28 ; home all axes
G1 Z5 F5000 ; lift nozzle
M104 S200 ; set temperature
M116 ; wait for temperature to be reached
G90 ; use absolute coordinates
M83 ; use relative distances for extrusion
G1 F1800.000 E-1.00000
G1 Z0.350 F9000.000
G1 X40.420 Y51.470 F9000.000
G1 E1.00000 F1800.000
G1 X41.050 Y51.010 E0.01800 F1350.000
G1 X41.720 Y50.620 E0.01789
G1 X41.890 Y50.530 E0.00444
G1 X43.100 Y50.010 E0.03038
G1 X44.330 Y49.680 E0.02938
G1 X45.600 Y49.540 E0.02948
G1 X94.000 Y49.530 E1.11660
G1 X94.620 Y49.550 E0.01431
G1 X95.610 Y49.670 E0.02301
G1 X96.770 Y49.970 E0.02764
G1 X97.930 Y50.440 E0.02887
G1 X98.980 Y51.030 E0.02779
G1 X99.770 Y51.640 E0.02303
G1 X100.430 Y52.240 E0.02058
G1 X101.020 Y52.920 E0.02077
G1 X101.480 Y53.550 E0.01800
G1 X101.960 Y54.390 E0.02232
G1 X102.480 Y55.600 E0.03038
G1 X102.540 Y55.780 E0.00438
G1 X102.770 Y56.630 E0.02031
G1 X102.930 Y57.710 E0.02519
G1 X102.970 Y58.500 E0.01825
G1 X102.960 Y101.600 E0.99433
G1 X102.900 Y102.570 E0.02242
G1 X102.720 Y103.520 E0.02231
G1 X102.400 Y104.640 E0.02687
G1 X101.960 Y105.610 E0.02457
G1 X101.460 Y106.480 E0.02315
G1 X100.850 Y107.270 E0.02303
G1 X100.250 Y107.930 E0.02058
G1 X99.570 Y108.520 E0.02077
G1 X98.940 Y108.980 E0.01800
G1 X98.100 Y109.460 E0.02232
G1 X96.890 Y109.980 E0.03038
G1 X95.880 Y110.270 E0.02424
G1 X95.020 Y110.410 E0.02010
G1 X94.000 Y110.470 E0.02357
G1 X46.000 Y110.470 E1.10737
G1 X45.170 Y110.430 E0.01917
G1 X44.180 Y110.280 E0.02310
G1 X43.220 Y110.020 E0.02295
G1 X42.060 Y109.550 E0.02887
G1 X41.010 Y108.960 E0.02779
G1 X40.220 Y108.350 E0.02303
G1 X39.560 Y107.750 E0.02058
G1 X38.970 Y107.070 E0.02077
G1 X38.510 Y106.440 E0.01800
G1 X38.030 Y105.600 E0.02232
G1 X37.510 Y104.390 E0.03038
G1 X37.450 Y104.210 E0.00438
G1 X37.180 Y103.170 E0.02479
G1 X37.040 Y101.920 E0.02902
G1 X37.030 Y58.500 E1.00171
G1 X37.050 Y57.890 E0.01408
G1 X37.170 Y56.890 E0.02324
G1 X37.470 Y55.720 E0.02787
G1 X37.940 Y54.560 E0.02887
G1 X38.530 Y53.510 E0.02779
G1 X39.140 Y52.720 E0.02303
G1 X39.740 Y52.060 E0.02058
G1 X40.344 Y51.532 E0.01850
G1 X40.840 Y51.980 F9000.000
G1 X41.410 Y51.560 E0.01633 F1350.000
G1 X42.030 Y51.200 E0.01654
G1 X42.200 Y51.110 E0.00444
G1 X43.310 Y50.630 E0.02790
G1 X44.450 Y50.320 E0.02726
G1 X45.630 Y50.190 E0.02739
G1 X94.000 Y50.190 E1.11591
G1 X94.590 Y50.210 E0.01362
G1 X95.490 Y50.310 E0.02089
G1 X96.570 Y50.600 E0.02580
G1 X97.640 Y51.030 E0.02660
G1 X97.820 Y51.120 E0.00464
G1 X98.610 Y51.580 E0.02109
G1 X99.490 Y52.260 E0.02566
G1 X99.950 Y52.700 E0.01469
G1 X100.510 Y53.340 E0.01962
G1 X100.930 Y53.910 E0.01633
G1 X101.380 Y54.700 E0.02097
G1 X101.860 Y55.810 E0.02790
G1 X102.130 Y56.770 E0.02301
G1 X102.260 Y57.570 E0.01870
G1 X102.310 Y58.500 E0.02149
G1 X102.300 Y101.600 E0.99433
G1 X102.250 Y102.490 E0.02056
G1 X102.090 Y103.360 E0.02041
G1 X101.780 Y104.410 E0.02526
G1 X101.370 Y105.320 E0.02303
G1 X100.910 Y106.110 E0.02109
G1 X100.230 Y106.990 E0.02566
G1 X99.790 Y107.450 E0.01469
G1 X99.150 Y108.010 E0.01962
G1 X98.580 Y108.430 E0.01633
G1 X97.790 Y108.880 E0.02097
G1 X96.680 Y109.360 E0.02790
G1 X95.740 Y109.630 E0.02256
G1 X94.770 Y109.770 E0.02261
G1 X94.000 Y109.810 E0.01779
G1 X46.000 Y109.810 E1.10737
G1 X45.230 Y109.770 E0.01779
G1 X44.320 Y109.640 E0.02121
G1 X43.420 Y109.390 E0.02155
G1 X42.350 Y108.960 E0.02660
G1 X42.170 Y108.870 E0.00464
G1 X41.380 Y108.410 E0.02109
G1 X40.500 Y107.730 E0.02566
G1 X40.040 Y107.290 E0.01469
G1 X39.480 Y106.650 E0.01962
G1 X39.060 Y106.080 E0.01633
G1 X38.610 Y105.290 E0.02097
G1 X38.130 Y104.180 E0.02790
G1 X38.070 Y104.000 E0.00438
G1 X37.820 Y103.050 E0.02266
G1 X37.710 Y102.070 E0.02275
G1 X37.690 Y101.500 E0.01316
G1 X37.690 Y58.500 E0.99202
G1 X37.710 Y57.930 E0.01316
G1 X37.810 Y57.010 E0.02135
G1 X38.100 Y55.920 E0.02602
G1 X38.530 Y54.850 E0.02660
G1 X39.080 Y53.880 E0.02573
G1 X39.630 Y53.150 E0.02109
G1 X40.200 Y52.540 E0.01926
G1 X40.764 Y52.042 E0.01735
G1 X41.250 Y52.490 F9000.000
G1 X41.780 Y52.110 E0.01505 F1350.000
G1 X42.340 Y51.780 E0.01500
G1 X43.510 Y51.250 E0.02963
G1 X44.570 Y50.970 E0.02529
G1 X45.670 Y50.850 E0.02553
G1 X94.000 Y50.840 E1.11499
G1 X94.550 Y50.860 E0.01270
G1 X95.380 Y50.960 E0.01929
G1 X96.370 Y51.220 E0.02361
G1 X97.350 Y51.620 E0.02442
G1 X98.250 Y52.120 E0.02375
G1 X99.060 Y52.760 E0.02382
G1 X99.480 Y53.160 E0.01338
G1 X100.000 Y53.750 E0.01814
G1 X100.380 Y54.280 E0.01505
G1 X100.800 Y55.010 E0.01943
G1 X101.240 Y56.010 E0.02520
G1 X101.490 Y56.910 E0.02155
G1 X101.600 Y57.640 E0.01703
G1 X101.660 Y58.500 E0.01989
G1 X101.650 Y101.600 E0.99433
G1 X101.600 Y102.410 E0.01872
G1 X101.450 Y103.200 E0.01855
G1 X101.160 Y104.180 E0.02358
G1 X100.780 Y105.030 E0.02148
G1 X100.370 Y105.750 E0.01911
G1 X99.730 Y106.560 E0.02382
G1 X99.330 Y106.980 E0.01338
G1 X98.740 Y107.500 E0.01814
G1 X98.210 Y107.880 E0.01505
G1 X97.480 Y108.300 E0.01943
G1 X96.480 Y108.740 E0.02520
G1 X95.600 Y108.990 E0.02111
G1 X94.890 Y109.100 E0.01658
G1 X94.000 Y109.160 E0.02058
G1 X46.000 Y109.160 E1.10737
G1 X45.300 Y109.120 E0.01618
G1 X44.450 Y109.000 E0.01980
G1 X43.620 Y108.770 E0.01987
G1 X42.640 Y108.370 E0.02442
G1 X41.740 Y107.870 E0.02375
G1 X40.930 Y107.230 E0.02382
G1 X40.510 Y106.830 E0.01338
G1 X39.990 Y106.240 E0.01814
G1 X39.610 Y105.710 E0.01505
G1 X39.190 Y104.980 E0.01943
G1 X38.750 Y103.980 E0.02520
G1 X38.690 Y103.800 E0.00438
G1 X38.470 Y102.930 E0.02070
G1 X38.360 Y102.040 E0.02069
G1 X38.340 Y101.500 E0.01247
G1 X38.340 Y58.500 E0.99202
G1 X38.360 Y57.960 E0.01247
G1 X38.460 Y57.120 E0.01952
G1 X38.720 Y56.120 E0.02384
G1 X39.120 Y55.140 E0.02442
G1 X39.620 Y54.240 E0.02375
G1 X40.130 Y53.580 E0.01924
G1 X40.660 Y53.010 E0.01796
G1 X41.174 Y52.552 E0.01587
G1 F1800.000 E-1.00000
G1 X46.664 Y59.164 F9000.000
G1 E1.00000 F1800.000
G1 X93.336 Y59.164 E1.07673 F1350.000
G1 X93.336 Y66.211 E0.16257
G1 X55.211 Y66.211 E0.87955
G1 X55.211 Y83.789 E0.40554
G1 X62.789 Y83.789 E0.17483
G1 X62.789 Y73.789 E0.23070
G1 X93.336 Y73.789 E0.70472
G1 X93.336 Y86.211 E0.28657
G1 X84.789 Y86.211 E0.19717
G1 X84.789 Y76.211 E0.23070
G1 X77.211 Y76.211 E0.17483
G1 X77.211 Y93.789 E0.40554
G1 X93.336 Y93.789 E0.37201
G1 X93.336 Y100.836 E0.16257
G1 X46.664 Y100.836 E1.07673
G1 X46.664 Y59.263 E0.95910
G1 X46.007 Y58.507 F9000.000
G1 X93.993 Y58.507 E1.10705 F1350.000
G1 X93.993 Y66.868 E0.19289
G1 X55.868 Y66.868 E0.87955
G1 X55.868 Y83.132 E0.37522
G1 X62.132 Y83.132 E0.14452
G1 X62.132 Y73.132 E0.23070
G1 X93.993 Y73.132 E0.73504
G1 X93.993 Y86.868 E0.31689
G1 X84.132 Y86.868 E0.22749
G1 X84.132 Y76.868 E0.23070
G1 X77.868 Y76.868 E0.14452
G1 X77.868 Y93.132 E0.37522
G1 X93.993 Y93.132 E0.37201
G1 X93.993 Y101.493 E0.19289
G1 X46.007 Y101.493 E1.10705
G1 X46.007 Y58.606 E0.98942
G1 X45.350 Y58.516 F9000.000
G1 X45.363 Y58.377 E0.00322 F1350.000
G1 X45.399 Y58.256 E0.00293
G1 X45.460 Y58.142 E0.00297
G1 X45.542 Y58.041 E0.00300
G1 X45.645 Y57.957 E0.00307
G1 X45.760 Y57.898 E0.00298
G1 X46.018 Y57.850 E0.00605
G1 X93.984 Y57.850 E1.10660
G1 X94.123 Y57.863 E0.00322
G1 X94.244 Y57.899 E0.00293
G1 X94.358 Y57.960 E0.00297
G1 X94.459 Y58.042 E0.00300
G1 X94.543 Y58.145 E0.00307
G1 X94.602 Y58.260 E0.00298
G1 X94.650 Y58.518 E0.00605
G1 X94.650 Y67.525 E0.20780
G1 X56.525 Y67.525 E0.87955
G1 X56.525 Y82.475 E0.34490
G1 X61.475 Y82.475 E0.11420
G1 X61.475 Y72.475 E0.23070
G1 X94.650 Y72.475 E0.76536
G1 X94.650 Y87.525 E0.34721
G1 X83.475 Y87.525 E0.25781
G1 X83.475 Y77.525 E0.23070
G1 X78.525 Y77.525 E0.11420
G1 X78.525 Y92.475 E0.34490
G1 X94.650 Y92.475 E0.37201
G1 X94.650 Y101.484 E0.20784
G1 X94.637 Y101.623 E0.00322
G1 X94.601 Y101.744 E0.00293
G1 X94.540 Y101.858 E0.00297
G1 X94.458 Y101.959 E0.00300
G1 X94.355 Y102.043 E0.00307
G1 X94.240 Y102.102 E0.00298
G1 X93.982 Y102.150 E0.00605
G1 X46.016 Y102.150 E1.10660
G1 X45.877 Y102.137 E0.00322
G1 X45.756 Y102.101 E0.00293
G1 X45.642 Y102.040 E0.00297
G1 X45.541 Y101.958 E0.00300
G1 X45.457 Y101.855 E0.00307
G1 X45.398 Y101.740 E0.00298
G1 X45.350 Y101.482 E0.00605
G1 X45.350 Y58.615 E0.98897
G1 X45.475 Y58.454 F9000.000
G1 X56.109 Y84.233 F9000.000
G1 X72.268 Y100.392 E0.52734 F1530.000
G1 X73.198 Y100.392 E0.02145
G1 X57.038 Y84.233 E0.52734
G1 X57.967 Y84.233 E0.02145
G1 X74.127 Y100.392 E0.52734
G1 X75.057 Y100.392 E0.02145
G1 X58.897 Y84.233 E0.52734
G1 X59.826 Y84.233 E0.02145
G1 X75.986 Y100.392 E0.52734
G1 X76.915 Y100.392 E0.02145
G1 X60.756 Y84.233 E0.52734
G1 X61.685 Y84.233 E0.02145
G1 X77.845 Y100.392 E0.52734
G1 X78.774 Y100.392 E0.02145
G1 X62.615 Y84.233 E0.52734
G1 X63.233 Y83.921 E0.01597
G1 X79.704 Y100.392 E0.53750
G1 X80.633 Y100.392 E0.02145
G1 X63.233 Y82.992 E0.56783
G1 X63.233 Y82.062 E0.02145
G1 X81.563 Y100.392 E0.59816
G1 X82.492 Y100.392 E0.02145
G1 X63.233 Y81.133 E0.62849
G1 X83.891 Y75.767 F9000.000
G1 X82.357 Y74.233 E0.05008 F1530.000
G1 X81.427 Y74.233 E0.02145
G1 X82.962 Y75.767 E0.05008
G1 X82.033 Y75.767 E0.02145
G1 X80.498 Y74.233 E0.05008
G1 X79.568 Y74.233 E0.02145
G1 X81.103 Y75.767 E0.05008
G1 X80.174 Y75.767 E0.02145
G1 X78.639 Y74.233 E0.05008
G1 X77.710 Y74.233 E0.02145
G1 X79.244 Y75.767 E0.05008
G1 X78.315 Y75.767 E0.02145
G1 X76.780 Y74.233 E0.05008
G1 X75.851 Y74.233 E0.02145
G1 X77.385 Y75.767 E0.05008
G1 X76.767 Y76.079 E0.01597
G1 X74.921 Y74.233 E0.06024
G1 X73.992 Y74.233 E0.02145
G1 X76.767 Y77.008 E0.09057
G1 X76.767 Y77.938 E0.02145
G1 X73.062 Y74.233 E0.12090
G1 X72.133 Y74.233 E0.02145
G1 X76.767 Y78.867 E0.15123
G1 X76.767 Y79.796 E0.02145
G1 X71.204 Y74.233 E0.18156
G1 X70.274 Y74.233 E0.02145
G1 X76.767 Y80.726 E0.21189
G1 X76.767 Y81.655 E0.02145
G1 X69.345 Y74.233 E0.24223
G1 X68.415 Y74.233 E0.02145
G1 X76.767 Y82.585 E0.27256
G1 X76.767 Y83.514 E0.02145
G1 X67.486 Y74.233 E0.30289
G1 X66.556 Y74.233 E0.02145
G1 X76.767 Y84.444 E0.33322
G1 X76.767 Y85.373 E0.02145
G1 X65.627 Y74.233 E0.36355
G1 X64.697 Y74.233 E0.02145
G1 X76.767 Y86.303 E0.39388
G1 X76.767 Y87.232 E0.02145
G1 X63.768 Y74.233 E0.42421
G1 X63.233 Y74.627 E0.01534
G1 X76.767 Y88.161 E0.44168
G1 X76.767 Y89.091 E0.02145
G1 X63.233 Y75.556 E0.44168
G1 X63.233 Y76.486 E0.02145
G1 X76.767 Y90.020 E0.44168
G1 X76.767 Y90.950 E0.02145
G1 X63.233 Y77.415 E0.44168
G1 X63.233 Y78.345 E0.02145
G1 X76.767 Y91.879 E0.44168
G1 X76.767 Y92.809 E0.02145
G1 X63.233 Y79.274 E0.44168
G1 X63.233 Y80.203 E0.02145
G1 X83.422 Y100.392 E0.65882
G1 X84.351 Y100.392 E0.02145
G1 X78.191 Y94.233 E0.20101
G1 X79.121 Y94.233 E0.02145
G1 X85.280 Y100.392 E0.20101
G1 X86.210 Y100.392 E0.02145
G1 X80.050 Y94.233 E0.20101
G1 X80.980 Y94.233 E0.02145
G1 X87.139 Y100.392 E0.20101
G1 X88.069 Y100.392 E0.02145
G1 X81.909 Y94.233 E0.20101
G1 X82.839 Y94.233 E0.02145
G1 X88.998 Y100.392 E0.20101
G1 X89.928 Y100.392 E0.02145
G1 X83.768 Y94.233 E0.20101
G1 X84.697 Y94.233 E0.02145
G1 X90.857 Y100.392 E0.20101
G1 X92.133 Y94.233 F9000.000
G1 X92.892 Y94.992 E0.02478 F1530.000
G1 X92.892 Y95.921 E0.02145
G1 X91.204 Y94.233 E0.05511
G1 X90.274 Y94.233 E0.02145
G1 X92.892 Y96.851 E0.08544
G1 X92.892 Y97.780 E0.02145
G1 X89.345 Y94.233 E0.11577
G1 X88.415 Y94.233 E0.02145
G1 X92.892 Y98.710 E0.14610
G1 X92.892 Y99.639 E0.02145
G1 X87.486 Y94.233 E0.17643
G1 X86.556 Y94.233 E0.02145
G1 X92.716 Y100.392 E0.20101
G1 X91.787 Y100.392 E0.02145
G1 X85.627 Y94.233 E0.20101
G1 F1800.000 E-1.00000
G1 X85.527 Y85.767 F9000.000
G1 E1.00000 F1800.000
G1 X85.233 Y85.473 E0.00959 F1530.000
G1 X85.233 Y84.544 E0.02145
G1 X86.456 Y85.767 E0.03992
G1 X87.385 Y85.767 E0.02145
G1 X85.233 Y83.615 E0.07025
G1 X85.233 Y82.685 E0.02145
G1 X88.315 Y85.767 E0.10058
G1 X89.244 Y85.767 E0.02145
G1 X85.233 Y81.756 E0.13091
G1 X85.233 Y80.826 E0.02145
G1 X90.174 Y85.767 E0.16124
G1 X91.103 Y85.767 E0.02145
G1 X85.233 Y79.897 E0.19157
G1 X85.233 Y78.967 E0.02145
G1 X92.033 Y85.767 E0.22190
G1 X92.892 Y85.698 E0.01990
G1 X85.233 Y78.038 E0.24996
G1 X85.233 Y77.109 E0.02145
G1 X92.892 Y84.768 E0.24996
G1 X92.892 Y83.839 E0.02145
G1 X83.286 Y74.233 E0.31348
G1 X84.216 Y74.233 E0.02145
G1 X92.892 Y82.909 E0.28315
G1 X92.892 Y81.980 E0.02145
G1 X85.145 Y74.233 E0.25281
G1 X86.075 Y74.233 E0.02145
G1 X92.892 Y81.050 E0.22248
G1 X92.892 Y80.121 E0.02145
G1 X87.004 Y74.233 E0.19215
G1 X87.933 Y74.233 E0.02145
G1 X92.892 Y79.192 E0.16182
G1 X92.892 Y78.262 E0.02145
G1 X88.863 Y74.233 E0.13149
G1 X89.792 Y74.233 E0.02145
G1 X92.892 Y77.333 E0.10116
G1 X92.892 Y76.403 E0.02145
G1 X90.722 Y74.233 E0.07083
G1 X91.651 Y74.233 E0.02145
G1 X92.892 Y75.474 E0.04050
G1 X92.892 Y74.544 E0.02145
G1 X92.581 Y74.233 E0.01017
G1 F1800.000 E-1.00000
G1 X92.892 Y59.673 F9000.000
G1 E1.00000 F1800.000
G1 X92.827 Y59.608 E0.00214 F1530.000
G1 X91.897 Y59.608 E0.02145
G1 X92.892 Y60.603 E0.03247
G1 X92.892 Y61.532 E0.02145
G1 X90.968 Y59.608 E0.06280
G1 X90.038 Y59.608 E0.02145
G1 X92.892 Y62.462 E0.09313
G1 X92.892 Y63.391 E0.02145
G1 X89.109 Y59.608 E0.12346
G1 X88.179 Y59.608 E0.02145
G1 X92.892 Y64.321 E0.15379
G1 X92.892 Y65.250 E0.02145
G1 X87.250 Y59.608 E0.18412
G1 X86.321 Y59.608 E0.02145
G1 X92.480 Y65.767 E0.20101
G1 X91.551 Y65.767 E0.02145
G1 X85.391 Y59.608 E0.20101
G1 X84.462 Y59.608 E0.02145
G1 X90.621 Y65.767 E0.20101
G1 X89.692 Y65.767 E0.02145
G1 X83.532 Y59.608 E0.20101
G1 X82.603 Y59.608 E0.02145
G1 X88.763 Y65.767 E0.20101
G1 X87.833 Y65.767 E0.02145
G1 X81.673 Y59.608 E0.20101
G1 X80.744 Y59.608 E0.02145
G1 X86.904 Y65.767 E0.20101
G1 X85.974 Y65.767 E0.02145
G1 X79.815 Y59.608 E0.20101
G1 X78.885 Y59.608 E0.02145
G1 X85.045 Y65.767 E0.20101
G1 X84.115 Y65.767 E0.02145
G1 X77.956 Y59.608 E0.20101
G1 X77.026 Y59.608 E0.02145
G1 X83.186 Y65.767 E0.20101
G1 X82.256 Y65.767 E0.02145
G1 X76.097 Y59.608 E0.20101
G1 X75.167 Y59.608 E0.02145
G1 X81.327 Y65.767 E0.20101
G1 X80.398 Y65.767 E0.02145
G1 X74.238 Y59.608 E0.20101
G1 X73.308 Y59.608 E0.02145
G1 X79.468 Y65.767 E0.20101
G1 X78.539 Y65.767 E0.02145
G1 X72.379 Y59.608 E0.20101
G1 X71.450 Y59.608 E0.02145
G1 X77.609 Y65.767 E0.20101
G1 X76.680 Y65.767 E0.02145
G1 X70.520 Y59.608 E0.20101
G1 X69.591 Y59.608 E0.02145
G1 X75.750 Y65.767 E0.20101
G1 X74.821 Y65.767 E0.02145
G1 X68.661 Y59.608 E0.20101
G1 X67.732 Y59.608 E0.02145
G1 X73.891 Y65.767 E0.20101
G1 X72.962 Y65.767 E0.02145
G1 X66.802 Y59.608 E0.20101
G1 X65.873 Y59.608 E0.02145
G1 X72.033 Y65.767 E0.20101
G1 X71.103 Y65.767 E0.02145
G1 X64.943 Y59.608 E0.20101
G1 X64.014 Y59.608 E0.02145
G1 X70.174 Y65.767 E0.20101
G1 X69.244 Y65.767 E0.02145
G1 X63.085 Y59.608 E0.20101
G1 X62.155 Y59.608 E0.02145
G1 X68.315 Y65.767 E0.20101
G1 X67.385 Y65.767 E0.02145
G1 X61.226 Y59.608 E0.20101
G1 X60.296 Y59.608 E0.02145
G1 X66.456 Y65.767 E0.20101
G1 X65.527 Y65.767 E0.02145
G1 X59.367 Y59.608 E0.20101
G1 X58.437 Y59.608 E0.02145
G1 X64.597 Y65.767 E0.20101
G1 X63.668 Y65.767 E0.02145
G1 X57.508 Y59.608 E0.20101
G1 X56.579 Y59.608 E0.02145
G1 X62.738 Y65.767 E0.20101
G1 X61.809 Y65.767 E0.02145
G1 X55.649 Y59.608 E0.20101
G1 X54.720 Y59.608 E0.02145
G1 X60.879 Y65.767 E0.20101
G1 X59.950 Y65.767 E0.02145
G1 X53.790 Y59.608 E0.20101
G1 X52.861 Y59.608 E0.02145
G1 X59.020 Y65.767 E0.20101
G1 X58.091 Y65.767 E0.02145
G1 X51.931 Y59.608 E0.20101
G1 X51.002 Y59.608 E0.02145
G1 X57.162 Y65.767 E0.20101
G1 X56.232 Y65.767 E0.02145
G1 X50.072 Y59.608 E0.20101
G1 X49.143 Y59.608 E0.02145
G1 X55.303 Y65.767 E0.20101
G1 X54.767 Y66.161 E0.01534
G1 X48.214 Y59.608 E0.21387
G1 X47.284 Y59.608 E0.02145
G1 X54.767 Y67.091 E0.24420
G1 X54.767 Y68.020 E0.02145
G1 X47.108 Y60.361 E0.24996
G1 X47.108 Y61.290 E0.02145
G1 X54.767 Y68.950 E0.24996
G1 X54.767 Y69.879 E0.02145
