; generated by Slic3r 0.9.7 on 2012-12-06 at 11:45:33

; layer_height = 0.3
; perimeters = 3
; top_solid_layers = 5
; bottom_solid_layers = 5
; fill_density = .5
; perimeter_speed = 65
; infill_speed = 80
; travel_speed = 150
; scale = 1
; nozzle_diameter = 0.5
; filament_diameter = 2.83
; extrusion_multiplier = .631
; perimeters extrusion width = 0.70mm
; infill extrusion width = 0.70mm
; support material extrusion width = 0.70mm
; first layer extrusion width = 0.60mm

M104 S200 ; set temperature
G28 ; home all axes
M104 S200 ; set temperature
M116 ; wait for temperature to be reached
G90 ; use absolute coordinates
G21 ; set units to millimeters
G1 F1800.000 E-1.00000
G1 Z0.300 F9000.000
G1 X110.110 Y20.500
G1 F1800.000 E1.00000
G1 X110.520 Y20.130 F1170.000 E0.00962
G1 X111.200 Y19.660 E0.01439
G1 X111.670 Y19.380 E0.00953
G1 X112.430 Y19.040 E0.01450
G1 X112.950 Y18.860 E0.00958
G1 X113.750 Y18.670 E0.01432
G1 X114.290 Y18.600 E0.00948
G1 X114.840 Y18.560 E0.00960
G1 X115.670 Y18.590 E0.01446
G1 X116.210 Y18.670 E0.00950
G1 X117.020 Y18.850 E0.01445
G1 X117.540 Y19.030 E0.00958
G1 X118.290 Y19.360 E0.01427
G1 X118.770 Y19.640 E0.00968
G1 X119.230 Y19.940 E0.00956
G1 X119.860 Y20.470 E0.01433
G1 X129.630 Y30.230 E0.24044
G1 X130.180 Y30.840 E0.01430
G1 X130.500 Y31.290 E0.00961
G1 X130.790 Y31.750 E0.00947
G1 X131.160 Y32.490 E0.01440
G1 X131.350 Y33.000 E0.00948
G1 X131.510 Y33.530 E0.00964
G1 X131.620 Y34.060 E0.00942
G1 X131.720 Y34.880 E0.01438
G1 X131.720 Y35.700 E0.01428
G1 X131.660 Y36.250 E0.00963
G1 X131.570 Y36.790 E0.00953
G1 X131.350 Y37.580 E0.01428
G1 X131.160 Y38.090 E0.00948
G1 X130.920 Y38.590 E0.00966
G1 X130.500 Y39.290 E0.01421
G1 X130.180 Y39.740 E0.00961
G1 X129.630 Y40.350 E0.01430
G1 X39.690 Y130.300 E2.21469
G1 X29.780 Y139.610 E0.23674
G1 X29.350 Y139.980 E0.00988
G1 X28.890 Y140.320 E0.00996
G1 X28.410 Y140.620 E0.00986
G1 X27.910 Y140.880 E0.00981
G1 X27.380 Y141.100 E0.00999
G1 X27.110 Y141.190 E0.00496
G1 X26.570 Y141.350 E0.00981
G1 X26.010 Y141.460 E0.00994
G1 X25.730 Y141.500 E0.00492
G1 X24.880 Y141.550 E0.01482
G1 X20.300 Y141.550 E0.07974
G1 X19.690 Y141.520 E0.01063
G1 X19.080 Y141.440 E0.01071
G1 X18.190 Y141.230 E0.01592
G1 X17.610 Y141.020 E0.01074
G1 X17.060 Y140.770 E0.01052
G1 X11.890 Y137.870 E0.10321
G1 X11.180 Y137.410 E0.01473
G1 X10.530 Y136.880 E0.01460
G1 X10.140 Y136.480 E0.00973
G1 X9.770 Y136.050 E0.00988
G1 X9.440 Y135.600 E0.00972
G1 X9.150 Y135.120 E0.00976
G1 X8.900 Y134.620 E0.00973
G1 X8.680 Y134.100 E0.00983
G1 X8.510 Y133.570 E0.00969
G1 X8.330 Y132.750 E0.01462
G1 X8.260 Y132.190 E0.00983
G1 X8.240 Y131.630 E0.00976
G1 X8.240 Y118.960 E0.22060
G1 X8.270 Y118.370 E0.01029
G1 X8.390 Y117.510 E0.01512
G1 X8.530 Y116.940 E0.01022
G1 X8.720 Y116.380 E0.01030
G1 X8.830 Y116.110 E0.00508
G1 X9.230 Y115.330 E0.01526
G1 X9.550 Y114.840 E0.01019
G1 X9.720 Y114.600 E0.00512
G1 X10.100 Y114.150 E0.01025
G1 X10.510 Y113.740 E0.01010
G1 X110.047 Y20.559 E2.37390
G1 X110.110 Y20.500 E0.00151
G1 X110.500 Y20.920 F9000.000
G1 X110.910 Y20.570 F1170.000 E0.00939
G1 X111.560 Y20.110 E0.01386
G1 X112.030 Y19.850 E0.00935
G1 X112.510 Y19.630 E0.00919
G1 X113.270 Y19.370 E0.01399
G1 X113.780 Y19.250 E0.00912
G1 X114.310 Y19.180 E0.00931
G1 X114.840 Y19.140 E0.00925
G1 X115.370 Y19.150 E0.00923
G1 X115.900 Y19.200 E0.00927
G1 X116.690 Y19.360 E0.01403
G1 X116.940 Y19.430 E0.00452
G1 X117.440 Y19.610 E0.00925
G1 X117.930 Y19.830 E0.00935
G1 X118.400 Y20.090 E0.00935
G1 X118.840 Y20.380 E0.00918
G1 X119.460 Y20.880 E0.01387
G1 X129.410 Y30.830 E0.24500
G1 X129.910 Y31.440 E0.01373
G1 X130.200 Y31.890 E0.00932
G1 X130.460 Y32.350 E0.00920
G1 X130.670 Y32.830 E0.00912
G1 X130.850 Y33.330 E0.00925
G1 X130.990 Y33.840 E0.00921
G1 X131.120 Y34.630 E0.01394
G1 X131.150 Y35.160 E0.00924
G1 X131.140 Y35.690 E0.00923
G1 X131.120 Y35.950 E0.00454
G1 X130.990 Y36.740 E0.01394
G1 X130.770 Y37.500 E0.01378
G1 X130.460 Y38.230 E0.01381
G1 X130.200 Y38.690 E0.00920
G1 X129.910 Y39.140 E0.00932
G1 X129.410 Y39.750 E0.01373
G1 X39.440 Y129.730 E2.21543
G1 X29.180 Y139.370 E0.24511
G1 X28.750 Y139.710 E0.00954
G1 X28.290 Y140.020 E0.00966
G1 X27.560 Y140.400 E0.01433
G1 X26.780 Y140.690 E0.01449
G1 X25.980 Y140.880 E0.01432
G1 X25.700 Y140.920 E0.00492
G1 X25.430 Y140.950 E0.00473
G1 X24.880 Y140.970 E0.00958
G1 X20.300 Y140.970 E0.07974
G1 X19.740 Y140.940 E0.00976
G1 X18.900 Y140.820 E0.01477
G1 X18.360 Y140.680 E0.00971
G1 X17.570 Y140.380 E0.01471
G1 X17.070 Y140.120 E0.00981
G1 X11.940 Y137.230 E0.10252
G1 X11.500 Y136.930 E0.00927
G1 X11.080 Y136.590 E0.00941
G1 X10.690 Y136.220 E0.00936
G1 X10.330 Y135.830 E0.00924
G1 X10.010 Y135.400 E0.00933
G1 X9.720 Y134.950 E0.00932
G1 X9.470 Y134.480 E0.00927
G1 X9.260 Y133.990 E0.00928
G1 X9.090 Y133.480 E0.00936
G1 X8.910 Y132.700 E0.01394
G1 X8.840 Y132.160 E0.00948
G1 X8.820 Y131.630 E0.00923
G1 X8.820 Y118.960 E0.22060
G1 X8.850 Y118.390 E0.00994
G1 X8.970 Y117.550 E0.01477
G1 X9.210 Y116.740 E0.01471
G1 X9.420 Y116.210 E0.00993
G1 X9.680 Y115.710 E0.00981
G1 X9.980 Y115.230 E0.00986
G1 X10.320 Y114.780 E0.00982
G1 X10.900 Y114.160 E0.01478
G1 X110.437 Y20.979 E2.37390
G1 X110.500 Y20.920 E0.00151
G1 X15.407 Y131.638 F9000.000
G1 X15.407 Y118.963 F1080.000 E0.22069
G1 X17.907 Y118.963 E0.04353
G1 X17.907 Y131.638 E0.22069
G1 F1800.000 E-1.00000
G1 X122.939 Y35.300 F9000.000
G1 F1800.000 E1.00000
G1 X33.986 Y124.254 F1170.000 E2.19028
G1 X24.423 Y133.243 E0.22851
G1 X21.457 Y133.243 E0.05163
G1 X21.457 Y117.357 E0.27659
G1 X25.606 Y117.357 E0.07224
G1 X115.003 Y27.364 E2.20855
G1 X122.878 Y35.239 E0.19389
G1 X122.939 Y35.300 E0.00151
G1 X123.758 Y35.300 F9000.000
G1 X34.388 Y124.669 F1170.000 E2.20051
G1 X24.652 Y133.821 E0.23266
G1 X20.879 Y133.821 E0.06570
G1 X20.879 Y116.779 E0.29673
G1 X25.366 Y116.779 E0.07812
G1 X115.002 Y26.545 E2.21446
G1 X123.696 Y35.239 E0.21407
G1 X123.758 Y35.300 E0.00151
G1 X124.576 Y35.300 F9000.000
G1 X34.791 Y125.085 F1170.000 E2.21074
G1 X24.881 Y134.400 E0.23680
G1 X20.300 Y134.400 E0.07976
G1 X20.300 Y116.200 E0.31688
G1 X25.125 Y116.200 E0.08400
G1 X115.001 Y25.725 E2.22038
G1 X124.514 Y35.239 E0.23425
G1 X124.576 Y35.300 E0.00151
G1 X124.726 Y35.860 F9000.000
G1 F1800.000 E-1.00000
G1 X25.814 Y117.599 F9000.000
G1 F1800.000 E1.00000
G1 X32.979 Y124.764 F1260.000 E0.17666
G1 X33.401 Y124.366 E0.01010
G1 X26.222 Y117.188 E0.17699
G1 X26.631 Y116.777 E0.01010
G1 X33.822 Y123.968 E0.17731
G1 X34.231 Y123.558 E0.01010
G1 X27.039 Y116.366 E0.17734
G1 X27.448 Y115.956 E0.01010
G1 X34.641 Y123.149 E0.17736
G1 X35.051 Y122.739 E0.01010
G1 X27.856 Y115.544 E0.17739
G1 X28.264 Y115.133 E0.01010
G1 X35.460 Y122.329 E0.17743
G1 X35.870 Y121.920 E0.01010
G1 X28.672 Y114.722 E0.17746
G1 X29.081 Y114.311 E0.01010
G1 X36.279 Y121.510 E0.17750
G1 X36.689 Y121.100 E0.01010
G1 X29.489 Y113.900 E0.17753
G1 X29.897 Y113.489 E0.01010
G1 X37.099 Y120.691 E0.17757
G1 X37.508 Y120.281 E0.01010
G1 X30.305 Y113.078 E0.17760
G1 X30.714 Y112.667 E0.01010
G1 X37.918 Y119.872 E0.17764
G1 X38.328 Y119.462 E0.01010
G1 X31.122 Y112.256 E0.17767
G1 X31.530 Y111.845 E0.01010
G1 X38.737 Y119.052 E0.17771
G1 X39.147 Y118.643 E0.01010
G1 X31.938 Y111.434 E0.17774
G1 X32.346 Y111.023 E0.01010
G1 X39.557 Y118.233 E0.17778
G1 X39.966 Y117.823 E0.01010
G1 X32.755 Y110.612 E0.17781
G1 X33.164 Y110.201 E0.01010
G1 X40.376 Y117.414 E0.17783
G1 X40.786 Y117.004 E0.01010
G1 X33.572 Y109.790 E0.17786
G1 X33.980 Y109.379 E0.01010
G1 X41.195 Y116.594 E0.17790
G1 X41.605 Y116.185 E0.01010
G1 X34.388 Y108.968 E0.17793
G1 X34.797 Y108.557 E0.01010
G1 X42.015 Y115.775 E0.17797
G1 X42.424 Y115.365 E0.01010
G1 X35.205 Y108.146 E0.17800
G1 X35.613 Y107.735 E0.01010
G1 X42.834 Y114.956 E0.17804
G1 X43.243 Y114.546 E0.01010
G1 X36.021 Y107.324 E0.17807
G1 X36.430 Y106.913 E0.01010
G1 X43.653 Y114.136 E0.17811
G1 X44.063 Y113.727 E0.01010
G1 X36.838 Y106.502 E0.17814
G1 X37.246 Y106.091 E0.01010
G1 X44.472 Y113.317 E0.17818
G1 X44.882 Y112.908 E0.01010
G1 X37.654 Y105.680 E0.17821
G1 X38.063 Y105.269 E0.01010
G1 X45.292 Y112.498 E0.17825
G1 X45.701 Y112.088 E0.01010
G1 X38.471 Y104.858 E0.17826
G1 X38.880 Y104.447 E0.01010
G1 X46.111 Y111.679 E0.17830
G1 X46.521 Y111.269 E0.01010
G1 X39.288 Y104.036 E0.17833
G1 X39.696 Y103.625 E0.01010
G1 X46.930 Y110.859 E0.17837
G1 X47.340 Y110.450 E0.01010
G1 X40.104 Y103.214 E0.17840
G1 X40.513 Y102.803 E0.01010
G1 X47.750 Y110.040 E0.17844
G1 X48.159 Y109.630 E0.01010
G1 X40.921 Y102.392 E0.17847
G1 X41.329 Y101.981 E0.01010
G1 X48.569 Y109.221 E0.17851
G1 X48.979 Y108.811 E0.01010
G1 X41.737 Y101.570 E0.17854
G1 X42.146 Y101.159 E0.01010
G1 X49.388 Y108.401 E0.17858
G1 X49.798 Y107.992 E0.01010
G1 X42.554 Y100.748 E0.17861
G1 X42.962 Y100.337 E0.01010
G1 X50.208 Y107.582 E0.17865
G1 X50.617 Y107.172 E0.01010
G1 X43.370 Y99.926 E0.17868
G1 X43.779 Y99.515 E0.01010
G1 X51.027 Y106.763 E0.17870
G1 X51.436 Y106.353 E0.01010
G1 X44.187 Y99.104 E0.17873
G1 X44.596 Y98.693 E0.01010
G1 X51.846 Y105.943 E0.17877
G1 X52.256 Y105.534 E0.01010
G1 X45.004 Y98.282 E0.17880
G1 X45.412 Y97.871 E0.01010
G1 X52.665 Y105.124 E0.17884
G1 X53.075 Y104.715 E0.01010
G1 X45.820 Y97.460 E0.17887
G1 X46.229 Y97.049 E0.01010
G1 X53.485 Y104.305 E0.17891
G1 X53.894 Y103.895 E0.01010
G1 X46.637 Y96.638 E0.17894
G1 X47.045 Y96.227 E0.01010
G1 X54.304 Y103.486 E0.17898
G1 X54.714 Y103.076 E0.01010
G1 X47.453 Y95.816 E0.17901
G1 X47.862 Y95.405 E0.01010
G1 X55.123 Y102.666 E0.17905
G1 X55.533 Y102.257 E0.01010
G1 X48.270 Y94.993 E0.17908
G1 X48.678 Y94.582 E0.01010
G1 X55.943 Y101.847 E0.17912
G1 X56.352 Y101.437 E0.01010
G1 X49.086 Y94.171 E0.17915
G1 X49.495 Y93.761 E0.01010
G1 X56.762 Y101.028 E0.17917
G1 X57.172 Y100.618 E0.01010
G1 X49.903 Y93.350 E0.17921
G1 X50.312 Y92.939 E0.01010
G1 X57.581 Y100.208 E0.17924
G1 X57.991 Y99.799 E0.01010
G1 X50.720 Y92.528 E0.17928
G1 X51.128 Y92.117 E0.01010
G1 X58.400 Y99.389 E0.17931
G1 X58.810 Y98.979 E0.01010
G1 X51.536 Y91.706 E0.17934
G1 X51.945 Y91.295 E0.01010
G1 X59.220 Y98.570 E0.17938
G1 X59.629 Y98.160 E0.01010
G1 X52.353 Y90.884 E0.17941
G1 X52.761 Y90.473 E0.01010
G1 X60.039 Y97.751 E0.17945
G1 X60.449 Y97.341 E0.01010
G1 X53.169 Y90.061 E0.17948
G1 X53.578 Y89.650 E0.01010
G1 X60.858 Y96.931 E0.17952
G1 X61.268 Y96.522 E0.01010
G1 X53.986 Y89.239 E0.17955
G1 X54.394 Y88.828 E0.01010
G1 X61.678 Y96.112 E0.17959
G1 X62.087 Y95.702 E0.01010
G1 X54.803 Y88.418 E0.17961
G1 X55.211 Y88.007 E0.01010
G1 X62.497 Y95.293 E0.17964
G1 X62.907 Y94.883 E0.01010
G1 X55.619 Y87.596 E0.17968
G1 X56.028 Y87.185 E0.01010
G1 X63.316 Y94.473 E0.17971
G1 X63.726 Y94.064 E0.01010
G1 X56.436 Y86.774 E0.17975
G1 X56.844 Y86.363 E0.01010
G1 X64.136 Y93.654 E0.17978
G1 X64.545 Y93.244 E0.01010
G1 X57.252 Y85.952 E0.17982
G1 X57.661 Y85.540 E0.01010
G1 X64.955 Y92.835 E0.17985
G1 X65.364 Y92.425 E0.01010
G1 X58.069 Y85.129 E0.17989
G1 X58.477 Y84.718 E0.01010
G1 X65.774 Y92.015 E0.17992
G1 X66.184 Y91.606 E0.01010
G1 X58.885 Y84.307 E0.17996
G1 X59.293 Y83.896 E0.01010
G1 X66.593 Y91.196 E0.17999
G1 X67.003 Y90.787 E0.01010
G1 X59.702 Y83.485 E0.18002
G1 X60.111 Y83.075 E0.01010
G1 X67.413 Y90.377 E0.18004
G1 X67.822 Y89.967 E0.01010
G1 X60.519 Y82.664 E0.18008
G1 X60.927 Y82.253 E0.01010
G1 X68.232 Y89.558 E0.18011
G1 X68.642 Y89.148 E0.01010
G1 X61.335 Y81.842 E0.18015
G1 X61.744 Y81.431 E0.01010
G1 X69.051 Y88.738 E0.18018
G1 X69.461 Y88.329 E0.01010
G1 X62.152 Y81.019 E0.18022
G1 X62.560 Y80.608 E0.01010
G1 X69.871 Y87.919 E0.18025
G1 X70.280 Y87.509 E0.01010
G1 X62.968 Y80.197 E0.18029
G1 X63.377 Y79.786 E0.01010
G1 X70.690 Y87.100 E0.18032
G1 X71.100 Y86.690 E0.01010
G1 X63.785 Y79.375 E0.18036
G1 X64.193 Y78.964 E0.01010
G1 X71.509 Y86.280 E0.18039
G1 X71.919 Y85.871 E0.01010
G1 X64.601 Y78.553 E0.18043
G1 X65.009 Y78.142 E0.01010
G1 X72.328 Y85.461 E0.18046
G1 X72.738 Y85.051 E0.01010
G1 X65.418 Y77.732 E0.18048
G1 X65.826 Y77.321 E0.01009
G1 X73.148 Y84.642 E0.18051
G1 X73.558 Y84.232 E0.01011
G1 X66.235 Y76.909 E0.18055
G1 X66.643 Y76.498 E0.01009
G1 X73.967 Y83.822 E0.18058
G1 X74.377 Y83.413 E0.01009
G1 X67.051 Y76.088 E0.18062
G1 X67.460 Y75.676 E0.01011
G1 X74.787 Y83.003 E0.18065
G1 X75.196 Y82.593 E0.01009
G1 X67.868 Y75.265 E0.18069
G1 X68.276 Y74.854 E0.01009
G1 X75.606 Y82.184 E0.18072
G1 X76.016 Y81.774 E0.01011
G1 X68.685 Y74.443 E0.18076
G1 X69.093 Y74.032 E0.01009
G1 X76.425 Y81.365 E0.18079
G1 X76.834 Y80.955 E0.01009
G1 X69.501 Y73.621 E0.18083
G1 X69.909 Y73.210 E0.01011
G1 X77.245 Y80.545 E0.18086
G1 X77.654 Y80.136 E0.01009
G1 X70.317 Y72.799 E0.18090
G1 X70.725 Y72.388 E0.01009
G1 X78.063 Y79.726 E0.18093
G1 X78.474 Y79.316 E0.01011
G1 X71.135 Y71.977 E0.18095
G1 X71.543 Y71.566 E0.01009
G1 X78.883 Y78.907 E0.18098
G1 X79.292 Y78.497 E0.01009
G1 X71.951 Y71.156 E0.18102
G1 X72.359 Y70.744 E0.01011
G1 X79.702 Y78.087 E0.18105
G1 X80.112 Y77.678 E0.01009
G1 X72.767 Y70.333 E0.18109
G1 X73.175 Y69.922 E0.01009
G1 X80.521 Y77.268 E0.18112
G1 X80.931 Y76.858 E0.01011
G1 X73.584 Y69.511 E0.18116
G1 X73.992 Y69.100 E0.01009
G1 X81.341 Y76.449 E0.18119
G1 X81.750 Y76.039 E0.01009
G1 X74.400 Y68.689 E0.18123
G1 X74.809 Y68.278 E0.01011
G1 X82.160 Y75.629 E0.18126
G1 X82.570 Y75.220 E0.01009
G1 X75.217 Y67.867 E0.18130
G1 X75.625 Y67.456 E0.01009
G1 X82.979 Y74.810 E0.18133
G1 X83.389 Y74.400 E0.01011
G1 X76.034 Y67.044 E0.18137
G1 X76.442 Y66.634 E0.01009
G1 X83.799 Y73.991 E0.18138
G1 X84.208 Y73.581 E0.01009
G1 X76.850 Y66.223 E0.18142
G1 X77.258 Y65.813 E0.01009
G1 X84.618 Y73.172 E0.18145
G1 X85.028 Y72.762 E0.01011
G1 X77.667 Y65.401 E0.18149
G1 X78.075 Y64.990 E0.01009
G1 X85.437 Y72.352 E0.18152
G1 X85.847 Y71.943 E0.01009
G1 X78.483 Y64.579 E0.18156
G1 X78.892 Y64.168 E0.01011
G1 X86.257 Y71.533 E0.18159
G1 X86.666 Y71.124 E0.01009
G1 X79.300 Y63.757 E0.18163
G1 X79.708 Y63.346 E0.01009
G1 X87.075 Y70.714 E0.18166
G1 X87.486 Y70.304 E0.01011
G1 X80.116 Y62.935 E0.18170
G1 X80.524 Y62.524 E0.01009
G1 X87.895 Y69.895 E0.18173
G1 X88.304 Y69.485 E0.01009
G1 X80.932 Y62.113 E0.18177
G1 X81.341 Y61.702 E0.01011
G1 X88.715 Y69.075 E0.18180
G1 X89.124 Y68.666 E0.01009
G1 X81.750 Y61.291 E0.18182
G1 X82.158 Y60.881 E0.01009
G1 X89.533 Y68.256 E0.18186
G1 X89.944 Y67.846 E0.01011
G1 X82.566 Y60.469 E0.18189
G1 X82.974 Y60.058 E0.01009
G1 X90.353 Y67.437 E0.18193
G1 X90.762 Y67.027 E0.01009
G1 X83.382 Y59.647 E0.18196
G1 X83.791 Y59.236 E0.01011
G1 X91.172 Y66.617 E0.18199
G1 X91.582 Y66.208 E0.01009
G1 X84.199 Y58.825 E0.18203
G1 X84.607 Y58.414 E0.01009
G1 X91.991 Y65.798 E0.18206
G1 X92.401 Y65.388 E0.01011
G1 X85.016 Y58.003 E0.18210
G1 X85.424 Y57.592 E0.01009
G1 X92.811 Y64.979 E0.18213
G1 X93.220 Y64.569 E0.01009
G1 X85.832 Y57.181 E0.18217
G1 X86.241 Y56.769 E0.01011
G1 X93.630 Y64.159 E0.18220
G1 X94.040 Y63.750 E0.01009
G1 X86.649 Y56.359 E0.18224
G1 X87.057 Y55.948 E0.01009
G1 X94.449 Y63.340 E0.18227
G1 X94.859 Y62.930 E0.01011
G1 X87.466 Y55.537 E0.18229
G1 X87.874 Y55.126 E0.01009
G1 X95.269 Y62.521 E0.18233
G1 X95.678 Y62.111 E0.01009
G1 X88.282 Y54.715 E0.18236
G1 X88.691 Y54.304 E0.01011
G1 X96.088 Y61.701 E0.18240
G1 X96.498 Y61.292 E0.01009
G1 X89.099 Y53.893 E0.18243
G1 X89.507 Y53.482 E0.01009
G1 X96.907 Y60.882 E0.18247
G1 X97.317 Y60.472 E0.01011
G1 X89.915 Y53.071 E0.18250
G1 X90.323 Y52.660 E0.01009
G1 X97.727 Y60.063 E0.18254
G1 X98.136 Y59.654 E0.01009
G1 X90.731 Y52.249 E0.18257
G1 X91.140 Y51.837 E0.01011
G1 X98.546 Y59.243 E0.18261
G1 X98.956 Y58.834 E0.01009
G1 X91.548 Y51.427 E0.18264
G1 X91.956 Y51.016 E0.01009
G1 X99.365 Y58.425 E0.18267
G1 X99.775 Y58.014 E0.01011
G1 X92.365 Y50.604 E0.18271
G1 X92.774 Y50.194 E0.01009
G1 X100.185 Y57.605 E0.18273
G1 X100.594 Y57.196 E0.01009
G1 X93.182 Y49.783 E0.18276
G1 X93.590 Y49.372 E0.01011
G1 X101.004 Y56.786 E0.18280
G1 X101.413 Y56.376 E0.01009
G1 X93.998 Y48.961 E0.18283
G1 X94.406 Y48.550 E0.01009
G1 X101.823 Y55.967 E0.18287
G1 X102.233 Y55.557 E0.01011
G1 X94.815 Y48.139 E0.18290
G1 X95.223 Y47.728 E0.01009
G1 X102.642 Y55.147 E0.18294
G1 X103.052 Y54.738 E0.01009
G1 X95.631 Y47.317 E0.18297
