; generated by Slic3r 0.9.7 on 2012-11-23 at 19:50:17

; layer_height = 0.4
; perimeters = 3
; top_solid_layers = 3
; bottom_solid_layers = 0
; fill_density = 0.8
; perimeter_speed = 30
; infill_speed = 60
; travel_speed = 150
; scale = 1
; nozzle_diameter = 0.5
; filament_diameter = 2.83
; extrusion_multiplier = .684
; perimeters extrusion width = 0.53mm
; infill extrusion width = 0.53mm
; first layer extrusion width = 0.80mm

M104 S200 ; set temperature
G28 ; home all axes
M104 S200 ; set temperature
M116 ; wait for temperature to be reached
G90 ; use absolute coordinates
G21 ; set units to millimeters
G1 F1800.000 E-1.00000
G1 Z0.400 F9000.000
G1 X38.400 Y68.320
G1 F1800.000 E1.00000
G1 X38.870 Y68.060 F540.000 E0.01719
G1 X39.420 Y67.790 E0.01960
G1 X40.150 Y67.480 E0.02538
G1 X40.670 Y67.290 E0.01771
G1 X41.370 Y67.070 E0.02348
G1 X42.160 Y66.880 E0.02600
G1 X42.730 Y66.770 E0.01857
G1 X43.490 Y66.670 E0.02453
G1 X44.510 Y66.580 E0.03276
G1 X45.170 Y66.550 E0.02114
G1 X94.820 Y66.550 E1.58864
G1 X95.410 Y66.570 E0.01889
G1 X96.420 Y66.650 E0.03242
G1 X97.300 Y66.770 E0.02842
G1 X97.900 Y66.890 E0.01958
G1 X98.600 Y67.070 E0.02313
G1 X99.160 Y67.240 E0.01873
G1 X99.850 Y67.490 E0.02348
G1 X100.430 Y67.730 E0.02008
G1 X101.280 Y68.140 E0.03020
G1 X101.980 Y68.540 E0.02580
G1 X102.660 Y68.980 E0.02592
G1 X103.170 Y69.350 E0.02016
G1 X103.860 Y69.920 E0.02864
G1 X104.270 Y70.300 E0.01789
G1 X105.070 Y71.130 E0.03689
G1 X105.610 Y71.780 E0.02704
G1 X105.950 Y72.240 E0.01830
G1 X106.400 Y72.930 E0.02636
G1 X106.690 Y73.430 E0.01849
G1 X107.200 Y74.420 E0.03563
G1 X107.510 Y75.160 E0.02567
G1 X107.710 Y75.710 E0.01873
G1 X107.940 Y76.450 E0.02479
G1 X108.080 Y77.010 E0.01847
G1 X108.220 Y77.700 E0.02253
G1 X108.360 Y78.790 E0.03516
G1 X108.410 Y79.660 E0.02788
G1 X108.410 Y80.270 E0.01952
G1 X108.370 Y81.030 E0.02435
G1 X108.220 Y82.280 E0.04028
G1 X108.110 Y82.850 E0.01857
G1 X107.920 Y83.600 E0.02476
G1 X107.750 Y84.160 E0.01873
G1 X107.510 Y84.830 E0.02277
G1 X107.280 Y85.390 E0.01937
G1 X106.920 Y86.140 E0.02662
G1 X106.630 Y86.670 E0.01933
G1 X106.280 Y87.250 E0.02168
G1 X105.950 Y87.740 E0.01890
G1 X105.400 Y88.460 E0.02899
G1 X104.880 Y89.060 E0.02540
G1 X104.330 Y89.630 E0.02534
G1 X103.870 Y90.060 E0.02015
G1 X103.210 Y90.610 E0.02749
G1 X102.750 Y90.950 E0.01830
G1 X102.060 Y91.400 E0.02636
G1 X101.100 Y91.940 E0.03524
G1 X100.570 Y92.200 E0.01889
G1 X99.830 Y92.510 E0.02567
G1 X99.280 Y92.710 E0.01873
G1 X98.540 Y92.940 E0.02479
G1 X97.980 Y93.080 E0.01847
G1 X97.320 Y93.210 E0.02152
G1 X96.740 Y93.300 E0.01878
G1 X96.070 Y93.380 E0.02159
G1 X95.300 Y93.430 E0.02469
G1 X94.820 Y93.440 E0.01536
G1 X45.170 Y93.440 E1.58864
G1 X44.680 Y93.430 E0.01568
G1 X43.920 Y93.380 E0.02437
G1 X43.140 Y93.290 E0.02512
G1 X42.610 Y93.200 E0.01720
G1 X42.070 Y93.090 E0.01763
G1 X41.390 Y92.920 E0.02243
G1 X40.830 Y92.750 E0.01873
G1 X40.160 Y92.510 E0.02277
G1 X39.600 Y92.280 E0.01937
G1 X38.940 Y91.970 E0.02333
G1 X38.430 Y91.700 E0.01846
G1 X37.760 Y91.300 E0.02497
G1 X37.270 Y90.970 E0.01890
G1 X36.630 Y90.490 E0.02560
G1 X36.190 Y90.120 E0.01839
G1 X35.310 Y89.270 E0.03915
G1 X34.880 Y88.810 E0.02015
G1 X34.500 Y88.360 E0.01885
G1 X33.990 Y87.680 E0.02720
G1 X33.670 Y87.200 E0.01846
G1 X33.280 Y86.550 E0.02425
G1 X33.000 Y86.020 E0.01918
G1 X32.490 Y84.860 E0.04055
G1 X32.230 Y84.140 E0.02449
G1 X32.060 Y83.570 E0.01903
G1 X31.890 Y82.870 E0.02305
G1 X31.780 Y82.310 E0.01826
G1 X31.660 Y81.520 E0.02557
G1 X31.600 Y80.820 E0.02248
G1 X31.580 Y80.250 E0.01825
G1 X31.600 Y79.150 E0.03520
G1 X31.690 Y78.240 E0.02926
G1 X31.780 Y77.670 E0.01846
G1 X31.900 Y77.090 E0.01895
G1 X32.040 Y76.510 E0.01909
G1 X32.260 Y75.750 E0.02532
G1 X32.460 Y75.190 E0.01903
G1 X32.760 Y74.470 E0.02496
G1 X33.000 Y73.970 E0.01775
G1 X33.300 Y73.410 E0.02033
G1 X33.600 Y72.900 E0.01893
G1 X34.080 Y72.190 E0.02742
G1 X34.850 Y71.210 E0.03988
G1 X35.250 Y70.770 E0.01903
G1 X36.130 Y69.920 E0.03915
G1 X36.780 Y69.380 E0.02704
G1 X37.240 Y69.040 E0.01830
G1 X37.920 Y68.600 E0.02592
G1 X38.305 Y68.376 E0.01425
G1 X38.400 Y68.320 E0.00353
G1 X38.770 Y68.950 F9000.000
G1 X39.740 Y68.450 F540.000 E0.03492
G1 X40.400 Y68.170 E0.02294
G1 X40.920 Y67.980 E0.01771
G1 X41.550 Y67.790 E0.02105
G1 X42.300 Y67.610 E0.02468
G1 X42.870 Y67.500 E0.01857
G1 X43.560 Y67.400 E0.02231
G1 X44.580 Y67.310 E0.03276
G1 X45.170 Y67.280 E0.01890
G1 X94.820 Y67.280 E1.58864
G1 X96.360 Y67.390 E0.04940
G1 X97.150 Y67.500 E0.02552
G1 X98.390 Y67.770 E0.04061
G1 X98.950 Y67.940 E0.01873
G1 X100.150 Y68.410 E0.04124
G1 X100.910 Y68.780 E0.02705
G1 X101.610 Y69.180 E0.02580
G1 X102.230 Y69.580 E0.02361
G1 X102.740 Y69.950 E0.02016
G1 X103.360 Y70.460 E0.02569
G1 X103.770 Y70.840 E0.01789
G1 X104.530 Y71.630 E0.03508
G1 X105.020 Y72.220 E0.02454
G1 X105.360 Y72.680 E0.01830
G1 X105.770 Y73.300 E0.02378
G1 X106.060 Y73.800 E0.01849
G1 X106.540 Y74.740 E0.03377
G1 X106.820 Y75.410 E0.02323
G1 X107.020 Y75.960 E0.01873
G1 X107.220 Y76.630 E0.02237
G1 X107.490 Y77.810 E0.03873
G1 X107.570 Y78.360 E0.01778
G1 X107.630 Y78.870 E0.01643
G1 X107.680 Y79.660 E0.02533
G1 X107.680 Y80.270 E0.01952
G1 X107.640 Y80.950 E0.02180
G1 X107.580 Y81.540 E0.01898
G1 X107.380 Y82.710 E0.03798
G1 X107.220 Y83.390 E0.02235
G1 X107.050 Y83.950 E0.01873
G1 X106.600 Y85.110 E0.03981
G1 X106.280 Y85.780 E0.02376
G1 X105.990 Y86.310 E0.01933
G1 X105.670 Y86.840 E0.01981
G1 X105.340 Y87.330 E0.01890
G1 X104.840 Y87.980 E0.02624
G1 X104.320 Y88.580 E0.02540
G1 X103.830 Y89.090 E0.02263
G1 X103.370 Y89.520 E0.02015
G1 X102.770 Y90.020 E0.02499
G1 X102.310 Y90.360 E0.01830
G1 X101.690 Y90.770 E0.02378
G1 X100.780 Y91.280 E0.03338
G1 X100.250 Y91.540 E0.01889
G1 X99.580 Y91.820 E0.02323
G1 X99.030 Y92.020 E0.01873
G1 X98.360 Y92.220 E0.02237
G1 X97.200 Y92.490 E0.03811
G1 X96.620 Y92.580 E0.01878
G1 X96.030 Y92.640 E0.01898
G1 X94.820 Y92.710 E0.03878
G1 X45.170 Y92.710 E1.58864
G1 X43.970 Y92.640 E0.03846
G1 X43.240 Y92.560 E0.02350
G1 X42.220 Y92.370 E0.03320
G1 X41.600 Y92.220 E0.02041
G1 X41.040 Y92.050 E0.01873
G1 X39.880 Y91.600 E0.03981
G1 X39.290 Y91.320 E0.02090
G1 X38.780 Y91.050 E0.01846
G1 X38.170 Y90.690 E0.02266
G1 X37.680 Y90.360 E0.01890
G1 X37.100 Y89.930 E0.02310
G1 X36.660 Y89.560 E0.01839
G1 X35.830 Y88.750 E0.03711
G1 X35.440 Y88.340 E0.01811
G1 X35.060 Y87.890 E0.01885
G1 X34.610 Y87.280 E0.02425
G1 X34.290 Y86.800 E0.01846
G1 X33.930 Y86.210 E0.02211
G1 X33.650 Y85.680 E0.01918
G1 X33.170 Y84.580 E0.03840
G1 X32.940 Y83.930 E0.02206
G1 X32.770 Y83.360 E0.01903
G1 X32.610 Y82.730 E0.02080
G1 X32.500 Y82.170 E0.01826
G1 X32.390 Y81.420 E0.02425
G1 X32.340 Y80.800 E0.01990
G1 X32.320 Y79.760 E0.03328
G1 X32.340 Y79.180 E0.01857
G1 X32.420 Y78.360 E0.02636
G1 X32.510 Y77.790 E0.01846
G1 X32.610 Y77.260 E0.01726
G1 X32.750 Y76.680 E0.01909
G1 X32.960 Y75.990 E0.02308
G1 X33.160 Y75.430 E0.01903
G1 X33.430 Y74.790 E0.02223
G1 X33.670 Y74.290 E0.01775
G1 X33.930 Y73.780 E0.01832
G1 X34.230 Y73.270 E0.01893
G1 X34.670 Y72.630 E0.02485
G1 X35.010 Y72.180 E0.01805
G1 X35.400 Y71.710 E0.01954
G1 X35.800 Y71.270 E0.01903
G1 X36.190 Y70.870 E0.01788
G1 X36.630 Y70.460 E0.01924
G1 X37.220 Y69.970 E0.02454
G1 X37.680 Y69.630 E0.01830
G1 X38.290 Y69.230 E0.02334
G1 X38.675 Y69.006 E0.01425
G1 X38.770 Y68.950 E0.00353
G1 F1800.000 E-1.00000
G1 X43.184 Y76.719 F9000.000
G1 F1800.000 E1.00000
G1 X43.519 Y76.555 F540.000 E0.01193
G1 X43.857 Y76.428 E0.01157
G1 X44.230 Y76.330 E0.01232
G1 X44.601 Y76.271 E0.01204
G1 X44.992 Y76.250 E0.01252
G1 X45.359 Y76.268 E0.01176
G1 X45.783 Y76.332 E0.01373
G1 X46.083 Y76.411 E0.00991
G1 X46.487 Y76.557 E0.01373
G1 X46.819 Y76.720 E0.01185
G1 X47.116 Y76.904 E0.01119
G1 X47.396 Y77.115 E0.01121
G1 X47.654 Y77.351 E0.01118
G1 X47.886 Y77.606 E0.01103
G1 X48.101 Y77.891 E0.01144
G1 X48.281 Y78.184 E0.01098
G1 X48.445 Y78.519 E0.01193
G1 X48.572 Y78.857 E0.01157
G1 X48.670 Y79.230 E0.01232
G1 X48.729 Y79.601 E0.01204
G1 X48.750 Y79.992 E0.01252
G1 X48.732 Y80.359 E0.01176
G1 X48.668 Y80.783 E0.01373
G1 X48.589 Y81.083 E0.00991
G1 X48.443 Y81.487 E0.01373
G1 X48.280 Y81.819 E0.01185
G1 X48.096 Y82.116 E0.01119
G1 X47.885 Y82.396 E0.01121
G1 X47.649 Y82.654 E0.01118
G1 X47.394 Y82.886 E0.01103
G1 X47.109 Y83.101 E0.01144
G1 X46.863 Y83.253 E0.00923
G1 X46.481 Y83.445 E0.01368
G1 X46.143 Y83.572 E0.01157
G1 X45.770 Y83.670 E0.01232
G1 X45.399 Y83.729 E0.01204
G1 X45.008 Y83.750 E0.01252
G1 X44.641 Y83.732 E0.01176
G1 X44.217 Y83.668 E0.01373
G1 X43.917 Y83.589 E0.00991
G1 X43.513 Y83.443 E0.01373
G1 X43.181 Y83.280 E0.01185
G1 X42.884 Y83.096 E0.01119
G1 X42.604 Y82.885 E0.01121
G1 X42.346 Y82.649 E0.01118
G1 X42.114 Y82.394 E0.01103
G1 X41.899 Y82.109 E0.01144
G1 X41.719 Y81.816 E0.01098
G1 X41.555 Y81.481 E0.01193
G1 X41.428 Y81.143 E0.01157
G1 X41.330 Y80.770 E0.01232
G1 X41.272 Y80.406 E0.01180
G1 X41.250 Y80.000 E0.01302
G1 X41.268 Y79.641 E0.01151
G1 X41.332 Y79.217 E0.01373
G1 X41.411 Y78.917 E0.00991
G1 X41.557 Y78.513 E0.01373
G1 X41.720 Y78.181 E0.01185
G1 X41.904 Y77.884 E0.01119
G1 X42.080 Y77.648 E0.00942
G1 X42.351 Y77.346 E0.01296
G1 X42.606 Y77.114 E0.01103
G1 X43.089 Y76.776 E0.01888
G1 X43.184 Y76.719 E0.00353
G1 F1800.000 E-1.00000
G1 X45.241 Y84.474 F9000.000
G1 F1800.000 E1.00000
G1 X48.873 Y84.313 F540.000 E0.11632
G1 X48.911 Y84.765 E0.01450
G1 X45.186 Y85.230 E0.12011
G1 X41.575 Y85.133 E0.11556
G1 X41.568 Y84.670 E0.01481
G1 X45.131 Y84.480 E0.11414
G1 X45.241 Y84.474 E0.00353
G1 F1800.000 E-1.00000
G1 X45.246 Y75.521 F9000.000
G1 F1800.000 E1.00000
G1 X41.763 Y75.424 F540.000 E0.11151
G1 X41.754 Y75.283 E0.00452
G1 X45.185 Y74.771 E0.11100
G1 X48.906 Y75.234 E0.11998
G1 X48.855 Y75.770 E0.01722
G1 X45.357 Y75.529 E0.11219
G1 X45.246 Y75.521 E0.00353
G1 X45.035 Y74.049 F9000.000
G1 X45.176 Y74.028 F540.000 E0.00457
G1 X46.179 Y74.168 E0.03240
G1 X46.763 Y74.317 E0.01928
G1 X47.327 Y74.524 E0.01925
G1 X47.776 Y74.738 E0.01589
G1 X48.302 Y75.050 E0.01957
G1 X48.731 Y75.367 E0.01706
G1 X49.182 Y75.769 E0.01934
G1 X49.625 Y76.257 E0.02108
G1 X49.942 Y76.687 E0.01710
G1 X50.239 Y77.180 E0.01843
G1 X50.494 Y77.716 E0.01899
G1 X50.690 Y78.261 E0.01851
G1 X50.833 Y78.827 E0.01870
G1 X50.921 Y79.410 E0.01886
G1 X50.957 Y80.085 E0.02165
G1 X50.918 Y80.610 E0.01684
G1 X50.831 Y81.182 E0.01849
G1 X50.692 Y81.734 E0.01823
G1 X50.491 Y82.290 E0.01892
G1 X50.251 Y82.799 E0.01799
G1 X49.950 Y83.301 E0.01873
G1 X49.616 Y83.754 E0.01801
G1 X49.195 Y84.219 E0.02009
G1 X48.723 Y84.640 E0.02023
G1 X48.308 Y84.946 E0.01648
G1 X47.788 Y85.256 E0.01939
G1 X47.323 Y85.477 E0.01646
G1 X46.765 Y85.682 E0.01901
G1 X46.271 Y85.811 E0.01636
G1 X45.890 Y85.883 E0.01242
G1 X45.177 Y85.972 E0.02299
G1 X44.416 Y85.921 E0.02439
G1 X43.848 Y85.837 E0.01838
G1 X43.266 Y85.692 E0.01920
G1 X42.710 Y85.491 E0.01892
G1 X42.201 Y85.251 E0.01799
G1 X41.699 Y84.950 E0.01872
G1 X41.217 Y84.593 E0.01921
G1 X40.821 Y84.235 E0.01709
G1 X40.399 Y83.772 E0.02003
G1 X40.056 Y83.311 E0.01837
G1 X39.757 Y82.813 E0.01861
G1 X39.506 Y82.284 E0.01873
G1 X39.310 Y81.739 E0.01851
G1 X39.167 Y81.173 E0.01870
G1 X39.079 Y80.590 E0.01886
G1 X39.050 Y80.031 E0.01792
G1 X39.079 Y79.416 E0.01969
G1 X39.163 Y78.848 E0.01838
G1 X39.308 Y78.266 E0.01920
G1 X39.509 Y77.710 E0.01892
G1 X39.749 Y77.201 E0.01799
G1 X40.050 Y76.699 E0.01873
G1 X40.407 Y76.217 E0.01921
G1 X40.783 Y75.802 E0.01792
G1 X41.228 Y75.399 E0.01920
G1 X41.689 Y75.056 E0.01837
G1 X42.187 Y74.757 E0.01861
G1 X42.716 Y74.506 E0.01873
G1 X43.261 Y74.310 E0.01851
G1 X43.827 Y74.167 E0.01870
G1 X44.410 Y74.079 E0.01886
G1 X44.924 Y74.052 E0.01649
G1 X45.035 Y74.049 E0.00353
G1 F1800.000 E-1.00000
G1 X91.273 Y79.581 F9000.000
G1 F1800.000 E1.00000
G1 X91.332 Y79.217 F540.000 E0.01182
G1 X91.427 Y78.861 E0.01177
G1 X91.557 Y78.513 E0.01188
G1 X91.720 Y78.181 E0.01185
G1 X91.904 Y77.884 E0.01119
G1 X92.115 Y77.604 E0.01121
G1 X92.351 Y77.346 E0.01118
G1 X92.606 Y77.114 E0.01103
G1 X92.891 Y76.899 E0.01144
G1 X93.184 Y76.719 E0.01098
G1 X93.519 Y76.555 E0.01193
G1 X93.857 Y76.428 E0.01157
G1 X94.230 Y76.330 E0.01232
G1 X94.601 Y76.271 E0.01204
G1 X94.992 Y76.250 E0.01252
G1 X95.419 Y76.273 E0.01368
G1 X95.783 Y76.332 E0.01182
G1 X96.139 Y76.427 E0.01177
G1 X96.487 Y76.557 E0.01188
G1 X96.819 Y76.720 E0.01185
G1 X97.116 Y76.904 E0.01119
G1 X97.396 Y77.115 E0.01121
G1 X97.654 Y77.351 E0.01118
G1 X97.886 Y77.606 E0.01103
G1 X98.101 Y77.891 E0.01144
G1 X98.281 Y78.184 E0.01098
G1 X98.445 Y78.519 E0.01193
G1 X98.572 Y78.857 E0.01157
G1 X98.670 Y79.230 E0.01232
G1 X98.729 Y79.601 E0.01204
G1 X98.750 Y79.992 E0.01252
G1 X98.732 Y80.359 E0.01176
G1 X98.668 Y80.783 E0.01373
G1 X98.573 Y81.139 E0.01177
G1 X98.443 Y81.487 E0.01188
G1 X98.280 Y81.819 E0.01185
G1 X98.096 Y82.116 E0.01119
G1 X97.885 Y82.396 E0.01121
G1 X97.649 Y82.654 E0.01118
G1 X97.394 Y82.886 E0.01103
G1 X97.109 Y83.101 E0.01144
G1 X96.816 Y83.281 E0.01098
G1 X96.481 Y83.445 E0.01193
G1 X96.143 Y83.572 E0.01157
G1 X95.770 Y83.670 E0.01232
G1 X95.399 Y83.729 E0.01204
G1 X95.008 Y83.750 E0.01252
G1 X94.641 Y83.732 E0.01176
G1 X94.217 Y83.668 E0.01373
G1 X93.861 Y83.573 E0.01177
G1 X93.513 Y83.443 E0.01188
G1 X93.181 Y83.280 E0.01185
G1 X92.884 Y83.096 E0.01119
G1 X92.604 Y82.885 E0.01121
G1 X92.346 Y82.649 E0.01118
G1 X92.114 Y82.394 E0.01103
G1 X91.899 Y82.109 E0.01144
G1 X91.719 Y81.816 E0.01098
G1 X91.555 Y81.481 E0.01193
G1 X91.428 Y81.143 E0.01157
G1 X91.330 Y80.770 E0.01232
G1 X91.272 Y80.406 E0.01180
G1 X91.250 Y80.000 E0.01302
G1 X91.263 Y79.691 E0.00989
G1 X91.273 Y79.581 E0.00353
G1 F1800.000 E-1.00000
G1 X91.145 Y84.231 F9000.000
G1 F1800.000 E1.00000
G1 X94.754 Y84.479 F540.000 E0.11572
G1 X98.237 Y84.576 E0.11151
G1 X98.246 Y84.717 E0.00452
G1 X94.815 Y85.229 E0.11100
G1 X91.094 Y84.766 E0.11998
G1 X91.135 Y84.340 E0.01367
G1 X91.145 Y84.231 E0.00353
G1 F1800.000 E-1.00000
G1 X91.127 Y75.687 F9000.000
G1 F1800.000 E1.00000
G1 X91.089 Y75.235 F540.000 E0.01450
G1 X94.814 Y74.770 E0.12011
G1 X98.425 Y74.867 E0.11556
G1 X98.432 Y75.330 E0.01481
G1 X94.759 Y75.526 E0.11767
G1 X91.238 Y75.682 E0.11279
G1 X91.127 Y75.687 E0.00353
G1 X91.032 Y75.567 F9000.000
G1 X91.451 Y75.224 F540.000 E0.01732
G1 X91.950 Y74.892 E0.01917
G1 X92.217 Y74.741 E0.00983
G1 X92.784 Y74.479 E0.01998
G1 X93.235 Y74.318 E0.01530
G1 X93.815 Y74.169 E0.01917
G1 X94.823 Y74.028 E0.03258
G1 X95.584 Y74.079 E0.02439
G1 X96.152 Y74.163 E0.01838
G1 X96.734 Y74.308 E0.01920
G1 X97.315 Y74.519 E0.01977
G1 X97.775 Y74.737 E0.01630
G1 X98.063 Y74.899 E0.01058
G1 X98.555 Y75.229 E0.01893
G1 X98.998 Y75.593 E0.01835
G1 X99.408 Y76.004 E0.01859
G1 X99.781 Y76.458 E0.01879
G1 X100.101 Y76.938 E0.01845
G1 X100.382 Y77.463 E0.01904
G1 X100.601 Y77.992 E0.01833
G1 X100.774 Y78.563 E0.01909
G1 X100.886 Y79.128 E0.01841
G1 X100.942 Y79.696 E0.01828
G1 X100.944 Y80.252 E0.01780
G1 X100.887 Y80.865 E0.01969
G1 X100.780 Y81.410 E0.01778
G1 X100.615 Y81.968 E0.01861
G1 X100.481 Y82.315 E0.01190
G1 X100.251 Y82.799 E0.01714
G1 X99.950 Y83.301 E0.01873
G1 X99.593 Y83.783 E0.01921
G1 X99.166 Y84.246 E0.02014
G1 X98.772 Y84.601 E0.01698
G1 X98.313 Y84.942 E0.01830
G1 X97.820 Y85.239 E0.01843
G1 X97.284 Y85.494 E0.01899
G1 X96.739 Y85.690 E0.01851
G1 X96.173 Y85.833 E0.01870
G1 X95.590 Y85.921 E0.01886
G1 X94.824 Y85.972 E0.02458
G1 X94.111 Y85.883 E0.02299
G1 X93.528 Y85.765 E0.01901
G1 X92.962 Y85.590 E0.01895
G1 X92.496 Y85.397 E0.01616
G1 X91.953 Y85.110 E0.01964
G1 X91.443 Y84.769 E0.01963
G1 X90.982 Y84.388 E0.01913
G1 X90.603 Y84.008 E0.01717
G1 X90.219 Y83.542 E0.01934
G1 X89.900 Y83.064 E0.01837
G1 X89.618 Y82.537 E0.01912
G1 X89.399 Y82.008 E0.01834
G1 X89.226 Y81.437 E0.01909
G1 X89.114 Y80.872 E0.01841
G1 X89.058 Y80.301 E0.01836
G1 X89.057 Y79.721 E0.01856
G1 X89.113 Y79.135 E0.01884
G1 X89.226 Y78.562 E0.01868
G1 X89.394 Y78.008 E0.01854
G1 X89.625 Y77.449 E0.01935
G1 X89.899 Y76.937 E0.01860
G1 X90.229 Y76.445 E0.01893
G1 X90.603 Y75.992 E0.01881
G1 X90.953 Y75.643 E0.01579
G1 X91.032 Y75.567 E0.00353
G1 F1800.000 E-1.00000
G1 X41.848 Y83.894 F9000.000
G1 F1800.000 E1.00000
G1 X41.132 Y83.178 F360.000 E0.05915
