; generated by Slic3r 0.9.7 on 2012-11-25 at 10:54:04

; layer_height = 0.3
; perimeters = 3
; top_solid_layers = 3
; bottom_solid_layers = 3
; fill_density = .5
; perimeter_speed = 65
; infill_speed = 80
; travel_speed = 150
; scale = 1
; nozzle_diameter = 0.5
; filament_diameter = 2.83
; extrusion_multiplier = .631
; perimeters extrusion width = 0.70mm
; infill extrusion width = 0.70mm
; support material extrusion width = 0.70mm
; first layer extrusion width = 0.60mm

M104 S200 ; set temperature
G28 ; home all axes
M104 S200 ; set temperature
M116 ; wait for temperature to be reached
G90 ; use absolute coordinates
G21 ; set units to millimeters
G1 F1800.000 E-1.00000
G1 Z0.300 F9000.000
G1 X38.380 Y68.570
G1 F1800.000 E1.00000
G1 X39.060 Y68.200 F1170.000 E0.01348
G1 X39.610 Y67.940 E0.01059
G1 X40.290 Y67.660 E0.01280
G1 X41.530 Y67.250 E0.02274
G1 X42.820 Y66.970 E0.02298
G1 X46.270 Y66.330 E0.06109
G1 X61.120 Y64.110 E0.26142
G1 X65.020 Y63.670 E0.06833
G1 X65.820 Y63.620 E0.01396
G1 X66.470 Y63.620 E0.01132
G1 X67.140 Y63.650 E0.01168
G1 X70.890 Y64.000 E0.06557
G1 X91.840 Y66.080 E0.36655
G1 X93.690 Y66.340 E0.03253
G1 X97.730 Y67.080 E0.07151
G1 X98.540 Y67.270 E0.01449
G1 X99.100 Y67.440 E0.01019
G1 X99.810 Y67.700 E0.01316
G1 X100.400 Y67.950 E0.01116
G1 X101.010 Y68.240 E0.01176
G1 X101.510 Y68.510 E0.00989
G1 X102.060 Y68.840 E0.01117
G1 X102.670 Y69.250 E0.01280
G1 X103.170 Y69.630 E0.01093
G1 X103.640 Y70.020 E0.01063
G1 X104.060 Y70.400 E0.00986
G1 X104.550 Y70.890 E0.01207
G1 X104.960 Y71.340 E0.01060
G1 X105.410 Y71.890 E0.01237
G1 X105.760 Y72.360 E0.01020
G1 X106.160 Y72.950 E0.01241
G1 X106.460 Y73.450 E0.01015
G1 X106.770 Y74.030 E0.01145
G1 X107.030 Y74.570 E0.01043
G1 X107.320 Y75.260 E0.01303
G1 X107.520 Y75.820 E0.01035
G1 X107.700 Y76.410 E0.01074
G1 X107.850 Y76.980 E0.01026
G1 X108.010 Y77.730 E0.01335
G1 X108.060 Y78.060 E0.00581
G1 X108.150 Y78.880 E0.01436
G1 X108.200 Y79.670 E0.01378
G1 X108.200 Y80.280 E0.01062
G1 X108.160 Y81.000 E0.01256
G1 X108.020 Y82.180 E0.02069
G1 X107.910 Y82.770 E0.01045
G1 X107.720 Y83.540 E0.01381
G1 X107.550 Y84.100 E0.01019
G1 X107.300 Y84.800 E0.01294
G1 X107.060 Y85.370 E0.01077
G1 X106.770 Y85.980 E0.01176
G1 X106.480 Y86.520 E0.01067
G1 X106.090 Y87.150 E0.01290
G1 X105.470 Y88.040 E0.01889
G1 X104.980 Y88.640 E0.01349
G1 X104.630 Y89.030 E0.00912
G1 X104.070 Y89.590 E0.01379
G1 X103.600 Y90.010 E0.01097
G1 X102.630 Y90.760 E0.02135
G1 X102.040 Y91.160 E0.01241
G1 X101.540 Y91.460 E0.01015
G1 X100.960 Y91.770 E0.01145
G1 X100.420 Y92.030 E0.01043
G1 X99.730 Y92.320 E0.01303
G1 X99.170 Y92.520 E0.01035
G1 X98.580 Y92.700 E0.01074
G1 X97.430 Y92.980 E0.02061
G1 X92.710 Y93.810 E0.08344
G1 X91.870 Y93.940 E0.01480
G1 X75.630 Y96.360 E0.28588
G1 X74.590 Y96.440 E0.01816
G1 X65.400 Y96.440 E0.16001
G1 X64.350 Y96.360 E0.01833
G1 X49.650 Y94.160 E0.25879
G1 X42.920 Y93.040 E0.11879
G1 X42.150 Y92.890 E0.01366
G1 X41.450 Y92.720 E0.01254
G1 X40.890 Y92.550 E0.01019
G1 X40.190 Y92.300 E0.01294
G1 X39.620 Y92.060 E0.01077
G1 X39.010 Y91.760 E0.01184
G1 X38.490 Y91.480 E0.01028
G1 X37.940 Y91.150 E0.01117
G1 X37.440 Y90.820 E0.01043
G1 X36.830 Y90.380 E0.01310
G1 X36.380 Y90.010 E0.01014
G1 X35.870 Y89.540 E0.01208
G1 X35.450 Y89.120 E0.01034
G1 X34.990 Y88.620 E0.01183
G1 X34.610 Y88.160 E0.01039
G1 X34.140 Y87.510 E0.01397
G1 X33.530 Y86.550 E0.01980
G1 X33.240 Y86.020 E0.01052
G1 X32.890 Y85.280 E0.01425
G1 X32.460 Y84.160 E0.02089
G1 X32.280 Y83.580 E0.01057
G1 X32.090 Y82.790 E0.01415
G1 X31.870 Y81.490 E0.02296
G1 X31.820 Y80.820 E0.01170
G1 X31.800 Y79.750 E0.01863
G1 X31.820 Y79.160 E0.01028
G1 X31.900 Y78.300 E0.01504
G1 X31.990 Y77.720 E0.01022
G1 X32.120 Y77.060 E0.01171
G1 X32.270 Y76.470 E0.01060
G1 X32.470 Y75.820 E0.01184
G1 X32.670 Y75.260 E0.01035
G1 X32.960 Y74.570 E0.01303
G1 X33.210 Y74.050 E0.01005
G1 X33.490 Y73.520 E0.01044
G1 X33.790 Y73.010 E0.01030
G1 X34.220 Y72.370 E0.01342
G1 X34.570 Y71.900 E0.01020
G1 X35.010 Y71.360 E0.01213
G1 X35.410 Y70.920 E0.01035
G1 X35.890 Y70.440 E0.01182
G1 X36.340 Y70.030 E0.01060
G1 X36.890 Y69.580 E0.01237
G1 X37.360 Y69.230 E0.01020
G1 X37.890 Y68.870 E0.01116
G1 X38.306 Y68.615 E0.00849
G1 X38.380 Y68.570 E0.00151
G1 X38.680 Y69.060 F9000.000
G1 X39.310 Y68.720 F1170.000 E0.01246
G1 X39.860 Y68.460 E0.01059
G1 X40.490 Y68.200 E0.01187
G1 X41.030 Y68.010 E0.00997
G1 X41.690 Y67.810 E0.01201
G1 X42.320 Y67.660 E0.01128
G1 X42.930 Y67.540 E0.01082
G1 X46.380 Y66.900 E0.06109
G1 X61.210 Y64.680 E0.26108
G1 X65.080 Y64.240 E0.06781
G1 X65.820 Y64.200 E0.01290
G1 X66.470 Y64.200 E0.01132
G1 X67.080 Y64.230 E0.01063
G1 X70.860 Y64.580 E0.06609
G1 X91.780 Y66.650 E0.36601
G1 X93.360 Y66.870 E0.02777
G1 X97.630 Y67.650 E0.07557
G1 X98.370 Y67.830 E0.01326
G1 X98.930 Y68.000 E0.01019
G1 X99.590 Y68.230 E0.01217
G1 X100.180 Y68.480 E0.01116
G1 X100.740 Y68.750 E0.01082
G1 X101.530 Y69.190 E0.01574
G1 X102.320 Y69.710 E0.01647
G1 X102.820 Y70.090 E0.01093
G1 X103.670 Y70.830 E0.01962
G1 X104.120 Y71.280 E0.01108
G1 X104.530 Y71.730 E0.01060
G1 X104.950 Y72.230 E0.01137
G1 X105.300 Y72.700 E0.01020
G1 X105.960 Y73.750 E0.02159
G1 X106.250 Y74.280 E0.01052
G1 X106.510 Y74.820 E0.01043
G1 X106.780 Y75.460 E0.01209
G1 X106.980 Y76.020 E0.01035
G1 X107.290 Y77.130 E0.02007
G1 X107.430 Y77.810 E0.01209
G1 X107.520 Y78.400 E0.01039
G1 X107.580 Y78.940 E0.00946
G1 X107.620 Y79.670 E0.01273
G1 X107.620 Y80.280 E0.01062
G1 X107.580 Y80.950 E0.01169
G1 X107.450 Y82.080 E0.01980
G1 X107.340 Y82.670 E0.01045
G1 X107.160 Y83.370 E0.01258
G1 X106.990 Y83.930 E0.01019
G1 X106.760 Y84.570 E0.01184
G1 X106.260 Y85.700 E0.02151
G1 X105.970 Y86.240 E0.01067
G1 X105.610 Y86.830 E0.01203
G1 X105.270 Y87.330 E0.01053
G1 X104.830 Y87.910 E0.01268
G1 X104.200 Y88.640 E0.01679
G1 X103.680 Y89.160 E0.01280
G1 X102.760 Y89.950 E0.02111
G1 X102.290 Y90.300 E0.01020
G1 X101.740 Y90.660 E0.01144
G1 X100.710 Y91.250 E0.02067
G1 X100.170 Y91.510 E0.01043
G1 X99.530 Y91.780 E0.01209
G1 X98.970 Y91.980 E0.01035
G1 X98.430 Y92.140 E0.00981
G1 X97.330 Y92.410 E0.01972
G1 X92.610 Y93.240 E0.08344
G1 X91.780 Y93.370 E0.01463
G1 X75.550 Y95.790 E0.28570
G1 X74.590 Y95.860 E0.01676
G1 X65.400 Y95.860 E0.16001
G1 X64.430 Y95.790 E0.01693
G1 X49.740 Y93.590 E0.25862
G1 X42.820 Y92.440 E0.12214
G1 X42.260 Y92.330 E0.00994
G1 X41.060 Y91.990 E0.02172
G1 X40.420 Y91.760 E0.01184
G1 X39.850 Y91.520 E0.01077
G1 X39.280 Y91.250 E0.01098
G1 X38.760 Y90.970 E0.01028
G1 X38.260 Y90.670 E0.01015
G1 X37.760 Y90.340 E0.01043
G1 X37.200 Y89.930 E0.01208
G1 X36.750 Y89.560 E0.01014
G1 X36.280 Y89.130 E0.01109
G1 X35.860 Y88.710 E0.01034
G1 X35.440 Y88.250 E0.01085
G1 X35.060 Y87.790 E0.01039
G1 X34.620 Y87.200 E0.01281
G1 X34.300 Y86.710 E0.01019
G1 X33.750 Y85.740 E0.01941
G1 X33.430 Y85.060 E0.01308
G1 X33.020 Y83.990 E0.01995
G1 X32.840 Y83.410 E0.01057
G1 X32.660 Y82.690 E0.01292
G1 X32.550 Y82.110 E0.01028
G1 X32.450 Y81.410 E0.01231
G1 X32.400 Y80.800 E0.01066
G1 X32.380 Y79.770 E0.01794
G1 X32.400 Y79.180 E0.01028
G1 X32.470 Y78.390 E0.01381
G1 X32.560 Y77.810 E0.01022
G1 X32.680 Y77.200 E0.01082
G1 X32.830 Y76.610 E0.01060
G1 X33.010 Y76.020 E0.01074
G1 X33.210 Y75.460 E0.01035
G1 X33.480 Y74.820 E0.01209
G1 X33.730 Y74.300 E0.01005
G1 X33.990 Y73.810 E0.00966
G1 X34.290 Y73.300 E0.01030
G1 X34.680 Y72.710 E0.01231
G1 X35.030 Y72.240 E0.01020
G1 X35.440 Y71.740 E0.01126
G1 X35.840 Y71.300 E0.01035
G1 X36.730 Y70.460 E0.02131
G1 X37.230 Y70.040 E0.01137
G1 X37.700 Y69.690 E0.01020
G1 X38.606 Y69.105 E0.01877
G1 X38.680 Y69.060 E0.00151
G1 X48.323 Y73.927 F9000.000
G1 X47.587 Y73.377 F1080.000 E0.01600
G1 X48.323 Y73.267 E0.01295
G1 X50.653 Y75.724 F9000.000
G1 X48.977 Y74.417 F1080.000 E0.03701
G1 X48.977 Y73.169 E0.02172
G1 X53.323 Y72.519 E0.07650
G1 X53.323 Y75.119 E0.04526
G1 X52.841 Y75.397 E0.00969
G1 X54.129 Y75.207 F9000.000
G1 X53.977 Y75.119 F1080.000 E0.00305
G1 X53.977 Y72.422 E0.04697
G1 X58.209 Y71.789 E0.07450
G1 X58.323 Y71.854 E0.00229
G1 X58.323 Y74.580 E0.04745
G1 X54.594 Y75.137 E0.06564
G1 X58.977 Y74.482 F9000.000
G1 X58.977 Y71.854 F1080.000 E0.04574
G1 X59.399 Y71.611 E0.00848
G1 X62.181 Y71.195 E0.04897
G1 X63.323 Y71.854 E0.02296
G1 X63.323 Y73.831 E0.03441
G1 X65.458 Y73.565 F9000.000
G1 X65.458 Y73.511 F1080.000 E0.00095
G1 X63.977 Y73.733 E0.02607
G1 X63.977 Y71.854 E0.03270
G1 X65.823 Y70.789 E0.03710
G1 X66.477 Y70.789 E0.01139
G1 X68.323 Y71.854 E0.03710
G1 X68.323 Y73.291 E0.02502
G1 X68.977 Y73.291 F9000.000
G1 X68.977 Y71.854 F1080.000 E0.02502
G1 X70.223 Y71.135 E0.02505
G1 X72.460 Y71.356 F9000.000
G1 X73.323 Y71.854 F1080.000 E0.01735
G1 X73.323 Y75.119 E0.05684
G1 X71.909 Y75.935 E0.02843
G1 X74.541 Y75.445 F9000.000
G1 X73.977 Y75.119 F1080.000 E0.01134
G1 X73.977 Y71.854 E0.05684
G1 X74.492 Y71.557 E0.01035
G1 X78.323 Y71.936 F9000.000
G1 X78.323 Y74.076 F1080.000 E0.03726
G1 X75.164 Y73.604 E0.05561
G1 X83.323 Y74.824 F9000.000
G1 X78.977 Y74.174 F1080.000 E0.07650
G1 X78.977 Y72.001 E0.03784
G1 X87.701 Y75.478 F9000.000
G1 X83.977 Y74.922 F1080.000 E0.06555
G1 X83.977 Y72.495 E0.04225
G1 X88.323 Y72.925 F9000.000
G1 X88.323 Y75.119 F1080.000 E0.03820
G1 X89.607 Y75.483 F9000.000
G1 X88.977 Y75.119 F1080.000 E0.01267
G1 X88.977 Y72.990 E0.03708
G1 X91.136 Y73.203 F9000.000
G1 X91.118 Y73.228 F1080.000 E0.00054
G1 X91.867 Y73.301 E0.01310
G1 X91.841 Y73.327 E0.00064
G1 X92.404 Y73.383 E0.00986
G1 X91.477 Y86.763 F9000.000
G1 X91.477 Y85.912 F1080.000 E0.01482
G1 X90.823 Y85.423 E0.01422
G1 X90.823 Y86.861 E0.02502
G1 X86.477 Y87.510 F9000.000
G1 X86.477 Y84.845 F1080.000 E0.04641
G1 X86.805 Y84.656 E0.00659
G1 X85.928 Y84.787 E0.01544
G1 X85.764 Y84.811 E0.00288
G1 X85.823 Y84.845 E0.00117
G1 X85.823 Y87.608 E0.04812
G1 X81.682 Y88.227 F9000.000
G1 X81.477 Y88.109 F1080.000 E0.00411
G1 X81.477 Y85.452 E0.04626
G1 X80.823 Y85.550 E0.01152
G1 X80.823 Y88.109 E0.04456
G1 X80.247 Y88.442 E0.01158
G1 X73.977 Y89.287 F9000.000
G1 X73.977 Y89.175 F1080.000 E0.00196
G1 X75.823 Y88.109 E0.03710
G1 X75.823 Y86.298 E0.03155
G1 X76.477 Y86.200 E0.01152
G1 X76.477 Y88.109 E0.03325
G1 X77.710 Y88.821 E0.02479
G1 X74.592 Y89.287 E0.05490
G1 X71.477 Y86.709 F9000.000
G1 X71.477 Y88.109 F1080.000 E0.02439
G1 X73.323 Y89.175 E0.03710
G1 X73.323 Y89.287 E0.00196
G1 X68.977 Y89.287 F9000.000
G1 X68.977 Y89.175 F1080.000 E0.00196
G1 X70.823 Y88.109 E0.03710
G1 X70.823 Y86.709 E0.02439
G1 X68.091 Y83.913 F9000.000
G1 X66.477 Y84.845 F1080.000 E0.03245
G1 X66.477 Y88.109 E0.05684
G1 X68.323 Y89.175 E0.03710
G1 X68.323 Y89.287 E0.00196
G1 X65.408 Y89.287 F9000.000
G1 X64.117 Y89.094 F1080.000 E0.02274
G1 X65.823 Y88.109 E0.03430
G1 X65.823 Y84.845 E0.05684
G1 X65.459 Y84.635 E0.00732
G1 X62.857 Y88.906 F9000.000
G1 X60.145 Y88.501 F1080.000 E0.04774
G1 X60.823 Y88.109 E0.01362
G1 X60.823 Y85.796 E0.04028
G1 X61.477 Y85.894 E0.01152
G1 X61.477 Y88.109 E0.03857
G1 X56.477 Y87.952 F9000.000
G1 X55.823 Y87.854 F1080.000 E0.01152
G1 X55.823 Y85.048 E0.04885
G1 X56.477 Y85.146 E0.01152
G1 X51.477 Y84.845 F9000.000
G1 X52.091 Y84.490 F1080.000 E0.01234
G1 X50.663 Y84.277 E0.02514
G1 X50.338 Y84.565 E0.00756
G1 X50.823 Y84.845 E0.00975
G1 X50.823 Y87.107 E0.03938
G1 X51.477 Y87.205 E0.01152
G1 X65.459 Y79.659 F9000.000
G1 X65.823 Y79.449 F1080.000 E0.00732
G1 X65.823 Y76.185 E0.05684
G1 X65.459 Y75.974 E0.00732
G1 X68.091 Y75.253 F9000.000
G1 X66.477 Y76.185 F1080.000 E0.03245
G1 X66.477 Y79.449 E0.05684
G1 X68.091 Y80.381 E0.03245
G1 X71.909 Y79.698 F9000.000
G1 X73.323 Y80.515 F1080.000 E0.02843
G1 X73.323 Y83.779 E0.05684
G1 X71.909 Y84.596 E0.02843
G1 X74.541 Y84.105 F9000.000
G1 X73.977 Y83.779 F1080.000 E0.01134
G1 X73.977 Y80.515 E0.05684
G1 X74.541 Y80.189 E0.01134
G1 F1800.000 E-1.00000
G1 X90.511 Y80.000 F9000.000
G1 F1800.000 E1.00000
G1 X90.532 Y79.567 F990.000 E0.00753
G1 X90.594 Y79.143 E0.00747
G1 X90.696 Y78.725 E0.00749
G1 X90.844 Y78.306 E0.00774
G1 X91.033 Y77.900 E0.00779
G1 X91.260 Y77.518 E0.00775
G1 X91.525 Y77.159 E0.00776
G1 X91.835 Y76.817 E0.00803
G1 X92.151 Y76.531 E0.00743
G1 X92.522 Y76.257 E0.00801
G1 X92.900 Y76.033 E0.00766
G1 X93.309 Y75.842 E0.00786
G1 X93.722 Y75.697 E0.00761
G1 X94.150 Y75.593 E0.00766
G1 X94.573 Y75.532 E0.00744
G1 X95.000 Y75.511 E0.00746
G1 X95.432 Y75.532 E0.00753
G1 X95.857 Y75.594 E0.00747
G1 X96.275 Y75.696 E0.00749
G1 X96.694 Y75.844 E0.00774
G1 X97.100 Y76.033 E0.00779
G1 X97.482 Y76.260 E0.00775
G1 X97.841 Y76.525 E0.00776
G1 X98.183 Y76.835 E0.00803
G1 X98.469 Y77.151 E0.00743
G1 X98.743 Y77.522 E0.00801
G1 X98.967 Y77.900 E0.00766
G1 X99.158 Y78.309 E0.00786
G1 X99.303 Y78.722 E0.00761
G1 X99.407 Y79.150 E0.00766
G1 X99.468 Y79.573 E0.00744
G1 X99.487 Y79.935 E0.00632
G1 X99.474 Y80.358 E0.00738
G1 X99.420 Y80.784 E0.00748
G1 X99.323 Y81.207 E0.00755
G1 X99.156 Y81.694 E0.00896
G1 X98.967 Y82.100 E0.00779
G1 X98.740 Y82.482 E0.00775
G1 X98.475 Y82.841 E0.00776
G1 X98.165 Y83.183 E0.00803
G1 X97.849 Y83.469 E0.00743
G1 X97.478 Y83.743 E0.00801
G1 X97.100 Y83.967 E0.00766
G1 X96.691 Y84.158 E0.00786
G1 X96.278 Y84.303 E0.00761
G1 X95.850 Y84.407 E0.00766
G1 X95.427 Y84.468 E0.00744
G1 X95.000 Y84.489 E0.00746
G1 X94.567 Y84.468 E0.00753
G1 X94.143 Y84.406 E0.00747
G1 X93.725 Y84.304 E0.00749
G1 X93.306 Y84.156 E0.00774
G1 X92.900 Y83.967 E0.00779
G1 X92.518 Y83.740 E0.00775
G1 X92.159 Y83.475 E0.00776
G1 X91.817 Y83.165 E0.00804
G1 X91.531 Y82.849 E0.00743
G1 X91.257 Y82.478 E0.00801
G1 X91.033 Y82.100 E0.00766
G1 X90.842 Y81.691 E0.00786
G1 X90.697 Y81.278 E0.00761
G1 X90.593 Y80.850 E0.00766
G1 X90.532 Y80.427 E0.00744
G1 X90.514 Y80.086 E0.00595
G1 X90.511 Y80.000 E0.00151
G1 X91.090 Y80.000 F9000.000
G1 X91.108 Y79.630 F990.000 E0.00644
G1 X91.160 Y79.263 E0.00646
G1 X91.248 Y78.899 E0.00652
G1 X91.375 Y78.534 E0.00673
G1 X91.539 Y78.180 E0.00679
G1 X91.738 Y77.844 E0.00680
G1 X91.970 Y77.528 E0.00683
G1 X92.239 Y77.231 E0.00697
G1 X92.525 Y76.973 E0.00672
G1 X92.847 Y76.736 E0.00696
G1 X93.180 Y76.540 E0.00673
G1 X93.537 Y76.374 E0.00685
G1 X93.897 Y76.249 E0.00663
G1 X94.268 Y76.159 E0.00665
G1 X94.634 Y76.107 E0.00643
G1 X95.000 Y76.090 E0.00639
G1 X95.370 Y76.108 E0.00644
G1 X95.737 Y76.160 E0.00646
G1 X96.101 Y76.248 E0.00652
G1 X96.466 Y76.375 E0.00673
G1 X96.820 Y76.539 E0.00679
G1 X97.156 Y76.738 E0.00680
G1 X97.472 Y76.970 E0.00683
G1 X97.769 Y77.239 E0.00697
G1 X98.027 Y77.525 E0.00672
G1 X98.264 Y77.847 E0.00696
G1 X98.460 Y78.180 E0.00673
G1 X98.626 Y78.537 E0.00685
G1 X98.751 Y78.897 E0.00663
G1 X98.841 Y79.268 E0.00665
G1 X98.893 Y79.634 E0.00643
G1 X98.909 Y79.956 E0.00561
G1 X98.896 Y80.321 E0.00637
G1 X98.848 Y80.691 E0.00650
G1 X98.764 Y81.059 E0.00656
G1 X98.625 Y81.466 E0.00750
G1 X98.461 Y81.820 E0.00679
G1 X98.262 Y82.156 E0.00680
G1 X98.030 Y82.472 E0.00683
G1 X97.761 Y82.769 E0.00697
G1 X97.475 Y83.027 E0.00672
G1 X97.153 Y83.264 E0.00696
G1 X96.820 Y83.460 E0.00673
G1 X96.463 Y83.626 E0.00685
G1 X96.103 Y83.751 E0.00663
G1 X95.732 Y83.841 E0.00665
G1 X95.366 Y83.893 E0.00643
G1 X95.000 Y83.910 E0.00639
G1 X94.630 Y83.892 E0.00644
G1 X94.263 Y83.840 E0.00646
G1 X93.899 Y83.752 E0.00652
G1 X93.534 Y83.625 E0.00673
G1 X93.180 Y83.461 E0.00679
G1 X92.844 Y83.262 E0.00680
G1 X92.528 Y83.030 E0.00683
G1 X92.231 Y82.761 E0.00697
G1 X91.973 Y82.475 E0.00671
G1 X91.736 Y82.153 E0.00696
G1 X91.540 Y81.820 E0.00673
G1 X91.374 Y81.463 E0.00685
G1 X91.249 Y81.103 E0.00663
G1 X91.159 Y80.732 E0.00665
G1 X91.107 Y80.366 E0.00643
G1 X91.093 Y80.087 E0.00488
G1 X91.090 Y80.000 E0.00151
G1 X89.529 Y80.012 F9000.000
G1 X89.556 Y79.458 F990.000 E0.00965
G1 X89.632 Y78.941 E0.00911
G1 X89.768 Y78.401 E0.00969
G1 X89.952 Y77.889 E0.00947
G1 X90.169 Y77.431 E0.00883
G1 X90.445 Y76.969 E0.00937
G1 X90.759 Y76.543 E0.00921
G1 X91.133 Y76.130 E0.00970
G1 X91.568 Y75.740 E0.01018
G1 X91.956 Y75.454 E0.00838
G1 X92.431 Y75.170 E0.00964
G1 X92.876 Y74.958 E0.00857
G1 X93.384 Y74.773 E0.00941
G1 X93.791 Y74.665 E0.00734
G1 X94.185 Y74.590 E0.00698
G1 X94.817 Y74.511 E0.01109
G1 X95.542 Y74.556 E0.01264
G1 X96.059 Y74.632 E0.00911
G1 X96.599 Y74.768 E0.00969
