; generated by Slic3r 0.9.7 on 2012-12-06 at 16:12:21

; layer_height = 0.3
; perimeters = 3
; top_solid_layers = 3
; bottom_solid_layers = 3
; fill_density = .5
; perimeter_speed = 65
; infill_speed = 80
; travel_speed = 150
; scale = 1
; nozzle_diameter = 0.5
; filament_diameter = 2.83
; extrusion_multiplier = .631
; perimeters extrusion width = 0.70mm
; infill extrusion width = 0.70mm
; first layer extrusion width = 0.60mm

M104 S200 ; set temperature
G28 ; home all axes
M104 S200 ; set temperature
M116 ; wait for temperature to be reached
G90 ; use absolute coordinates
G21 ; set units to millimeters
G1 F1800.000 E-1.00000
G1 Z0.300 F9000.000
G1 X57.540 Y62.540
G1 F1800.000 E1.00000
G1 X58.160 Y62.010 F1170.000 E0.01420
G1 X58.610 Y61.690 E0.00961
G1 X59.080 Y61.410 E0.00953
G1 X59.570 Y61.170 E0.00950
G1 X60.080 Y60.960 E0.00960
G1 X60.870 Y60.730 E0.01433
G1 X61.140 Y60.670 E0.00482
G1 X61.950 Y60.560 E0.01423
G1 X62.500 Y60.540 E0.00958
G1 X77.490 Y60.540 E0.26099
G1 X78.040 Y60.560 E0.00958
G1 X78.850 Y60.670 E0.01423
G1 X79.390 Y60.800 E0.00967
G1 X79.910 Y60.960 E0.00947
G1 X80.170 Y61.060 E0.00485
G1 X80.910 Y61.410 E0.01425
G1 X81.380 Y61.690 E0.00953
G1 X81.610 Y61.850 E0.00488
G1 X82.250 Y62.360 E0.01425
G1 X82.450 Y62.540 E0.00468
G1 X82.830 Y62.940 E0.00961
G1 X83.340 Y63.580 E0.01425
G1 X83.500 Y63.810 E0.00488
G1 X83.780 Y64.280 E0.00953
G1 X84.020 Y64.770 E0.00950
G1 X84.230 Y65.280 E0.00960
G1 X84.390 Y65.800 E0.00947
G1 X84.520 Y66.340 E0.00967
G1 X84.630 Y67.150 E0.01423
G1 X84.650 Y67.700 E0.00958
G1 X84.650 Y92.290 E0.42813
G1 X84.630 Y92.840 E0.00958
G1 X84.520 Y93.650 E0.01423
G1 X84.390 Y94.190 E0.00967
G1 X84.230 Y94.710 E0.00947
G1 X84.130 Y94.970 E0.00485
G1 X83.780 Y95.710 E0.01425
G1 X83.500 Y96.180 E0.00953
G1 X83.010 Y96.840 E0.01431
G1 X82.450 Y97.450 E0.01442
G1 X81.830 Y97.980 E0.01420
G1 X81.380 Y98.300 E0.00961
G1 X80.910 Y98.580 E0.00953
G1 X80.420 Y98.820 E0.00950
G1 X79.910 Y99.030 E0.00960
G1 X79.120 Y99.260 E0.01433
G1 X78.850 Y99.320 E0.00482
G1 X78.040 Y99.430 E0.01423
G1 X77.490 Y99.450 E0.00958
G1 X62.500 Y99.450 E0.26099
G1 X61.950 Y99.430 E0.00958
G1 X61.140 Y99.320 E0.01423
G1 X60.600 Y99.190 E0.00967
G1 X60.080 Y99.030 E0.00947
G1 X59.820 Y98.930 E0.00485
G1 X59.080 Y98.580 E0.01425
G1 X58.610 Y98.300 E0.00953
G1 X58.380 Y98.140 E0.00488
G1 X57.740 Y97.630 E0.01425
G1 X57.540 Y97.450 E0.00468
G1 X57.160 Y97.050 E0.00961
G1 X56.650 Y96.410 E0.01425
G1 X56.490 Y96.180 E0.00488
G1 X56.210 Y95.710 E0.00953
G1 X55.970 Y95.220 E0.00950
G1 X55.760 Y94.710 E0.00960
G1 X55.600 Y94.190 E0.00947
G1 X55.470 Y93.650 E0.00967
G1 X55.360 Y92.840 E0.01423
G1 X55.340 Y92.290 E0.00958
G1 X55.340 Y67.700 E0.42813
G1 X55.360 Y67.150 E0.00958
G1 X55.470 Y66.340 E0.01423
G1 X55.600 Y65.800 E0.00967
G1 X55.760 Y65.280 E0.00947
G1 X55.860 Y65.020 E0.00485
G1 X56.210 Y64.280 E0.01425
G1 X56.490 Y63.810 E0.00953
G1 X56.980 Y63.150 E0.01431
G1 X57.479 Y62.601 E0.01291
G1 X57.540 Y62.540 E0.00151
G1 X57.940 Y62.960 F9000.000
G1 X58.340 Y62.600 F1170.000 E0.00937
G1 X58.980 Y62.140 E0.01372
G1 X59.440 Y61.870 E0.00929
G1 X59.920 Y61.650 E0.00919
G1 X60.420 Y61.460 E0.00931
G1 X60.930 Y61.310 E0.00926
G1 X61.180 Y61.250 E0.00448
G1 X61.970 Y61.140 E0.01389
G1 X62.500 Y61.120 E0.00923
G1 X77.490 Y61.120 E0.26099
G1 X78.020 Y61.140 E0.00923
G1 X78.280 Y61.170 E0.00456
G1 X78.810 Y61.250 E0.00933
G1 X79.060 Y61.310 E0.00448
G1 X79.820 Y61.550 E0.01388
G1 X80.550 Y61.870 E0.01388
G1 X81.010 Y62.140 E0.00929
G1 X81.650 Y62.600 E0.01372
G1 X82.230 Y63.140 E0.01380
G1 X82.590 Y63.540 E0.00937
G1 X82.750 Y63.750 E0.00460
G1 X83.050 Y64.180 E0.00913
G1 X83.320 Y64.640 E0.00929
G1 X83.640 Y65.370 E0.01388
G1 X83.810 Y65.870 E0.00919
G1 X83.940 Y66.380 E0.00916
G1 X84.050 Y67.170 E0.01389
G1 X84.070 Y67.700 E0.00923
G1 X84.070 Y92.290 E0.42813
G1 X84.050 Y92.820 E0.00923
G1 X83.940 Y93.610 E0.01389
G1 X83.810 Y94.120 E0.00916
G1 X83.540 Y94.870 E0.01388
G1 X83.320 Y95.350 E0.00919
G1 X83.050 Y95.810 E0.00929
G1 X82.590 Y96.450 E0.01372
G1 X82.230 Y96.850 E0.00937
G1 X81.650 Y97.390 E0.01380
G1 X81.440 Y97.550 E0.00460
G1 X81.010 Y97.850 E0.00913
G1 X80.550 Y98.120 E0.00929
G1 X79.820 Y98.440 E0.01388
G1 X79.320 Y98.610 E0.00919
G1 X78.810 Y98.740 E0.00916
G1 X78.020 Y98.850 E0.01389
G1 X77.490 Y98.870 E0.00923
G1 X62.500 Y98.870 E0.26099
G1 X61.970 Y98.850 E0.00923
G1 X61.710 Y98.820 E0.00456
G1 X61.180 Y98.740 E0.00933
G1 X60.930 Y98.680 E0.00448
G1 X60.170 Y98.440 E0.01388
G1 X59.440 Y98.120 E0.01388
G1 X58.980 Y97.850 E0.00929
G1 X58.340 Y97.390 E0.01372
G1 X57.760 Y96.850 E0.01380
G1 X57.400 Y96.450 E0.00937
G1 X57.240 Y96.240 E0.00460
G1 X56.940 Y95.810 E0.00913
G1 X56.670 Y95.350 E0.00929
G1 X56.350 Y94.620 E0.01388
G1 X56.180 Y94.120 E0.00919
G1 X56.050 Y93.610 E0.00916
G1 X55.940 Y92.820 E0.01389
G1 X55.920 Y92.290 E0.00923
G1 X55.920 Y67.700 E0.42813
G1 X55.940 Y67.170 E0.00923
G1 X56.050 Y66.380 E0.01389
G1 X56.180 Y65.870 E0.00916
G1 X56.450 Y65.120 E0.01388
G1 X56.670 Y64.640 E0.00919
G1 X56.940 Y64.180 E0.00929
G1 X57.400 Y63.540 E0.01372
G1 X57.879 Y63.021 E0.01229
G1 X57.940 Y62.960 E0.00151
G1 F1800.000 E-1.00000
G1 X64.321 Y69.521 F9000.000
G1 F1800.000 E1.00000
G1 X75.679 Y69.521 F1170.000 E0.19774
G1 X75.679 Y90.479 E0.36488
G1 X64.321 Y90.479 E0.19774
G1 X64.321 Y69.608 E0.36337
G1 X64.321 Y69.521 E0.00151
G1 X64.900 Y70.100 F9000.000
G1 X75.100 Y70.100 F1170.000 E0.17759
G1 X75.100 Y89.900 E0.34474
G1 X64.900 Y89.900 E0.17759
G1 X64.900 Y70.187 E0.34322
G1 X64.900 Y70.100 E0.00151
G1 X65.189 Y69.599 F9000.000
G1 F1800.000 E-1.00000
G1 X63.079 Y68.279 F9000.000
G1 F1800.000 E1.00000
G1 X76.921 Y68.279 F1170.000 E0.24102
G1 X76.921 Y91.721 E0.40816
G1 X63.079 Y91.721 E0.24102
G1 X63.079 Y68.365 E0.40665
G1 X63.079 Y68.279 E0.00151
G1 X62.500 Y67.700 F9000.000
G1 X77.500 Y67.700 F1170.000 E0.26116
G1 X77.500 Y92.300 E0.42831
G1 X62.500 Y92.300 E0.26116
G1 X62.500 Y67.787 E0.42680
G1 X62.500 Y67.700 E0.00151
G1 X62.794 Y67.191 F9000.000
G1 F1800.000 E-1.00000
G1 X63.852 Y91.316 F9000.000
G1 F1800.000 E1.00000
G1 X63.484 Y90.948 F360.000 E0.00922
G1 X63.916 Y90.549 E0.01042
G1 X63.484 Y90.116 E0.01083
G1 X63.916 Y89.718 E0.01042
G1 X63.484 Y89.285 E0.01083
G1 X63.916 Y88.886 E0.01042
G1 X63.484 Y88.453 E0.01083
G1 X63.916 Y88.054 E0.01042
G1 X63.484 Y87.621 E0.01083
G1 X63.916 Y87.223 E0.01042
G1 X63.484 Y86.790 E0.01083
G1 X63.916 Y86.391 E0.01042
G1 X63.484 Y85.958 E0.01083
G1 X63.916 Y85.559 E0.01042
G1 X63.484 Y85.126 E0.01083
G1 X63.916 Y84.728 E0.01042
G1 X63.484 Y84.295 E0.01083
G1 X63.916 Y83.896 E0.01042
G1 X63.484 Y83.463 E0.01083
G1 X63.916 Y83.064 E0.01042
G1 X63.484 Y82.632 E0.01083
G1 X63.916 Y82.233 E0.01042
G1 X63.484 Y81.800 E0.01083
G1 X63.916 Y81.401 E0.01042
G1 X63.484 Y80.968 E0.01083
G1 X63.916 Y80.569 E0.01042
G1 X63.484 Y80.137 E0.01083
G1 X63.916 Y79.738 E0.01042
G1 X63.484 Y79.305 E0.01083
G1 X63.916 Y78.906 E0.01042
G1 X63.484 Y78.473 E0.01083
G1 X63.916 Y78.075 E0.01042
G1 X63.484 Y77.642 E0.01083
G1 X63.916 Y77.243 E0.01042
G1 X63.484 Y76.810 E0.01083
G1 X63.916 Y76.411 E0.01041
G1 X63.484 Y75.979 E0.01083
G1 X63.916 Y75.580 E0.01042
G1 X63.484 Y75.147 E0.01083
G1 X63.916 Y74.748 E0.01041
G1 X63.484 Y74.315 E0.01083
G1 X63.916 Y73.916 E0.01042
G1 X63.484 Y73.484 E0.01083
G1 X63.916 Y73.085 E0.01042
G1 X63.484 Y72.652 E0.01083
G1 X63.916 Y72.253 E0.01041
G1 X63.484 Y71.820 E0.01083
G1 X63.916 Y71.421 E0.01042
G1 X63.484 Y70.989 E0.01083
G1 X63.916 Y70.590 E0.01041
G1 X63.484 Y70.157 E0.01083
G1 X63.916 Y69.758 E0.01042
G1 X63.484 Y69.325 E0.01083
G1 X64.106 Y69.116 E0.01162
G1 X63.673 Y68.684 E0.01083
G1 X64.505 Y68.684 E0.01472
G1 X64.938 Y69.116 E0.01083
G1 X65.337 Y68.684 E0.01042
G1 X65.770 Y69.116 E0.01083
G1 X66.168 Y68.684 E0.01041
G1 X66.601 Y69.116 E0.01083
G1 X67.000 Y68.684 E0.01042
G1 X67.433 Y69.116 E0.01083
G1 X67.832 Y68.684 E0.01041
G1 X68.264 Y69.116 E0.01083
G1 X68.663 Y68.684 E0.01042
G1 X69.096 Y69.116 E0.01083
G1 X69.495 Y68.684 E0.01041
G1 X69.928 Y69.116 E0.01083
G1 X70.327 Y68.684 E0.01042
G1 X70.759 Y69.116 E0.01083
G1 X71.158 Y68.684 E0.01042
G1 X71.591 Y69.116 E0.01083
G1 X71.990 Y68.684 E0.01041
G1 X72.423 Y69.116 E0.01083
G1 X72.821 Y68.684 E0.01042
G1 X73.254 Y69.116 E0.01083
G1 X73.653 Y68.684 E0.01041
G1 X74.086 Y69.116 E0.01083
G1 X74.485 Y68.684 E0.01042
G1 X74.918 Y69.116 E0.01083
G1 X75.316 Y68.684 E0.01041
G1 X75.749 Y69.116 E0.01083
G1 X76.084 Y69.451 F9000.000
G1 X76.516 Y69.884 F360.000 E0.01083
G1 X76.084 Y70.282 E0.01041
G1 X76.516 Y70.715 E0.01083
G1 X76.084 Y71.114 E0.01042
G1 X76.516 Y71.547 E0.01083
G1 X76.084 Y71.946 E0.01041
G1 X76.516 Y72.378 E0.01083
G1 X76.084 Y72.777 E0.01042
G1 X76.516 Y73.210 E0.01083
G1 X76.084 Y73.609 E0.01041
G1 X76.516 Y74.042 E0.01083
G1 X76.084 Y74.441 E0.01042
G1 X76.516 Y74.873 E0.01083
G1 X76.084 Y75.272 E0.01042
G1 X76.516 Y75.705 E0.01083
G1 X76.084 Y76.104 E0.01041
G1 X76.516 Y76.537 E0.01083
G1 X76.084 Y76.936 E0.01042
G1 X76.516 Y77.368 E0.01083
G1 X76.084 Y77.767 E0.01041
G1 X76.516 Y78.200 E0.01083
G1 X76.084 Y78.599 E0.01042
G1 X76.516 Y79.032 E0.01083
G1 X76.084 Y79.430 E0.01041
G1 X76.516 Y79.863 E0.01083
G1 X76.084 Y80.262 E0.01042
G1 X76.516 Y80.695 E0.01083
G1 X76.084 Y81.094 E0.01042
G1 X76.516 Y81.527 E0.01083
G1 X76.084 Y81.925 E0.01041
G1 X76.516 Y82.358 E0.01083
G1 X76.084 Y82.757 E0.01042
G1 X76.516 Y83.190 E0.01083
G1 X76.084 Y83.589 E0.01041
G1 X76.516 Y84.021 E0.01083
G1 X76.084 Y84.420 E0.01042
G1 X76.516 Y84.853 E0.01083
G1 X76.084 Y85.252 E0.01041
G1 X76.516 Y85.685 E0.01083
G1 X76.084 Y86.084 E0.01042
G1 X76.516 Y86.516 E0.01083
G1 X76.084 Y86.915 E0.01042
G1 X76.516 Y87.348 E0.01083
G1 X76.084 Y87.747 E0.01041
G1 X76.516 Y88.180 E0.01083
G1 X76.084 Y88.579 E0.01042
G1 X76.516 Y89.011 E0.01083
G1 X76.084 Y89.410 E0.01041
G1 X76.516 Y89.843 E0.01083
G1 X76.084 Y90.242 E0.01042
G1 X76.516 Y90.675 E0.01083
G1 X75.894 Y90.884 E0.01162
G1 X76.327 Y91.316 E0.01083
G1 X75.495 Y91.316 E0.01472
G1 X75.062 Y90.884 E0.01083
G1 X74.663 Y91.316 E0.01042
G1 X74.231 Y90.884 E0.01083
G1 X73.832 Y91.316 E0.01042
G1 X73.399 Y90.884 E0.01083
G1 X73.000 Y91.316 E0.01042
G1 X72.567 Y90.884 E0.01083
G1 X72.168 Y91.316 E0.01042
G1 X71.736 Y90.884 E0.01083
G1 X71.337 Y91.316 E0.01042
G1 X70.904 Y90.884 E0.01083
G1 X70.505 Y91.316 E0.01042
G1 X70.072 Y90.884 E0.01083
G1 X69.673 Y91.316 E0.01042
G1 X69.241 Y90.884 E0.01083
G1 X68.842 Y91.316 E0.01042
G1 X68.409 Y90.884 E0.01083
G1 X68.010 Y91.316 E0.01042
G1 X67.577 Y90.884 E0.01083
G1 X67.179 Y91.316 E0.01042
G1 X66.746 Y90.884 E0.01083
G1 X66.347 Y91.316 E0.01042
G1 X65.914 Y90.884 E0.01083
G1 X65.515 Y91.316 E0.01042
G1 X65.083 Y90.884 E0.01083
G1 X64.684 Y91.316 E0.01042
G1 X64.251 Y90.884 E0.01083
G1 F1800.000 E-1.00000
G1 X76.516 Y69.052 F9000.000
G1 F1800.000 E1.00000
G1 X76.148 Y68.684 F360.000 E0.00922
M104 S195 ; set temperature
G1 F1800.000 E-1.00000
G1 Z0.600 F9000.000
G1 X64.197 Y69.397
G1 F1800.000 E1.00000
G1 X75.803 Y69.397 F3900.000 E0.22860
G1 X75.803 Y90.603 E0.41769
G1 X64.197 Y90.603 E0.22860
G1 X64.197 Y69.495 E0.41575
G1 X64.197 Y69.397 E0.00193
G1 X64.852 Y70.052 F9000.000
G1 X75.148 Y70.052 F3900.000 E0.20281
G1 X75.148 Y89.948 E0.39190
G1 X64.852 Y89.948 E0.20281
G1 X64.852 Y70.150 E0.38997
G1 X64.852 Y70.052 E0.00193
G1 X65.179 Y69.485 F9000.000
G1 F1800.000 E-1.00000
G1 X63.203 Y68.403 F9000.000
G1 F1800.000 E1.00000
G1 X76.797 Y68.403 F3900.000 E0.26776
G1 X76.797 Y91.597 E0.45685
G1 X63.203 Y91.597 E0.26776
G1 X63.203 Y68.501 E0.45492
G1 X63.203 Y68.403 E0.00193
G1 X62.548 Y67.748 F9000.000
G1 X77.452 Y67.748 F3900.000 E0.29355
G1 X77.452 Y92.252 E0.48264
G1 X62.548 Y92.252 E0.29355
G1 X62.548 Y67.847 E0.48070
G1 X62.548 Y67.748 E0.00193
G1 F1800.000 E-1.00000
G1 Z0.900 F9000.000
G1 X64.197 Y69.397
G1 F1800.000 E1.00000
G1 X75.803 Y69.397 F3900.000 E0.22860
G1 X75.803 Y90.603 E0.41769
G1 X64.197 Y90.603 E0.22860
G1 X64.197 Y69.495 E0.41575
G1 X64.197 Y69.397 E0.00193
G1 X64.852 Y70.052 F9000.000
G1 X75.148 Y70.052 F3900.000 E0.20281
G1 X75.148 Y89.948 E0.39190
G1 X64.852 Y89.948 E0.20281
G1 X64.852 Y70.150 E0.38997
G1 X64.852 Y70.052 E0.00193
G1 X65.179 Y69.485 F9000.000
G1 F1800.000 E-1.00000
G1 X63.203 Y68.403 F9000.000
G1 F1800.000 E1.00000
G1 X76.797 Y68.403 F3900.000 E0.26776
G1 X76.797 Y91.597 E0.45685
G1 X63.203 Y91.597 E0.26776
G1 X63.203 Y68.501 E0.45492
G1 X63.203 Y68.403 E0.00193
G1 X62.548 Y67.748 F9000.000
G1 X77.452 Y67.748 F3900.000 E0.29355
G1 X77.452 Y92.252 E0.48264
G1 X62.548 Y92.252 E0.29355
G1 X62.548 Y67.847 E0.48070
G1 X62.548 Y67.748 E0.00193
G1 F1800.000 E-1.00000
G1 Z1.200 F9000.000
G1 X64.197 Y69.397
G1 F1800.000 E1.00000
G1 X75.803 Y69.397 F3900.000 E0.22860
G1 X75.803 Y90.603 E0.41769
G1 X64.197 Y90.603 E0.22860
G1 X64.197 Y69.495 E0.41575
G1 X64.197 Y69.397 E0.00193
G1 X64.852 Y70.052 F9000.000
G1 X75.148 Y70.052 F3900.000 E0.20281
G1 X75.148 Y89.948 E0.39190
G1 X64.852 Y89.948 E0.20281
G1 X64.852 Y70.150 E0.38997
G1 X64.852 Y70.052 E0.00193
G1 X65.179 Y69.485 F9000.000
G1 F1800.000 E-1.00000
G1 X76.797 Y68.403 F9000.000
G1 F1800.000 E1.00000
G1 X76.797 Y91.597 F3900.000 E0.45685
G1 X63.203 Y91.597 E0.26776
G1 X63.203 Y68.403 E0.45685
G1 X76.699 Y68.403 E0.26583
G1 X76.797 Y68.403 E0.00193
G1 X77.452 Y67.748 F9000.000
G1 X77.452 Y92.252 F3900.000 E0.48264
G1 X62.548 Y92.252 E0.29355
G1 X62.548 Y67.748 E0.48264
G1 X77.353 Y67.748 E0.29161
G1 X77.452 Y67.748 E0.00193
G1 F1800.000 E-1.00000
G1 Z1.500 F9000.000
G1 X64.197 Y69.397
G1 F1800.000 E1.00000
G1 X75.803 Y69.397 F3900.000 E0.22860
G1 X75.803 Y90.603 E0.41769
G1 X64.197 Y90.603 E0.22860
G1 X64.197 Y69.495 E0.41575
G1 X64.197 Y69.397 E0.00193
G1 X64.852 Y70.052 F9000.000
G1 X75.148 Y70.052 F3900.000 E0.20281
G1 X75.148 Y89.948 E0.39190
G1 X64.852 Y89.948 E0.20281
G1 X64.852 Y70.150 E0.38997
G1 X64.852 Y70.052 E0.00193
G1 X65.179 Y69.485 F9000.000
G1 F1800.000 E-1.00000
G1 X63.203 Y68.403 F9000.000
G1 F1800.000 E1.00000
G1 X76.797 Y68.403 F3900.000 E0.26776
G1 X76.797 Y91.597 E0.45685
G1 X63.203 Y91.597 E0.26776
G1 X63.203 Y68.501 E0.45492
G1 X63.203 Y68.403 E0.00193
G1 X62.548 Y67.748 F9000.000
G1 X77.452 Y67.748 F3900.000 E0.29355
G1 X77.452 Y92.252 E0.48264
G1 X62.548 Y92.252 E0.29355
G1 X62.548 Y67.847 E0.48070
G1 X62.548 Y67.748 E0.00193
G1 F1800.000 E-1.00000
G1 Z1.800 F9000.000
G1 X64.197 Y69.397
G1 F1800.000 E1.00000
G1 X75.803 Y69.397 F3900.000 E0.22860
G1 X75.803 Y90.603 E0.41769
G1 X64.197 Y90.603 E0.22860
G1 X64.197 Y69.495 E0.41575
G1 X64.197 Y69.397 E0.00193
G1 X64.852 Y70.052 F9000.000
G1 X75.148 Y70.052 F3900.000 E0.20281
G1 X75.148 Y89.948 E0.39190
G1 X64.852 Y89.948 E0.20281
G1 X64.852 Y70.150 E0.38997
G1 X64.852 Y70.052 E0.00193
G1 X65.179 Y69.485 F9000.000
G1 F1800.000 E-1.00000
G1 X76.797 Y91.597 F9000.000
G1 F1800.000 E1.00000
G1 X63.203 Y91.597 F3900.000 E0.26776
G1 X63.203 Y68.403 E0.45685
G1 X76.797 Y68.403 E0.26776
G1 X76.797 Y91.499 E0.45492
G1 X76.797 Y91.597 E0.00193
G1 X77.452 Y92.252 F9000.000
G1 X62.548 Y92.252 F3900.000 E0.29355
G1 X62.548 Y67.748 E0.48264
G1 X77.452 Y67.748 E0.29355
G1 X77.452 Y92.153 E0.48070
G1 X77.452 Y92.252 E0.00193
G1 F1800.000 E-1.00000
G1 Z2.100 F9000.000
G1 X72.511 Y91.597
G1 F1800.000 E1.00000
G1 X72.511 Y90.603 F3900.000 E0.01958
G1 X75.803 Y90.603 E0.06484
G1 X75.803 Y69.397 E0.41769
G1 X72.511 Y69.397 E0.06484
G1 X72.511 Y68.403 E0.01958
G1 X76.797 Y68.403 E0.08442
G1 X76.797 Y91.597 E0.45685
G1 X72.609 Y91.597 E0.08249
G1 X72.511 Y91.597 E0.00193
G1 X71.857 Y92.252 F9000.000
G1 X71.857 Y89.948 F3900.000 E0.04537
G1 X75.148 Y89.948 E0.06484
G1 X75.148 Y70.052 E0.39190
G1 X71.857 Y70.052 E0.06484
G1 X71.857 Y67.748 E0.04537
G1 X77.452 Y67.748 E0.11020
G1 X77.452 Y92.252 E0.48264
G1 X71.955 Y92.252 E0.10827
G1 X71.857 Y92.252 E0.00193
G1 X71.290 Y91.924 F9000.000
G1 F1800.000 E-1.00000
G1 X63.203 Y91.597 F9000.000
G1 F1800.000 E1.00000
G1 X63.203 Y68.403 F3900.000 E0.45685
G1 X67.489 Y68.403 E0.08442
G1 X67.489 Y69.397 E0.01958
G1 X64.197 Y69.397 E0.06484
G1 X64.197 Y90.603 E0.41769
G1 X67.489 Y90.603 E0.06484
G1 X67.489 Y91.597 E0.01958
